; generated by Slic3r 1.2.9 on 2018-03-03 at 14:53:35

; external perimeters extrusion width = 0.40mm
; perimeters extrusion width = 0.67mm
; infill extrusion width = 0.67mm
; solid infill extrusion width = 0.67mm
; top infill extrusion width = 0.67mm

M104 S210 ; set temperature
;G28 ; home all axes
G1 Z10 F5000 ; lift nozzle

M104 S210 ; set temperature
M116 ; wait for temperature to be reached
G21 ; set units to millimeters
G90 ; use absolute coordinates
M82 ; use absolute distances for extrusion
G92 E0
G1 E-2.00000 F3600.00000
G92 E0
G1 Z0.200 F7200.000
G1 X96.465 Y69.601 F7200.000
G1 E2.00000 F3600.00000
G1 X96.722 Y69.258 E2.02238 F1200.000
G1 X97.773 Y68.044 E2.10627
G1 X98.706 Y67.158 E2.17352
G1 X112.422 Y55.394 E3.11756
G1 X112.955 Y54.950 E3.15380
G1 X113.736 Y54.356 E3.20508
G1 X114.314 Y53.955 E3.24183
G1 X115.147 Y53.429 E3.29328
G1 X115.788 Y53.063 E3.33185
G1 X116.630 Y52.631 E3.38130
G1 X117.336 Y52.306 E3.42188
G1 X118.178 Y51.966 E3.46933
G1 X118.949 Y51.690 E3.51211
G1 X119.777 Y51.438 E3.55735
G1 X120.608 Y51.222 E3.60222
G1 X121.417 Y51.053 E3.64538
G1 X122.197 Y50.920 E3.68672
G1 X124.000 Y50.775 E3.78123
G1 X126.000 Y50.775 E3.88572
G1 X127.636 Y50.894 E3.97143
G1 X129.063 Y51.146 E4.04713 F1200.000
G1 X130.221 Y51.438 E4.10950
G1 X131.167 Y51.731 E4.16128
G1 X132.358 Y52.173 E4.22762
G1 X133.368 Y52.630 E4.28555
G1 X133.916 Y52.901 E4.31747
G1 X134.852 Y53.428 E4.37358
G1 X135.690 Y53.957 E4.42536
G1 X136.817 Y54.765 E4.49783
G1 X137.710 Y55.505 E4.55839
G1 X151.294 Y67.158 E5.49345
G1 X151.924 Y67.742 E5.53834
G1 X152.227 Y68.045 E5.56074
G1 X153.279 Y69.258 E5.64462
G1 X153.535 Y69.601 E5.66698
G1 X154.403 Y70.952 E5.75089
G1 X154.609 Y71.329 E5.77331
G1 X155.276 Y72.789 E5.85716
G1 X155.425 Y73.190 E5.87952
G1 X155.878 Y74.731 E5.96343
G1 X155.969 Y75.150 E5.98587
G1 X156.197 Y76.739 E6.06971
G1 X156.257 Y77.969 E6.13404
G1 X156.257 Y84.969 E6.49976
G1 X156.197 Y86.199 E6.56409
G1 X155.969 Y87.788 E6.64800
G1 X155.878 Y88.207 E6.67037
G1 X155.425 Y89.748 E6.75427
G1 X155.275 Y90.150 E6.77674
G1 X154.609 Y91.610 E6.86054
G1 X154.403 Y91.985 E6.88291
G1 X153.535 Y93.336 E6.96681
G1 X153.278 Y93.680 E6.98924
G1 X152.227 Y94.893 E7.07309
G1 X151.924 Y95.196 E7.09545
G1 X150.710 Y96.247 E7.17936
G1 X150.368 Y96.504 E7.20172
G1 X149.017 Y97.372 E7.28563
G1 X148.641 Y97.577 E7.30800
G1 X147.180 Y98.244 E7.39191
G1 X146.779 Y98.394 E7.41427
G1 X145.238 Y98.846 E7.49818
G1 X144.820 Y98.937 E7.52054
G1 X143.230 Y99.166 E7.60445
G1 X142.000 Y99.225 E7.66878
G1 X108.000 Y99.225 E9.44511
G1 X107.197 Y99.197 E9.48709
G1 X106.770 Y99.166 E9.50945
G1 X105.180 Y98.937 E9.59337
G1 X104.762 Y98.846 E9.61573
G1 X103.221 Y98.394 E9.69963
G1 X102.833 Y98.249 E9.72125
G1 X101.359 Y97.577 E9.80591
G1 X100.983 Y97.372 E9.82827
G1 X99.632 Y96.504 E9.91218
G1 X99.290 Y96.247 E9.93454
G1 X98.076 Y95.196 E10.01845
G1 X97.773 Y94.893 E10.04081
G1 X96.721 Y93.679 E10.12472
G1 X96.473 Y93.348 E10.14634
G1 X95.597 Y91.985 E10.23099
G1 X95.391 Y91.610 E10.25336
G1 X94.724 Y90.149 E10.33727
G1 X94.574 Y89.747 E10.35965
G1 X94.122 Y88.207 E10.44353
G1 X94.031 Y87.788 E10.46590
G1 X93.803 Y86.199 E10.54981
G1 X93.743 Y84.969 E10.61414
G1 X93.743 Y77.969 E10.97986
G1 X93.803 Y76.739 E11.04419
G1 X94.031 Y75.149 E11.12811
G1 X94.122 Y74.730 E11.15051
G1 X94.575 Y73.190 E11.23437
G1 X94.724 Y72.789 E11.25674
G1 X95.391 Y71.328 E11.34065
G1 X95.597 Y70.952 E11.36301
G1 X96.432 Y69.651 E11.44379
G1 X96.960 Y69.990 F7200.000
G1 X97.225 Y69.634 E11.46696 F1200.000
G1 X98.217 Y68.489 E11.54616
G1 X99.115 Y67.635 E11.61091
G1 X112.792 Y55.903 E12.55234
G1 X113.357 Y55.433 E12.59070
G1 X114.094 Y54.872 E12.63911
G1 X114.672 Y54.471 E12.67586
G1 X115.458 Y53.975 E12.72443
G1 X116.098 Y53.609 E12.76289
G1 X116.893 Y53.202 E12.80959
G1 X117.595 Y52.879 E12.84994
G1 X118.390 Y52.557 E12.89474
G1 X119.154 Y52.284 E12.93718
G1 X119.937 Y52.046 E12.97990
G1 X120.759 Y51.832 E13.02430
G1 X121.523 Y51.672 E13.06505
G1 X122.298 Y51.540 E13.10612
G1 X124.000 Y51.403 E13.19535
G1 X126.000 Y51.403 E13.29984
G1 X127.545 Y51.516 E13.38077
G1 X128.931 Y51.760 E13.45428 F1200.000
G1 X130.061 Y52.046 E13.51521
G1 X130.955 Y52.323 E13.56411
G1 X132.116 Y52.753 E13.62880
G1 X133.105 Y53.201 E13.68551
G1 X133.622 Y53.456 E13.71565
G1 X134.540 Y53.974 E13.77067
G1 X135.332 Y54.473 E13.81958
G1 X136.428 Y55.258 E13.89002
G1 X137.301 Y55.982 E13.94925
G1 X150.885 Y67.635 E14.88430
G1 X151.480 Y68.186 E14.92669
G1 X151.783 Y68.489 E14.94909
G1 X152.776 Y69.635 E15.02829
G1 X153.032 Y69.977 E15.05065
G1 X153.852 Y71.253 E15.12987
G1 X154.058 Y71.630 E15.15229
G1 X154.687 Y73.008 E15.23146
G1 X154.837 Y73.409 E15.25382
G1 X155.264 Y74.864 E15.33305
G1 X155.355 Y75.284 E15.35548
G1 X155.571 Y76.783 E15.43464
G1 X155.628 Y77.969 E15.49663
G1 X155.628 Y84.969 E15.86235
G1 X155.571 Y86.154 E15.92434
G1 X155.355 Y87.655 E16.00357
G1 X155.264 Y88.073 E16.02593
G1 X154.837 Y89.528 E16.10515
G1 X154.686 Y89.931 E16.12761
G1 X154.057 Y91.308 E16.20674
G1 X153.852 Y91.684 E16.22910
G1 X153.032 Y92.960 E16.30833
G1 X152.775 Y93.303 E16.33075
G1 X151.783 Y94.449 E16.40992
G1 X151.480 Y94.751 E16.43228
G1 X150.334 Y95.744 E16.51150
G1 X149.991 Y96.001 E16.53387
G1 X148.716 Y96.821 E16.61309
G1 X148.340 Y97.026 E16.63546
G1 X146.960 Y97.656 E16.71469
G1 X146.559 Y97.805 E16.73705
G1 X145.104 Y98.233 E16.81627
G1 X144.686 Y98.324 E16.83863
G1 X143.185 Y98.539 E16.91786
G1 X142.000 Y98.597 E16.97985
G1 X108.000 Y98.597 E18.75618
G1 X107.242 Y98.570 E18.79582
G1 X106.815 Y98.539 E18.81818
G1 X105.314 Y98.324 E18.89741
G1 X104.896 Y98.233 E18.91977
G1 X103.441 Y97.805 E18.99899
G1 X103.053 Y97.661 E19.02061
G1 X101.660 Y97.026 E19.10058
G1 X101.284 Y96.821 E19.12294
G1 X100.009 Y96.001 E19.20217
G1 X99.666 Y95.744 E19.22453
G1 X98.520 Y94.751 E19.30376
G1 X98.217 Y94.449 E19.32612
G1 X97.224 Y93.303 E19.40534
G1 X96.976 Y92.971 E19.42696
G1 X96.148 Y91.684 E19.50693
G1 X95.943 Y91.308 E19.52930
G1 X95.313 Y89.929 E19.60852
G1 X95.163 Y89.528 E19.63091
G1 X94.736 Y88.073 E19.71011
G1 X94.645 Y87.655 E19.73247
G1 X94.429 Y86.154 E19.81170
G1 X94.372 Y84.969 E19.87369
G1 X94.372 Y77.969 E20.23940
G1 X94.429 Y76.784 E20.30139
G1 X94.645 Y75.282 E20.38062
G1 X94.736 Y74.863 E20.40303
G1 X95.163 Y73.409 E20.48221
G1 X95.313 Y73.008 E20.50457
G1 X95.943 Y71.629 E20.58380
G1 X96.148 Y71.253 E20.60616
G1 X96.927 Y70.041 E20.68146
G1 F5760
G1 X97.225 Y69.634 E20.38259
G1 F5760
G1 X98.217 Y68.489 E19.48243
G1 F5760
G1 X99.073 Y67.675 E18.78146
G1 E18.68146 F3600.00000
G92 E0
G1 X102.162 Y73.959 F7200.000
G1 E2.00000 F3600.00000
G1 X102.551 Y73.440 E2.03391 F1200.000
G1 X102.742 Y73.219 E2.04914
G1 X103.251 Y72.710 E2.08674
G1 X103.471 Y72.519 E2.10199
G1 X104.047 Y72.088 E2.13960
G1 X104.293 Y71.930 E2.15483
G1 X104.924 Y71.585 E2.19243
G1 X105.190 Y71.464 E2.20767
G1 X105.864 Y71.213 E2.24529
G1 X106.144 Y71.130 E2.26052
G1 X106.847 Y70.977 E2.29812
G1 X107.136 Y70.936 E2.31337
G1 X107.782 Y70.890 E2.34717
G1 X112.555 Y70.885 E2.59654
G1 X112.923 Y70.517 E2.62370
G1 X112.927 Y69.444 E2.67980
G1 X113.045 Y68.220 E2.74401
G1 X113.208 Y67.328 E2.79138
G1 X113.450 Y66.419 E2.84056
G1 X113.806 Y65.419 E2.89599
G1 X114.312 Y64.328 E2.95883
G1 X114.852 Y63.406 E3.01465
G1 X115.472 Y62.536 E3.07046
G1 X116.165 Y61.723 E3.12628
G1 X116.928 Y60.976 E3.18207
G1 X117.832 Y60.243 E3.24286
G1 X118.627 Y59.701 E3.29315
G1 X119.400 Y59.260 E3.33961
G1 X120.367 Y58.808 E3.39540
G1 X121.371 Y58.442 E3.45124
G1 X122.403 Y58.166 E3.50705
G1 X124.578 Y57.800 E3.62227
G1 X124.745 Y57.719 E3.63195
G1 X124.968 Y57.737 E3.64364
G1 X125.209 Y57.698 E3.65641
G1 X125.266 Y57.746 E3.66033
G1 X125.427 Y57.819 E3.66957 F1200.000
G1 X126.620 Y57.995 E3.73256
G1 X127.505 Y58.147 E3.77950
G1 X128.447 Y58.388 E3.83028
G1 X129.546 Y58.772 E3.89110
G1 X130.418 Y59.168 E3.94113
G1 X131.445 Y59.746 E4.00271
G1 X132.323 Y60.356 E4.05857
G1 X133.143 Y61.040 E4.11437
G1 X133.900 Y61.794 E4.17018
G1 X134.587 Y62.611 E4.22594
G1 X135.199 Y63.487 E4.28179
G1 X135.732 Y64.414 E4.33761
G1 X136.181 Y65.383 E4.39342
G1 X136.568 Y66.483 E4.45434
G1 X136.811 Y67.415 E4.50465
G1 X136.967 Y68.285 E4.55087
G1 X137.069 Y69.350 E4.60674
G1 X137.077 Y70.517 E4.66772
G1 X137.445 Y70.885 E4.69489
G1 X142.218 Y70.890 E4.94426
G1 X142.864 Y70.936 E4.97806
G1 X143.153 Y70.977 E4.99330
G1 X143.856 Y71.130 E5.03092
G1 X144.136 Y71.213 E5.04615
G1 X144.810 Y71.464 E5.08375
G1 X145.076 Y71.585 E5.09900
G1 X145.707 Y71.930 E5.13659
G1 X145.953 Y72.088 E5.15184
G1 X146.529 Y72.519 E5.18943
G1 X146.749 Y72.710 E5.20468
G1 X147.258 Y73.219 E5.24230
G1 X147.449 Y73.440 E5.25753
G1 X147.880 Y74.016 E5.29512
G1 X148.038 Y74.261 E5.31037
G1 X148.383 Y74.893 E5.34799
G1 X148.505 Y75.159 E5.36323
G1 X148.756 Y75.832 E5.40080
G1 X148.838 Y76.113 E5.41606
G1 X148.991 Y76.816 E5.45369
G1 X149.033 Y77.105 E5.46892
G1 X149.084 Y77.896 E5.51032
G1 X149.084 Y85.041 E5.88364
G1 X149.033 Y85.832 E5.92506
G1 X148.991 Y86.121 E5.94030
G1 X148.838 Y86.824 E5.97788
G1 X148.756 Y87.104 E5.99314
G1 X148.504 Y87.779 E6.03077
G1 X148.383 Y88.044 E6.04600
G1 X148.039 Y88.676 E6.08357
G1 X147.881 Y88.921 E6.09882
G1 X147.449 Y89.498 E6.13645
G1 X147.258 Y89.718 E6.15168
G1 X146.749 Y90.227 E6.18928
G1 X146.529 Y90.418 E6.20452
G1 X145.953 Y90.849 E6.24212
G1 X145.707 Y91.007 E6.25736
G1 X145.075 Y91.352 E6.29497
G1 X144.810 Y91.473 E6.31021
G1 X144.136 Y91.725 E6.34782
G1 X143.856 Y91.807 E6.36306
G1 X143.153 Y91.960 E6.40066
G1 X142.864 Y92.001 E6.41590
G1 X142.073 Y92.053 E6.45731
G1 X107.927 Y92.053 E8.24125
G1 X107.136 Y92.001 E8.28266
G1 X106.847 Y91.960 E8.29790
G1 X106.144 Y91.807 E8.33549
G1 X105.864 Y91.725 E8.35074
G1 X105.190 Y91.473 E8.38835
G1 X104.924 Y91.352 E8.40359
G1 X104.293 Y91.007 E8.44119
G1 X104.047 Y90.849 E8.45644
G1 X103.471 Y90.418 E8.49403
G1 X103.251 Y90.227 E8.50928
G1 X102.742 Y89.718 E8.54688
G1 X102.551 Y89.498 E8.56212
G1 X102.119 Y88.921 E8.59973
G1 X101.962 Y88.676 E8.61497
G1 X101.617 Y88.044 E8.65257
G1 X101.496 Y87.779 E8.66781
G1 X101.244 Y87.104 E8.70543
G1 X101.162 Y86.824 E8.72066
G1 X101.009 Y86.121 E8.75826
G1 X100.967 Y85.832 E8.77351
G1 X100.916 Y85.041 E8.81492
G1 X100.916 Y77.896 E9.18824
G1 X100.967 Y77.105 E9.22965
G1 X101.009 Y76.816 E9.24489
G1 X101.162 Y76.113 E9.28251
G1 X101.244 Y75.833 E9.29774
G1 X101.496 Y75.158 E9.33534
G1 X101.617 Y74.893 E9.35058
G1 X101.962 Y74.261 E9.38819
G1 X102.126 Y74.007 E9.40400
G1 X102.636 Y74.375 F7200.000
G1 X103.040 Y73.834 E9.43926 F1200.000
G1 X103.202 Y73.648 E9.45215
G1 X103.679 Y73.171 E9.48741
G1 X103.866 Y73.009 E9.50031
G1 X104.406 Y72.604 E9.53557
G1 X104.614 Y72.471 E9.54846
G1 X105.206 Y72.148 E9.58372
G1 X105.430 Y72.045 E9.59662
G1 X106.063 Y71.809 E9.63188
G1 X106.300 Y71.740 E9.64477
G1 X106.959 Y71.596 E9.68003
G1 X107.203 Y71.561 E9.69293
G1 X107.938 Y71.513 E9.73141
G1 X113.234 Y71.513 E10.00807
G1 X113.607 Y71.106 E10.03693
G1 X113.552 Y70.399 E10.07398
G1 X113.552 Y69.558 E10.11789
G1 X113.632 Y68.556 E10.17041
G1 X113.821 Y67.466 E10.22823
G1 X114.126 Y66.370 E10.28764
G1 X114.435 Y65.539 E10.33396
G1 X114.812 Y64.732 E10.38053
G1 X115.310 Y63.858 E10.43306
G1 X115.883 Y63.032 E10.48559
G1 X116.526 Y62.259 E10.53812
G1 X117.342 Y61.449 E10.59819
G1 X118.123 Y60.806 E10.65104
G1 X118.951 Y60.240 E10.70345
G1 X119.698 Y59.813 E10.74839
G1 X120.529 Y59.424 E10.79633
G1 X121.565 Y59.039 E10.85409
G1 X122.543 Y58.779 E10.90694
G1 X124.894 Y58.373 E11.03159
G1 X125.040 Y58.362 E11.03925
G1 X125.157 Y58.415 E11.04597 F1200.000
G1 X126.525 Y58.616 E11.11819
G1 X127.460 Y58.780 E11.16776
G1 X128.437 Y59.041 E11.22061
G1 X129.446 Y59.412 E11.27677
G1 X130.231 Y59.777 E11.32203
G1 X131.025 Y60.226 E11.36966
G1 X131.856 Y60.792 E11.42220
G1 X132.718 Y61.503 E11.48059
G1 X133.435 Y62.217 E11.53344
G1 X134.086 Y62.991 E11.58625
G1 X134.719 Y63.908 E11.64448
G1 X135.171 Y64.697 E11.69198
G1 X135.541 Y65.483 E11.73737
G1 X135.894 Y66.424 E11.78989
G1 X136.195 Y67.538 E11.85021
G1 X136.365 Y68.528 E11.90267
G1 X136.447 Y69.530 E11.95522
G1 X136.448 Y70.401 E12.00072
G1 X136.393 Y71.106 E12.03764
G1 X136.766 Y71.513 E12.06650
G1 X142.062 Y71.513 E12.34317
G1 X142.797 Y71.561 E12.38165
G1 X143.041 Y71.596 E12.39454
G1 X143.701 Y71.740 E12.42981
G1 X143.937 Y71.809 E12.44270
G1 X144.570 Y72.045 E12.47796
G1 X144.794 Y72.148 E12.49085
G1 X145.386 Y72.471 E12.52611
G1 X145.594 Y72.604 E12.53901
G1 X146.134 Y73.009 E12.57425
G1 X146.321 Y73.170 E12.58716
G1 X146.798 Y73.648 E12.62243
G1 X146.960 Y73.834 E12.63532
G1 X147.364 Y74.374 E12.67056
G1 X147.498 Y74.582 E12.68347
G1 X147.821 Y75.175 E12.71875
G1 X147.924 Y75.399 E12.73163
G1 X148.159 Y76.031 E12.76687
G1 X148.229 Y76.268 E12.77978
G1 X148.373 Y76.928 E12.81506
G1 X148.408 Y77.172 E12.82795
G1 X148.456 Y77.907 E12.86642
G1 X148.456 Y85.030 E13.23857
G1 X148.408 Y85.765 E13.27705
G1 X148.372 Y86.010 E13.28995
G1 X148.229 Y86.669 E13.32519
G1 X148.160 Y86.906 E13.33810
G1 X147.923 Y87.539 E13.37339
G1 X147.821 Y87.763 E13.38627
G1 X147.498 Y88.355 E13.42150
G1 X147.364 Y88.563 E13.43441
G1 X146.960 Y89.103 E13.46969
G1 X146.798 Y89.290 E13.48258
G1 X146.321 Y89.767 E13.51783
G1 X146.134 Y89.928 E13.53073
G1 X145.594 Y90.333 E13.56598
G1 X145.386 Y90.466 E13.57888
G1 X144.794 Y90.790 E13.61414
G1 X144.570 Y90.892 E13.62704
G1 X143.937 Y91.128 E13.66230
G1 X143.700 Y91.198 E13.67519
G1 X143.041 Y91.341 E13.71045
G1 X142.797 Y91.376 E13.72335
G1 X142.062 Y91.424 E13.76183
G1 X107.938 Y91.424 E15.54460
G1 X107.203 Y91.376 E15.58308
G1 X106.959 Y91.341 E15.59597
G1 X106.300 Y91.198 E15.63122
G1 X106.063 Y91.128 E15.64412
G1 X105.430 Y90.892 E15.67939
G1 X105.206 Y90.790 E15.69228
G1 X104.614 Y90.466 E15.72754
G1 X104.406 Y90.333 E15.74044
G1 X103.866 Y89.928 E15.77569
G1 X103.679 Y89.767 E15.78859
G1 X103.202 Y89.290 E15.82385
G1 X103.040 Y89.103 E15.83675
G1 X102.636 Y88.563 E15.87201
G1 X102.502 Y88.355 E15.88491
G1 X102.179 Y87.763 E15.92016
G1 X102.076 Y87.538 E15.93306
G1 X101.840 Y86.906 E15.96832
G1 X101.771 Y86.669 E15.98122
G1 X101.628 Y86.010 E16.01647
G1 X101.592 Y85.765 E16.02937
G1 X101.544 Y85.030 E16.06785
G1 X101.544 Y77.907 E16.44001
G1 X101.592 Y77.172 E16.47848
G1 X101.742 Y76.403 E16.51943
G1 X101.841 Y76.031 E16.53950
G1 X102.076 Y75.399 E16.57476
G1 X102.179 Y75.175 E16.58766
G1 X102.603 Y74.425 E16.63266
G1 X103.132 Y74.765 F7200.000
G1 X103.662 Y74.076 E16.67806 F1200.000
G1 X104.260 Y73.498 E16.72150
G1 X104.765 Y73.121 E16.75442
G1 X105.487 Y72.710 E16.79786
G1 X105.671 Y72.626 E16.80841
G1 X106.455 Y72.349 E16.85186
G1 X107.271 Y72.186 E16.89531
G1 X107.950 Y72.141 E16.93086
G1 X113.938 Y72.141 E17.24371
G1 X114.314 Y71.704 E17.27385
G1 X114.252 Y71.273 E17.29659
G1 X114.183 Y70.449 E17.33975
G1 X114.190 Y69.376 E17.39584
G1 X114.267 Y68.544 E17.43951
G1 X114.417 Y67.685 E17.48507
G1 X114.683 Y66.681 E17.53931
G1 X115.054 Y65.695 E17.59435
G1 X115.421 Y64.921 E17.63909
G1 X115.848 Y64.184 E17.68359
G1 X116.455 Y63.318 E17.73888
G1 X117.075 Y62.591 E17.78878
G1 X117.812 Y61.874 E17.84249
G1 X118.493 Y61.315 E17.88853
G1 X119.170 Y60.845 E17.93161
G1 X119.996 Y60.366 E17.98148
G1 X120.967 Y59.920 E18.03731
G1 X121.760 Y59.637 E18.08127
G1 X122.683 Y59.392 E18.13116
G1 X124.929 Y59.016 E18.25015
G1 X126.430 Y59.237 E18.32942
G1 X127.320 Y59.393 E18.37663 F1200.000
G1 X128.297 Y59.657 E18.42949
G1 X129.077 Y59.938 E18.47284
G1 X129.877 Y60.302 E18.51873
G1 X130.705 Y60.767 E18.56835
G1 X131.560 Y61.354 E18.62254
G1 X132.293 Y61.966 E18.67242
G1 X132.970 Y62.639 E18.72231
G1 X133.585 Y63.370 E18.77217
G1 X134.133 Y64.152 E18.82209
G1 X134.610 Y64.980 E18.87199
G1 X135.012 Y65.846 E18.92188
G1 X135.336 Y66.744 E18.97177
G1 X135.552 Y67.542 E19.01495
G1 X135.712 Y68.408 E19.06095
G1 X135.814 Y69.429 E19.11458
G1 X135.815 Y70.494 E19.17024
G1 X135.741 Y71.336 E19.21438
G1 X135.690 Y71.711 E19.23413
G1 X136.065 Y72.141 E19.26399
G1 X142.050 Y72.141 E19.57668
G1 X142.729 Y72.186 E19.61223
G1 X143.545 Y72.349 E19.65568
G1 X144.329 Y72.626 E19.69912
G1 X144.513 Y72.710 E19.70967
