; generated by Slic3r 1.2.9 on 2018-02-17 at 17:42:54

; external perimeters extrusion width = 0.40mm
; perimeters extrusion width = 0.67mm
; infill extrusion width = 0.67mm
; solid infill extrusion width = 0.67mm
; top infill extrusion width = 0.67mm

M104 S210 ; set temperature
;G28 ; home all axes
G1 Z10 F5000 ; lift nozzle

M104 S210 ; set temperature
M116 ; wait for temperature to be reached
G21 ; set units to millimeters
G90 ; use absolute coordinates
M82 ; use absolute distances for extrusion
G92 E0
G1 Z0.200 F7200.000
G1 E-2.00000 F2400.00000
G92 E0
G1 Z0.600 F7200.000
G1 X89.308 Y50.025 F7200.000
G1 Z0.200 F7200.000
G1 E2.00000 F2400.00000
G1 X91.160 Y47.672 E2.15643 F1200.000
G1 X93.567 Y45.891 E2.31286
G1 X96.359 Y44.808 E2.46930
G1 X99.000 Y44.493 E2.60827
G1 X151.000 Y44.493 E5.32501
G1 X153.968 Y44.892 E5.48144
G1 X156.725 Y46.058 E5.63787 F1200.000
G1 X159.078 Y47.910 E5.79431
G1 X160.859 Y50.317 E5.95074
G1 X161.942 Y53.109 E6.10717
G1 X162.257 Y55.750 E6.24615
G1 X162.257 Y58.750 E6.40288
G1 X162.226 Y59.606 E6.44761
G1 X162.048 Y61.077 E6.52502
G1 X161.766 Y62.312 E6.59121
G1 X161.485 Y63.207 E6.64025
G1 X149.485 Y96.707 E8.49935
G1 X149.141 Y97.570 E8.54789
G1 X148.547 Y98.756 E8.61716
G1 X147.873 Y99.829 E8.68335
G1 X147.593 Y100.219 E8.70847
G1 X146.957 Y100.998 E8.76104
G1 X146.605 Y101.386 E8.78836
G1 X145.914 Y102.059 E8.83875
G1 X145.484 Y102.436 E8.86864
G1 X144.760 Y102.995 E8.91644
G1 X144.250 Y103.348 E8.94882
G1 X143.508 Y103.796 E8.99414
G1 X142.911 Y104.116 E9.02950
G1 X142.174 Y104.452 E9.07183
G1 X141.511 Y104.715 E9.10909
G1 X140.775 Y104.955 E9.14953
G1 X140.035 Y105.155 E9.18959
G1 X139.112 Y105.335 E9.23870
G1 X138.528 Y105.418 E9.26951
G1 X137.853 Y105.477 E9.30494
G1 X137.000 Y105.507 E9.34952
G1 X113.000 Y105.507 E10.60340
G1 X112.144 Y105.476 E10.64813
G1 X110.890 Y105.335 E10.71407
G1 X110.597 Y105.285 E10.72958
G1 X109.439 Y105.017 E10.79173
G1 X109.107 Y104.920 E10.80978
G1 X107.828 Y104.453 E10.88091
G1 X106.687 Y103.904 E10.94708
G1 X106.309 Y103.693 E10.96969
G1 X105.421 Y103.123 E11.02478
G1 X105.027 Y102.840 E11.05016
G1 X104.251 Y102.206 E11.10248
G1 X103.864 Y101.855 E11.12978
G1 X103.045 Y101.000 E11.19164
G1 X102.812 Y100.731 E11.21027
G1 X102.255 Y100.010 E11.25786
G1 X101.903 Y99.501 E11.29016
G1 X101.454 Y98.758 E11.33556
G1 X101.139 Y98.171 E11.37035
G1 X100.798 Y97.424 E11.41325
G1 X100.535 Y96.763 E11.45043
G1 X88.514 Y63.205 E13.31274
G1 X88.234 Y62.314 E13.36154
G1 X88.097 Y61.789 E13.38987
G1 X87.952 Y61.079 E13.42775
G1 X87.832 Y60.281 E13.46989
G1 X87.773 Y59.603 E13.50546
G1 X87.743 Y58.750 E13.55004
G1 X87.743 Y55.750 E13.70678
G1 X88.142 Y52.782 E13.86321
G1 X89.285 Y50.080 E14.01651
G1 X89.875 Y50.338 F7200.000
G1 X89.934 Y50.203 E14.02423 F1200.000
G1 X91.778 Y47.952 E14.17622
G1 X94.163 Y46.286 E14.32820
G1 X96.910 Y45.329 E14.48018
G1 X99.000 Y45.122 E14.58992
G1 X151.000 Y45.122 E17.30665
G1 X153.882 Y45.520 E17.45864
G1 X156.547 Y46.684 E17.61062 F1200.000
G1 X158.798 Y48.528 E17.76260
G1 X160.464 Y50.913 E17.91459
G1 X161.421 Y53.660 E18.06657
G1 X161.628 Y55.750 E18.17630
G1 X161.628 Y58.750 E18.33304
G1 X161.599 Y59.570 E18.37593
G1 X161.429 Y60.971 E18.44966
G1 X161.163 Y62.138 E18.51216
G1 X160.893 Y62.995 E18.55912
G1 X148.893 Y96.495 E20.41822
G1 X148.564 Y97.322 E20.46471
G1 X148.104 Y98.259 E20.51928
G1 X147.899 Y98.626 E20.54123
G1 X147.234 Y99.644 E20.60476
G1 X146.488 Y100.580 E20.66727
G1 X146.148 Y100.955 E20.69370
G1 X145.495 Y101.590 E20.74129
G1 X145.080 Y101.954 E20.77017
G1 X144.396 Y102.483 E20.81530
G1 X143.905 Y102.823 E20.84653
G1 X143.204 Y103.246 E20.88932
G1 X142.629 Y103.554 E20.92335
G1 X141.934 Y103.872 E20.96332
G1 X141.296 Y104.125 E20.99916
G1 X140.601 Y104.351 E21.03734
G1 X139.890 Y104.543 E21.07583
G1 X139.007 Y104.715 E21.12283
G1 X138.455 Y104.794 E21.15194
G1 X137.818 Y104.849 E21.18539
G1 X137.000 Y104.878 E21.22813
G1 X113.000 Y104.878 E22.48200
G1 X112.180 Y104.849 E22.52489
G1 X110.995 Y104.716 E22.58715
G1 X110.707 Y104.666 E22.60246
G1 X109.613 Y104.413 E22.66114
G1 X109.287 Y104.318 E22.67883
G1 X108.068 Y103.873 E22.74663
G1 X106.991 Y103.354 E22.80912
G1 X106.623 Y103.149 E22.83112
G1 X105.785 Y102.611 E22.88314
G1 X105.402 Y102.336 E22.90776
G1 X104.670 Y101.738 E22.95715
G1 X104.296 Y101.398 E22.98357
G1 X103.514 Y100.582 E23.04263
G1 X103.293 Y100.327 E23.06024
G1 X102.767 Y99.646 E23.10518
G1 X102.428 Y99.156 E23.13633
G1 X102.004 Y98.454 E23.17919
G1 X101.701 Y97.889 E23.21269
G1 X101.378 Y97.184 E23.25320
G1 X101.126 Y96.548 E23.28894
G1 X89.106 Y62.993 E25.15109
G1 X88.838 Y62.140 E25.19780
G1 X88.708 Y61.644 E25.22457
G1 X88.572 Y60.973 E25.26034
G1 X88.456 Y60.208 E25.30076
G1 X88.401 Y59.568 E25.33435
G1 X88.372 Y58.750 E25.37710
G1 X88.372 Y55.750 E25.53384
G1 X88.770 Y52.868 E25.68582
G1 X89.851 Y50.393 E25.82695
G1 E23.82695 F2400.00000
G92 E0
G1 Z0.600 F7200.000
G1 X112.321 Y79.087 F7200.000
G1 Z0.200 F7200.000
G1 E2.00000 F2400.00000
G1 X112.321 Y62.712 E2.85552 F1050.000
G1 X112.300 Y62.338 E2.87512
G1 X112.152 Y61.689 E2.90988
G1 X111.995 Y61.310 E2.93132
G1 X111.794 Y60.946 E2.95303
G1 X111.378 Y60.426 E2.98780
G1 X111.073 Y60.153 E3.00920
G1 X110.768 Y59.936 E3.02875
G1 X110.404 Y59.736 E3.05045
G1 X109.776 Y59.517 E3.08520
G1 X109.337 Y59.442 E3.10851
G1 X101.038 Y59.429 E3.54206
G1 X100.776 Y59.389 E3.55590
G1 X100.640 Y59.323 E3.56382
G1 X100.521 Y59.228 E3.57175
G1 X100.427 Y59.110 E3.57967
G1 X100.350 Y58.935 E3.58962
G1 X100.321 Y58.676 E3.60325
G1 X100.321 Y57.071 E3.68710
G1 X149.679 Y57.071 E6.26581
G1 X149.679 Y58.676 E6.34967
G1 X149.650 Y58.934 E6.36321 F1050.000
G1 X149.549 Y59.143 E6.37536
G1 X149.359 Y59.324 E6.38908
G1 X149.074 Y59.423 E6.40484
G1 X140.962 Y59.429 E6.82862
G1 X140.588 Y59.450 E6.84823
G1 X139.939 Y59.598 E6.88298
G1 X139.561 Y59.755 E6.90437
G1 X139.234 Y59.935 E6.92386
G1 X138.930 Y60.151 E6.94334
G1 X138.651 Y60.400 E6.96289
G1 X138.374 Y60.710 E6.98459
G1 X138.021 Y61.273 E7.01935
G1 X137.863 Y61.653 E7.04083
G1 X137.749 Y62.052 E7.06252
G1 X137.679 Y62.676 E7.09532
G1 X137.679 Y92.213 E8.63847
G1 X137.660 Y92.401 E8.64833
G1 X137.573 Y92.610 E8.66019
G1 X137.394 Y92.799 E8.67379
G1 X137.293 Y92.860 E8.67993
G1 X137.185 Y92.900 E8.68595
G1 X136.928 Y92.929 E8.69946
G1 X127.321 Y92.929 E9.20138
G1 X127.321 Y87.373 E9.49164
G1 X127.624 Y87.263 E9.50847
G1 X128.066 Y87.067 E9.53375
G1 X128.495 Y86.840 E9.55907
G1 X128.911 Y86.582 E9.58468
G1 X129.298 Y86.302 E9.60964
G1 X129.671 Y85.993 E9.63493
G1 X130.021 Y85.658 E9.66024
G1 X130.351 Y85.296 E9.68585
G1 X130.648 Y84.922 E9.71081
G1 X130.922 Y84.523 E9.73610
G1 X131.168 Y84.105 E9.76141
G1 X131.387 Y83.668 E9.78698
G1 X131.572 Y83.223 E9.81212
G1 X131.725 Y82.771 E9.83708
G1 X131.849 Y82.297 E9.86267
G1 X131.940 Y81.815 E9.88830
G1 X131.997 Y81.339 E9.91332
G1 X132.021 Y80.861 E9.93834
G1 X132.012 Y80.376 E9.96369
G1 X131.969 Y79.892 E9.98908
G1 X131.892 Y79.408 E10.01467
G1 X131.785 Y78.942 E10.03967
G1 X131.646 Y78.484 E10.06466
G1 X131.472 Y78.025 E10.09031
G1 X131.266 Y77.582 E10.11585
G1 X131.036 Y77.163 E10.14080
G1 X130.775 Y76.755 E10.16611
G1 X130.482 Y76.362 E10.19172
G1 X130.171 Y76.000 E10.21668
G1 X129.831 Y75.654 E10.24199
G1 X129.464 Y75.330 E10.26760
G1 X129.085 Y75.039 E10.29256
G1 X128.682 Y74.771 E10.31784
G1 X128.261 Y74.531 E10.34316
G1 X127.819 Y74.319 E10.36877
G1 X127.375 Y74.142 E10.39373
G1 X126.914 Y73.994 E10.41901
G1 X126.444 Y73.878 E10.44433
G1 X125.961 Y73.794 E10.46994
G1 X125.485 Y73.745 E10.49490
G1 X125.001 Y73.728 E10.52021
G1 X124.511 Y73.745 E10.54582
G1 X124.036 Y73.795 E10.57078
G1 X123.559 Y73.878 E10.59606
G1 X123.089 Y73.993 E10.62138
G1 X122.622 Y74.143 E10.64700
G1 X122.178 Y74.320 E10.67195
G1 X121.742 Y74.530 E10.69724
G1 X121.321 Y74.769 E10.72256
G1 X120.913 Y75.041 E10.74817
G1 X120.534 Y75.332 E10.77313
G1 X120.171 Y75.653 E10.79844
G1 X119.827 Y76.002 E10.82405
G1 X119.516 Y76.365 E10.84900
G1 X119.227 Y76.753 E10.87432
G1 X118.962 Y77.166 E10.89993
G1 X118.732 Y77.585 E10.92488
G1 X118.529 Y78.024 E10.95020
G1 X118.354 Y78.484 E10.97590
G1 X118.215 Y78.942 E11.00089
G1 X118.108 Y79.408 E11.02589
G1 X118.031 Y79.892 E11.05148
G1 X117.988 Y80.376 E11.07685
G1 X117.979 Y80.855 E11.10188
G1 X118.003 Y81.333 E11.12689
G1 X118.060 Y81.821 E11.15258
G1 X118.152 Y82.302 E11.17814
G1 X118.273 Y82.764 E11.20312
G1 X118.427 Y83.220 E11.22828
G1 X118.614 Y83.670 E11.25371
G1 X118.834 Y84.108 E11.27932
G1 X119.076 Y84.520 E11.30428
G1 X119.350 Y84.919 E11.32957
G1 X119.650 Y85.298 E11.35486
G1 X119.977 Y85.657 E11.38018
G1 X120.332 Y85.995 E11.40579
G1 X120.699 Y86.300 E11.43075
G1 X121.092 Y86.583 E11.45603
G1 X121.503 Y86.839 E11.48133
G1 X121.931 Y87.066 E11.50665
G1 X122.379 Y87.264 E11.53226
G1 X122.679 Y87.373 E11.54892
G1 X122.679 Y92.928 E11.83910
G1 X112.925 Y92.917 E12.34869
G1 X112.705 Y92.859 E12.36058
G1 X112.608 Y92.800 E12.36652
G1 X112.426 Y92.609 E12.38031
G1 X112.375 Y92.507 E12.38627
G1 X112.321 Y92.212 E12.40191
G1 X112.321 Y79.147 E13.08449
G1 X111.693 Y79.147 F7200.000
G1 X111.693 Y62.730 E13.94220 F1050.000
G1 X111.675 Y62.426 E13.95812
G1 X111.551 Y61.880 E13.98736
G1 X111.428 Y61.583 E14.00418
G1 X111.269 Y61.297 E14.02126
G1 X110.920 Y60.859 E14.05051
G1 X110.681 Y60.645 E14.06731
G1 X110.434 Y60.469 E14.08314
G1 X110.147 Y60.312 E14.10021
G1 X109.619 Y60.127 E14.12946
G1 X109.283 Y60.070 E14.14726
G1 X101.020 Y60.057 E14.57896
G1 X100.709 Y60.023 E14.59529
G1 X100.433 Y59.927 E14.61059
G1 X100.185 Y59.771 E14.62588
G1 X99.978 Y59.564 E14.64117
G1 X99.823 Y59.316 E14.65646
G1 X99.732 Y59.058 E14.67075
G1 X99.693 Y58.711 E14.68898
G1 X99.693 Y56.443 E14.80750
G1 X150.307 Y56.443 E17.45185
G1 X150.307 Y58.711 E17.57038
G1 X150.269 Y59.056 E17.58850 F1050.000
G1 X150.238 Y59.164 E17.59436
G1 X150.096 Y59.458 E17.61142
G1 X150.031 Y59.550 E17.61728
G1 X149.801 Y59.781 E17.63434
G1 X149.694 Y59.857 E17.64120
G1 X149.583 Y59.918 E17.64783
G1 X149.274 Y60.026 E17.66492
G1 X149.144 Y60.048 E17.67179
G1 X140.980 Y60.057 E18.09831
G1 X140.676 Y60.075 E18.11423
G1 X140.130 Y60.199 E18.14348
G1 X139.833 Y60.322 E18.16027
G1 X139.569 Y60.468 E18.17606
G1 X139.322 Y60.643 E18.19186
G1 X139.096 Y60.845 E18.20769
G1 X138.878 Y61.088 E18.22476
G1 X138.581 Y61.563 E18.25401
G1 X138.457 Y61.860 E18.27085
G1 X138.367 Y62.174 E18.28791
G1 X138.307 Y62.711 E18.31614
G1 X138.307 Y92.231 E19.85837
G1 X138.273 Y92.541 E19.87468
G1 X138.233 Y92.682 E19.88233
G1 X138.106 Y92.945 E19.89763
G1 X138.032 Y93.049 E19.90428
G1 X137.801 Y93.281 E19.92138
G1 X137.566 Y93.427 E19.93584
G1 X137.308 Y93.518 E19.95014
G1 X136.963 Y93.557 E19.96824
G1 X126.693 Y93.557 E20.50484
G1 X126.693 Y86.911 E20.85206
G1 X127.389 Y86.680 E20.89037
G1 X127.792 Y86.501 E20.91340
G1 X128.181 Y86.295 E20.93644
G1 X128.561 Y86.059 E20.95978
G1 X128.914 Y85.805 E20.98249
G1 X129.252 Y85.524 E21.00551
G1 X129.571 Y85.219 E21.02855
G1 X129.872 Y84.889 E21.05190
G1 X130.142 Y84.548 E21.07460
G1 X130.392 Y84.185 E21.09763
G1 X130.616 Y83.805 E21.12066
G1 X130.815 Y83.406 E21.14396
G1 X130.983 Y83.002 E21.16684
G1 X131.122 Y82.590 E21.18956
G1 X131.236 Y82.159 E21.21286
G1 X131.319 Y81.719 E21.23621
G1 X131.371 Y81.287 E21.25899
G1 X131.392 Y80.851 E21.28176
G1 X131.384 Y80.410 E21.30484
G1 X131.345 Y79.969 E21.32795
G1 X131.275 Y79.528 E21.35127
G1 X131.178 Y79.104 E21.37402
G1 X131.051 Y78.687 E21.39676
G1 X130.892 Y78.269 E21.42013
G1 X130.705 Y77.865 E21.44339
G1 X130.496 Y77.484 E21.46609
G1 X130.258 Y77.113 E21.48912
G1 X129.991 Y76.755 E21.51247
G1 X129.708 Y76.425 E21.53517
G1 X129.399 Y76.111 E21.55821
G1 X129.064 Y75.815 E21.58155
G1 X128.719 Y75.550 E21.60426
G1 X128.352 Y75.306 E21.62728
G1 X127.969 Y75.088 E21.65032
G1 X127.566 Y74.895 E21.67367
G1 X127.162 Y74.734 E21.69637
G1 X126.743 Y74.599 E21.71940
G1 X126.315 Y74.494 E21.74244
G1 X125.874 Y74.417 E21.76578
G1 X125.442 Y74.372 E21.78849
G1 X125.001 Y74.357 E21.81152
G1 X124.555 Y74.373 E21.83487
G1 X124.123 Y74.417 E21.85757
G1 X123.688 Y74.493 E21.88060
G1 X123.260 Y74.598 E21.90364
G1 X122.835 Y74.735 E21.92698
G1 X122.431 Y74.896 E21.94969
G1 X122.034 Y75.087 E21.97271
G1 X121.650 Y75.305 E21.99575
G1 X121.278 Y75.552 E22.01909
G1 X120.934 Y75.817 E22.04180
G1 X120.603 Y76.109 E22.06484
G1 X120.290 Y76.427 E22.08818
G1 X120.007 Y76.757 E22.11089
G1 X119.744 Y77.111 E22.13392
G1 X119.503 Y77.487 E22.15727
G1 X119.293 Y77.868 E22.17997
G1 X119.108 Y78.268 E22.20301
G1 X118.949 Y78.687 E22.22643
G1 X118.822 Y79.104 E22.24918
G1 X118.725 Y79.528 E22.27193
G1 X118.655 Y79.969 E22.29525
G1 X118.616 Y80.409 E22.31835
G1 X118.608 Y80.845 E22.34111
G1 X118.629 Y81.280 E22.36388
G1 X118.682 Y81.725 E22.38729
G1 X118.765 Y82.163 E22.41056
G1 X118.876 Y82.584 E22.43330
G1 X119.016 Y82.999 E22.45620
G1 X119.186 Y83.408 E22.47935
G1 X119.386 Y83.808 E22.50269
G1 X119.606 Y84.182 E22.52540
G1 X119.856 Y84.546 E22.54842
G1 X120.129 Y84.891 E22.57145
G1 X120.427 Y85.217 E22.59450
G1 X120.750 Y85.526 E22.61784
G1 X121.084 Y85.803 E22.64054
G1 X121.441 Y86.061 E22.66357
G1 X121.816 Y86.294 E22.68660
G1 X122.206 Y86.500 E22.70964
G1 X122.614 Y86.681 E22.73298
G1 X123.307 Y86.911 E22.77114
G1 X123.307 Y93.557 E23.11831
G1 X112.854 Y93.545 E23.66444
G1 X112.554 Y93.476 E23.68053
G1 X112.432 Y93.426 E23.68740
G1 X112.201 Y93.282 E23.70165
G1 X111.969 Y93.051 E23.71875
G1 X111.893 Y92.944 E23.72561
G1 X111.774 Y92.698 E23.73987
G1 X111.701 Y92.379 E23.75697
G1 X111.693 Y92.230 E23.76475
G1 X111.693 Y79.207 E24.44513
G1 X111.200 Y79.207 F7200.000
G1 X111.200 Y62.744 E24.93394 F525.000
G1 X111.186 Y62.495 E24.94134
G1 X111.080 Y62.030 E24.95551
G1 X110.983 Y61.797 E24.96301
G1 X110.858 Y61.572 E24.97065
G1 X110.561 Y61.199 E24.98481
G1 X110.373 Y61.030 E24.99231
G1 X110.171 Y60.887 E24.99965
G1 X109.946 Y60.763 E25.00729
G1 X109.495 Y60.606 E25.02145
G1 X109.241 Y60.563 E25.02911
G1 X101.006 Y60.550 E25.27363
G1 X100.599 Y60.505 E25.28578
G1 X100.219 Y60.371 E25.29775
G1 X99.877 Y60.156 E25.30973
G1 X99.592 Y59.871 E25.32170
G1 X99.378 Y59.529 E25.33367
G1 X99.247 Y59.154 E25.34548
G1 X99.200 Y58.739 E25.35789
G1 X99.200 Y55.950 E25.44069
G1 X150.800 Y55.950 E26.97277
G1 X150.800 Y58.739 E27.05557
G1 X150.754 Y59.152 E27.06791 F525.000
G1 X150.700 Y59.340 E27.07371
G1 X150.522 Y59.709 E27.08588
G1 X150.410 Y59.868 E27.09168
G1 X150.120 Y60.158 E27.10384
G1 X149.956 Y60.275 E27.10981
G1 X149.784 Y60.369 E27.11563
G1 X149.397 Y60.505 E27.12780
G1 X148.994 Y60.550 E27.13985
G1 X140.994 Y60.550 E27.37738
G1 X140.745 Y60.564 E27.38478
G1 X140.280 Y60.670 E27.39895
G1 X140.047 Y60.767 E27.40644
G1 X139.831 Y60.886 E27.41377
G1 X139.629 Y61.029 E27.42110
G1 X139.445 Y61.193 E27.42844
G1 X139.274 Y61.385 E27.43608
G1 X139.020 Y61.790 E27.45025
G1 X138.923 Y62.023 E27.45775
G1 X138.853 Y62.270 E27.46539
G1 X138.800 Y62.739 E27.47939
G1 X138.800 Y92.244 E28.35545
G1 X138.755 Y92.651 E28.36759
G1 X138.699 Y92.845 E28.37358
G1 X138.523 Y93.208 E28.38556
G1 X138.410 Y93.368 E28.39139
G1 X138.120 Y93.658 E28.40356
G1 X137.780 Y93.872 E28.41550
G1 X137.404 Y94.003 E28.42731
G1 X136.991 Y94.050 E28.43965
G1 X126.200 Y94.050 E28.76005
G1 X126.200 Y86.523 E28.98352
G1 X126.828 Y86.360 E29.00279
G1 X127.204 Y86.223 E29.01469
G1 X127.576 Y86.058 E29.02677
G1 X127.936 Y85.868 E29.03885
G1 X128.287 Y85.650 E29.05110
G1 X128.612 Y85.415 E29.06300
G1 X128.925 Y85.156 E29.07508
G1 X129.219 Y84.875 E29.08716
G1 X129.497 Y84.570 E29.09941
G1 X129.746 Y84.255 E29.11131
G1 X129.976 Y83.920 E29.12339
G1 X130.183 Y83.570 E29.13547
G1 X130.367 Y83.201 E29.14770
G1 X130.522 Y82.828 E29.15969
G1 X130.650 Y82.448 E29.17160
G1 X130.755 Y82.050 E29.18383
G1 X130.832 Y81.645 E29.19608
G1 X130.879 Y81.245 E29.20802
G1 X130.899 Y80.844 E29.21996
G1 X130.892 Y80.436 E29.23207
G1 X130.856 Y80.029 E29.24419
G1 X130.791 Y79.622 E29.25643
G1 X130.701 Y79.231 E29.26835
G1 X130.584 Y78.847 E29.28027
G1 X130.438 Y78.460 E29.29254
G1 X130.265 Y78.087 E29.30474
G1 X130.072 Y77.736 E29.31664
G1 X129.852 Y77.394 E29.32872
G1 X129.606 Y77.063 E29.34097
