; generated by Slic3r 1.2.9 on 2018-02-17 at 20:48:40

; external perimeters extrusion width = 0.40mm
; perimeters extrusion width = 0.67mm
; infill extrusion width = 0.67mm
; solid infill extrusion width = 0.67mm
; top infill extrusion width = 0.67mm

M104 S210 ; set temperature
;G28 ; home all axes
G1 Z10 F5000 ; lift nozzle

M104 S210 ; set temperature
M116 ; wait for temperature to be reached
G21 ; set units to millimeters
G90 ; use absolute coordinates
M82 ; use absolute distances for extrusion
G92 E0
G1 Z0.200 F7200.000
G1 E-2.00000 F2400.00000
G92 E0
G1 Z0.600 F7200.000
G1 X75.798 Y55.108 F7200.000
G1 Z0.200 F7200.000
G1 E2.00000 F2400.00000
G1 X76.483 Y54.262 E2.05689 F1200.000
G1 X76.837 Y53.871 E2.08444
G1 X77.525 Y53.202 E2.13459
G1 X77.959 Y52.822 E2.16469
G1 X78.859 Y52.138 E2.22376
G1 X79.192 Y51.910 E2.24486
G1 X79.931 Y51.464 E2.28997
G1 X80.521 Y51.148 E2.32488
G1 X81.468 Y50.724 E2.37915
G1 X82.130 Y50.474 E2.41609
G1 X117.130 Y38.474 E4.34915
G1 X117.664 Y38.305 E4.37843
G1 X118.396 Y38.108 E4.41803
G1 X119.111 Y37.962 E4.45613
G1 X119.906 Y37.842 E4.49816
G1 X120.586 Y37.784 E4.53383
G1 X121.384 Y37.754 E4.57555
G1 X125.506 Y37.733 E4.79087
G1 X128.561 Y37.733 E4.95048
G1 X129.183 Y37.751 E4.98302
G1 X130.670 Y37.905 E5.06112 F1200.000
G1 X130.963 Y37.955 E5.07665
G1 X132.122 Y38.223 E5.13881
G1 X132.872 Y38.454 E5.17981
G1 X167.871 Y50.454 E7.11281
G1 X168.529 Y50.703 E7.14957
G1 X168.886 Y50.852 E7.16976
G1 X170.066 Y51.443 E7.23873
G1 X171.139 Y52.117 E7.30492
G1 X171.528 Y52.396 E7.32995
G1 X172.473 Y53.180 E7.39408
G1 X172.701 Y53.389 E7.41025
G1 X173.369 Y54.076 E7.46031
G1 X173.745 Y54.505 E7.49012
G1 X174.433 Y55.409 E7.54947
G1 X174.660 Y55.741 E7.57047
G1 X175.107 Y56.482 E7.61569
G1 X175.425 Y57.076 E7.65086
G1 X175.763 Y57.816 E7.69337
G1 X176.026 Y58.480 E7.73071
G1 X176.266 Y59.215 E7.77108
G1 X176.464 Y59.951 E7.81090
G1 X176.645 Y60.878 E7.86026
G1 X176.729 Y61.461 E7.89105
G1 X176.787 Y62.137 E7.92649
G1 X176.817 Y62.990 E7.97107
G1 X176.817 Y86.990 E9.22495
G1 X176.787 Y87.846 E9.26968
G1 X176.646 Y89.100 E9.33562
G1 X176.596 Y89.389 E9.35095
G1 X176.327 Y90.551 E9.41329
G1 X176.232 Y90.879 E9.43112
G1 X175.848 Y91.959 E9.49098
G1 X175.703 Y92.306 E9.51063
G1 X175.108 Y93.496 E9.58013
G1 X174.307 Y94.748 E9.65780
G1 X174.151 Y94.962 E9.67165
G1 X173.371 Y95.902 E9.73548
G1 X173.163 Y96.129 E9.75156
G1 X172.311 Y96.945 E9.81317
G1 X172.044 Y97.176 E9.83158
G1 X171.141 Y97.862 E9.89087
G1 X170.812 Y98.087 E9.91172
G1 X170.068 Y98.536 E9.95707
G1 X169.477 Y98.853 E9.99213
G1 X168.735 Y99.192 E10.03476
G1 X168.072 Y99.455 E10.07203
G1 X132.870 Y111.526 E12.01625
G1 X132.336 Y111.695 E12.04553
G1 X131.604 Y111.892 E12.08514
G1 X130.673 Y112.075 E12.13471
G1 X130.089 Y112.158 E12.16550
G1 X129.413 Y112.217 E12.20094
G1 X128.616 Y112.246 E12.24266
G1 X124.439 Y112.267 E12.46085
G1 X121.439 Y112.267 E12.61758
G1 X120.808 Y112.249 E12.65059
G1 X119.330 Y112.095 E12.72824
G1 X119.036 Y112.045 E12.74378
G1 X117.878 Y111.777 E12.80591
G1 X117.128 Y111.546 E12.84692
G1 X82.129 Y99.546 E14.77992
G1 X81.118 Y99.150 E14.83661
G1 X80.126 Y98.664 E14.89435
G1 X79.751 Y98.454 E14.91679
G1 X78.861 Y97.884 E14.97204
G1 X78.466 Y97.599 E14.99748
G1 X77.691 Y96.967 E15.04973
G1 X77.299 Y96.611 E15.07737
G1 X76.484 Y95.760 E15.13890
G1 X76.251 Y95.491 E15.15753
G1 X75.694 Y94.770 E15.20513
G1 X75.343 Y94.262 E15.23739
G1 X74.893 Y93.518 E15.28282
G1 X74.579 Y92.931 E15.31761
G1 X74.153 Y91.981 E15.37199
G1 X73.974 Y91.520 E15.39785
G1 X73.734 Y90.785 E15.43822
G1 X73.537 Y90.055 E15.47772
G1 X73.391 Y89.339 E15.51591
G1 X73.272 Y88.543 E15.55794
G1 X73.213 Y87.863 E15.59361
G1 X73.183 Y87.010 E15.63820
G1 X73.183 Y63.010 E16.89208
G1 X73.213 Y62.154 E16.93682
G1 X73.354 Y60.900 E17.00274
G1 X73.404 Y60.611 E17.01806
G1 X73.734 Y59.237 E17.09189
G1 X74.152 Y58.041 E17.15809
G1 X74.302 Y57.682 E17.17846
G1 X74.892 Y56.504 E17.24724
G1 X75.566 Y55.431 E17.31343
G1 X75.763 Y55.156 E17.33110
G1 X76.271 Y55.526 F7200.000
G1 X76.951 Y54.680 E17.38781 F1200.000
G1 X77.291 Y54.306 E17.41424
G1 X77.944 Y53.670 E17.46183
G1 X78.362 Y53.303 E17.49091
G1 X79.222 Y52.650 E17.54732
G1 X79.538 Y52.435 E17.56726
G1 X80.235 Y52.014 E17.60985
G1 X80.803 Y51.710 E17.64347
G1 X81.709 Y51.304 E17.69535
G1 X82.334 Y51.068 E17.73023
G1 X117.334 Y39.068 E19.66329
G1 X117.838 Y38.909 E19.69094
G1 X118.541 Y38.719 E19.72898
G1 X119.216 Y38.582 E19.76496
G1 X119.979 Y38.467 E19.80528
G1 X120.622 Y38.411 E19.83898
G1 X121.388 Y38.382 E19.87902
G1 X125.509 Y38.362 E20.09434
G1 X128.561 Y38.362 E20.25378
G1 X129.149 Y38.378 E20.28451
G1 X130.565 Y38.524 E20.35891 F1200.000
G1 X130.854 Y38.574 E20.37422
G1 X131.948 Y38.827 E20.43291
G1 X132.669 Y39.049 E20.47228
G1 X167.668 Y51.048 E22.40528
G1 X168.289 Y51.283 E22.43999
G1 X168.637 Y51.429 E22.45971
G1 X169.763 Y51.992 E22.52547
G1 X170.776 Y52.629 E22.58798
G1 X171.153 Y52.900 E22.61226
G1 X172.054 Y53.648 E22.67346
G1 X172.901 Y54.495 E22.73598
G1 X173.264 Y54.909 E22.76478
G1 X173.920 Y55.773 E22.82146
G1 X174.135 Y56.087 E22.84131
G1 X174.557 Y56.786 E22.88400
G1 X174.863 Y57.357 E22.91785
G1 X175.182 Y58.056 E22.95800
G1 X175.436 Y58.695 E22.99391
G1 X175.662 Y59.389 E23.03203
G1 X175.853 Y60.096 E23.07028
G1 X176.026 Y60.983 E23.11752
G1 X176.105 Y61.534 E23.14661
G1 X176.160 Y62.172 E23.18007
G1 X176.189 Y62.990 E23.22281
G1 X176.189 Y86.990 E24.47669
G1 X176.160 Y87.810 E24.51957
G1 X176.026 Y88.995 E24.58184
G1 X175.977 Y89.280 E24.59697
G1 X175.723 Y90.378 E24.65582
G1 X175.630 Y90.699 E24.67330
G1 X175.268 Y91.718 E24.72984
G1 X175.126 Y92.057 E24.74902
G1 X174.558 Y93.192 E24.81530
G1 X173.794 Y94.384 E24.88929
G1 X173.647 Y94.587 E24.90238
G1 X172.902 Y95.484 E24.96328
G1 X172.705 Y95.698 E24.97848
G1 X171.892 Y96.476 E25.03730
G1 X171.640 Y96.694 E25.05470
G1 X170.777 Y97.350 E25.11131
G1 X170.466 Y97.562 E25.13101
G1 X169.765 Y97.986 E25.17383
G1 X169.195 Y98.291 E25.20758
G1 X168.494 Y98.612 E25.24784
G1 X167.857 Y98.865 E25.28368
G1 X132.666 Y110.932 E27.22728
G1 X132.162 Y111.091 E27.25492
G1 X131.459 Y111.281 E27.29297
G1 X130.567 Y111.455 E27.34042
G1 X130.016 Y111.534 E27.36951
G1 X129.378 Y111.589 E27.40298
G1 X128.612 Y111.618 E27.44301
G1 X124.439 Y111.638 E27.66104
G1 X121.439 Y111.638 E27.81777
G1 X120.843 Y111.622 E27.84893
G1 X119.435 Y111.476 E27.92290
G1 X119.146 Y111.426 E27.93823
G1 X118.052 Y111.173 E27.99690
G1 X117.331 Y110.951 E28.03627
G1 X82.332 Y98.952 E29.96927
G1 X81.367 Y98.573 E30.02345
G1 X80.430 Y98.114 E30.07798
G1 X80.065 Y97.910 E30.09982
G1 X79.224 Y97.371 E30.15198
G1 X78.841 Y97.095 E30.17665
G1 X78.110 Y96.498 E30.22599
G1 X77.730 Y96.154 E30.25274
G1 X76.953 Y95.342 E30.31148
G1 X76.732 Y95.087 E30.32908
G1 X76.207 Y94.406 E30.37402
G1 X75.868 Y93.917 E30.40514
G1 X75.443 Y93.214 E30.44803
G1 X75.140 Y92.649 E30.48154
G1 X74.733 Y91.741 E30.53352
G1 X74.564 Y91.305 E30.55795
G1 X74.338 Y90.611 E30.59606
G1 X74.149 Y89.910 E30.63400
G1 X74.011 Y89.233 E30.67007
G1 X73.896 Y88.470 E30.71039
G1 X73.840 Y87.828 E30.74409
G1 X73.811 Y87.010 E30.78684
G1 X73.811 Y63.010 E32.04072
G1 X73.840 Y62.190 E32.08361
G1 X73.974 Y61.006 E32.14585
G1 X74.022 Y60.720 E32.16097
G1 X74.337 Y59.411 E32.23132
G1 X74.732 Y58.282 E32.29384
G1 X74.879 Y57.930 E32.31373
G1 X75.442 Y56.808 E32.37931
G1 X76.078 Y55.795 E32.44183
G1 X76.235 Y55.574 E32.45597
G1 E30.45597 F2400.00000
G92 E0
G1 Z0.600 F7200.000
G1 X114.281 Y61.703 F7200.000
G1 Z0.200 F7200.000
G1 E2.00000 F2400.00000
G1 X117.459 Y61.703 E2.16604 F1050.000
G1 X117.763 Y61.685 E2.18196
G1 X118.309 Y61.561 E2.21120
G1 X118.607 Y61.438 E2.22803
G1 X118.893 Y61.280 E2.24510
G1 X119.330 Y60.930 E2.27436
G1 X119.545 Y60.691 E2.29115
G1 X119.720 Y60.444 E2.30698
G1 X119.878 Y60.157 E2.32405
G1 X120.062 Y59.629 E2.35330
G1 X120.119 Y59.293 E2.37110
G1 X120.132 Y51.030 E2.80280
G1 X120.141 Y50.864 E2.81150
G1 X120.207 Y50.578 E2.82680
G1 X120.334 Y50.315 E2.84209
G1 X120.516 Y50.086 E2.85738
G1 X120.745 Y49.904 E2.87267
G1 X120.874 Y49.833 E2.88033
G1 X121.131 Y49.742 E2.89462
G1 X121.478 Y49.703 E2.91285
G1 X123.747 Y49.703 E3.03137
G1 X123.747 Y100.317 E5.67572
G1 X121.459 Y100.317 E5.79525 F1050.000
G1 X121.148 Y100.283 E5.81156
G1 X120.872 Y100.187 E5.82685
G1 X120.624 Y100.031 E5.84214
G1 X120.430 Y99.838 E5.85643
G1 X120.256 Y99.561 E5.87352
G1 X120.171 Y99.318 E5.88699
G1 X120.132 Y98.971 E5.90522
G1 X120.132 Y90.990 E6.32218
G1 X120.115 Y90.686 E6.33810
G1 X119.990 Y90.140 E6.36734
G1 X119.867 Y89.843 E6.38414
G1 X119.721 Y89.579 E6.39993
G1 X119.547 Y89.332 E6.41573
G1 X119.345 Y89.106 E6.43155
G1 X119.101 Y88.888 E6.44863
G1 X118.627 Y88.591 E6.47788
G1 X118.329 Y88.467 E6.49471
G1 X118.015 Y88.378 E6.51178
G1 X117.478 Y88.317 E6.54001
G1 X86.459 Y88.317 E8.16060
G1 X86.167 Y88.287 E8.17591
G1 X85.859 Y88.179 E8.19301
G1 X85.624 Y88.031 E8.20747
G1 X85.530 Y87.946 E8.21413
G1 X85.325 Y87.690 E8.23122
G1 X85.262 Y87.575 E8.23808
G1 X85.171 Y87.318 E8.25235
G1 X85.132 Y86.973 E8.27045
G1 X85.132 Y76.703 E8.80704
G1 X93.278 Y76.703 E9.23263
G1 X93.509 Y77.399 E9.27095
G1 X93.688 Y77.802 E9.29397
G1 X93.894 Y78.192 E9.31701
G1 X94.130 Y78.571 E9.34036
G1 X94.384 Y78.924 E9.36306
G1 X94.666 Y79.263 E9.38609
G1 X94.970 Y79.582 E9.40913
G1 X95.300 Y79.882 E9.43247
G1 X95.641 Y80.152 E9.45518
G1 X96.004 Y80.402 E9.47820
G1 X96.384 Y80.626 E9.50124
G1 X96.784 Y80.826 E9.52458
G1 X97.185 Y80.993 E9.54729
G1 X97.603 Y81.134 E9.57031
G1 X98.029 Y81.246 E9.59336
G1 X98.468 Y81.329 E9.61670
G1 X98.900 Y81.380 E9.63941
G1 X99.340 Y81.402 E9.66243
G1 X99.781 Y81.394 E9.68547
G1 X100.226 Y81.354 E9.70881
G1 X100.655 Y81.286 E9.73152
G1 X101.085 Y81.188 E9.75454
G1 X101.507 Y81.060 E9.77759
G1 X101.924 Y80.900 E9.80093
G1 X102.319 Y80.718 E9.82363
G1 X102.705 Y80.506 E9.84666
G1 X103.076 Y80.268 E9.86970
G1 X103.434 Y80.001 E9.89304
G1 X103.764 Y79.718 E9.91575
G1 X104.079 Y79.409 E9.93879
G1 X104.374 Y79.074 E9.96213
G1 X104.639 Y78.729 E9.98483
G1 X104.883 Y78.362 E10.00786
G1 X105.101 Y77.979 E10.03090
G1 X105.295 Y77.576 E10.05424
G1 X105.456 Y77.172 E10.07695
G1 X105.590 Y76.753 E10.09997
G1 X105.696 Y76.325 E10.12301
G1 X105.772 Y75.884 E10.14636
G1 X105.817 Y75.452 E10.16906
G1 X105.832 Y75.011 E10.19210
G1 X105.817 Y74.565 E10.21544
G1 X105.772 Y74.133 E10.23815
G1 X105.696 Y73.698 E10.26117
G1 X105.591 Y73.270 E10.28421
G1 X105.454 Y72.845 E10.30756
G1 X105.294 Y72.441 E10.33026
G1 X105.103 Y72.044 E10.35329
G1 X104.885 Y71.660 E10.37633
G1 X104.637 Y71.288 E10.39967
G1 X104.373 Y70.944 E10.42238
G1 X104.081 Y70.613 E10.44541
G1 X103.762 Y70.300 E10.46876
G1 X103.432 Y70.017 E10.49146
G1 X103.079 Y69.754 E10.51449
G1 X102.708 Y69.516 E10.53753
G1 X102.316 Y69.301 E10.56087
G1 X101.921 Y69.118 E10.58358
G1 X101.510 Y68.961 E10.60660
G1 X101.088 Y68.833 E10.62964
G1 X100.652 Y68.733 E10.65298
G1 X100.223 Y68.665 E10.67569
G1 X99.784 Y68.626 E10.69871
G1 X99.343 Y68.618 E10.72176
G1 X98.897 Y68.640 E10.74510
G1 X98.465 Y68.692 E10.76781
G1 X98.032 Y68.774 E10.79083
G1 X97.606 Y68.886 E10.81387
G1 X97.182 Y69.029 E10.83721
G1 X96.781 Y69.196 E10.85992
G1 X96.387 Y69.393 E10.88294
G1 X96.007 Y69.617 E10.90599
G1 X95.639 Y69.870 E10.92933
G1 X95.298 Y70.140 E10.95203
G1 X94.972 Y70.436 E10.97506
G1 X94.668 Y70.755 E10.99810
G1 X94.382 Y71.099 E11.02144
G1 X94.128 Y71.452 E11.04415
G1 X93.896 Y71.826 E11.06717
G1 X93.689 Y72.216 E11.09022
G1 X93.508 Y72.624 E11.11356
G1 X93.278 Y73.317 E11.15172
G1 X85.132 Y73.317 E11.57730
G1 X85.132 Y63.029 E12.11478
G1 X85.163 Y62.738 E12.13009
G1 X85.271 Y62.429 E12.14719
G1 X85.419 Y62.195 E12.16165
G1 X85.626 Y61.988 E12.17694
G1 X85.730 Y61.915 E12.18360
G1 X86.024 Y61.773 E12.20069
G1 X86.132 Y61.742 E12.20654
G1 X86.478 Y61.703 E12.22474
G1 X114.221 Y61.703 E13.67417
G1 X114.221 Y61.210 F7200.000
G1 X117.445 Y61.210 E13.76989 F525.000
G1 X117.694 Y61.196 E13.77729
G1 X118.159 Y61.090 E13.79146
G1 X118.393 Y60.993 E13.79896
G1 X118.618 Y60.869 E13.80660
G1 X118.991 Y60.571 E13.82077
G1 X119.159 Y60.383 E13.82826
G1 X119.302 Y60.181 E13.83560
G1 X119.426 Y59.956 E13.84324
G1 X119.583 Y59.506 E13.85741
G1 X119.627 Y59.251 E13.86507
G1 X119.639 Y51.016 E14.10959
G1 X119.685 Y50.609 E14.12173
G1 X119.818 Y50.229 E14.13371
G1 X120.033 Y49.887 E14.14568
G1 X120.318 Y49.602 E14.15765
G1 X120.660 Y49.388 E14.16963
G1 X121.035 Y49.257 E14.18144
G1 X121.451 Y49.210 E14.19384
G1 X124.239 Y49.210 E14.27665
G1 X124.239 Y100.810 E15.80872
G1 X121.445 Y100.810 E15.89169 F525.000
G1 X121.039 Y100.765 E15.90383
G1 X120.658 Y100.631 E15.91580
G1 X120.317 Y100.417 E15.92778
G1 X120.035 Y100.135 E15.93959
G1 X119.817 Y99.788 E15.95176
G1 X119.686 Y99.414 E15.96353
G1 X119.639 Y98.999 E15.97594
G1 X119.639 Y91.004 E16.21331
G1 X119.625 Y90.755 E16.22071
G1 X119.519 Y90.290 E16.23487
G1 X119.423 Y90.057 E16.24237
G1 X119.303 Y89.841 E16.24970
G1 X119.161 Y89.639 E16.25703
G1 X118.996 Y89.455 E16.26437
G1 X118.804 Y89.284 E16.27201
G1 X118.400 Y89.030 E16.28617
G1 X118.166 Y88.933 E16.29368
G1 X117.919 Y88.863 E16.30131
G1 X117.451 Y88.810 E16.31531
G1 X86.445 Y88.810 E17.23591
G1 X86.044 Y88.765 E17.24788
G1 X85.657 Y88.630 E17.26006
G1 X85.317 Y88.417 E17.27199
G1 X85.170 Y88.286 E17.27782
G1 X84.914 Y87.965 E17.29000
G1 X84.817 Y87.789 E17.29596
G1 X84.686 Y87.414 E17.30777
G1 X84.639 Y87.001 E17.32010
G1 X84.639 Y76.210 E17.64051
G1 X93.666 Y76.210 E17.90852
G1 X93.830 Y76.838 E17.92778
G1 X93.967 Y77.215 E17.93968
G1 X94.131 Y77.586 E17.95176
G1 X94.322 Y77.946 E17.96384
G1 X94.539 Y78.297 E17.97609
G1 X94.774 Y78.622 E17.98799
G1 X95.034 Y78.935 E18.00007
G1 X95.315 Y79.229 E18.01215
G1 X95.620 Y79.507 E18.02441
G1 X95.934 Y79.756 E18.03631
G1 X96.269 Y79.986 E18.04838
G1 X96.620 Y80.193 E18.06046
G1 X96.989 Y80.377 E18.07272
G1 X97.359 Y80.531 E18.08462
G1 X97.744 Y80.661 E18.09670
G1 X98.138 Y80.765 E18.10878
G1 X98.543 Y80.842 E18.12103
G1 X98.941 Y80.889 E18.13293
G1 X99.348 Y80.909 E18.14501
G1 X99.754 Y80.902 E18.15709
G1 X100.165 Y80.865 E18.16934
G1 X100.561 Y80.802 E18.18124
G1 X100.958 Y80.711 E18.19332
G1 X101.347 Y80.593 E18.20540
G1 X101.733 Y80.446 E18.21766
G1 X102.097 Y80.278 E18.22956
G1 X102.453 Y80.082 E18.24163
G1 X102.796 Y79.863 E18.25371
G1 X103.127 Y79.616 E18.26597
G1 X103.431 Y79.355 E18.27787
G1 X103.721 Y79.070 E18.28995
G1 X103.994 Y78.760 E18.30220
G1 X104.238 Y78.443 E18.31410
G1 X104.463 Y78.104 E18.32618
G1 X104.665 Y77.750 E18.33826
G1 X104.843 Y77.378 E18.35052
G1 X104.992 Y77.006 E18.36242
G1 X105.116 Y76.618 E18.37449
G1 X105.213 Y76.223 E18.38657
G1 X105.284 Y75.817 E18.39883
G1 X105.325 Y75.418 E18.41073
G1 X105.339 Y75.012 E18.42281
G1 X105.325 Y74.599 E18.43506
G1 X105.284 Y74.200 E18.44696
G1 X105.214 Y73.800 E18.45904
G1 X105.117 Y73.405 E18.47112
G1 X104.991 Y73.012 E18.48338
G1 X104.842 Y72.639 E18.49528
G1 X104.666 Y72.273 E18.50735
G1 X104.465 Y71.919 E18.51943
G1 X104.236 Y71.575 E18.53169
G1 X103.992 Y71.257 E18.54359
G1 X103.723 Y70.953 E18.55567
G1 X103.429 Y70.663 E18.56792
G1 X103.124 Y70.402 E18.57982
G1 X102.798 Y70.159 E18.59190
G1 X102.456 Y69.939 E18.60398
G1 X102.094 Y69.741 E18.61624
G1 X101.730 Y69.573 E18.62814
G1 X101.350 Y69.428 E18.64021
G1 X100.961 Y69.309 E18.65229
G1 X100.558 Y69.217 E18.66455
G1 X100.163 Y69.154 E18.67645
G1 X99.757 Y69.119 E18.68853
G1 X99.351 Y69.111 E18.70061
G1 X98.938 Y69.131 E18.71286
G1 X98.540 Y69.179 E18.72476
G1 X98.141 Y69.255 E18.73684
G1 X97.747 Y69.358 E18.74892
G1 X97.356 Y69.490 E18.76117
G1 X96.986 Y69.644 E18.77307
G1 X96.622 Y69.826 E18.78515
G1 X96.272 Y70.032 E18.79723
G1 X95.932 Y70.266 E18.80949
G1 X95.617 Y70.515 E18.82139
G1 X95.317 Y70.789 E18.83346
G1 X95.036 Y71.083 E18.84554
G1 X94.772 Y71.401 E18.85780
G1 X94.538 Y71.726 E18.86970
G1 X94.323 Y72.071 E18.88178
G1 X94.133 Y72.431 E18.89386
G1 X93.966 Y72.808 E18.90611
G1 X93.829 Y73.185 E18.91801
G1 X93.666 Y73.810 E18.93719
G1 X84.639 Y73.810 E19.20520
G1 X84.639 Y63.016 E19.52570
G1 X84.684 Y62.615 E19.53768
G1 X84.819 Y62.228 E19.54985
G1 X85.033 Y61.887 E19.56178
G1 X85.318 Y61.602 E19.57376
