; generated by Slic3r 1.2.9 on 2018-02-17 at 21:10:26

; external perimeters extrusion width = 0.40mm
; perimeters extrusion width = 0.67mm
; infill extrusion width = 0.67mm
; solid infill extrusion width = 0.67mm
; top infill extrusion width = 0.67mm

M104 S210 ; set temperature
;G28 ; home all axes
G1 Z10 F5000 ; lift nozzle

M104 S210 ; set temperature
M116 ; wait for temperature to be reached
G21 ; set units to millimeters
G90 ; use absolute coordinates
M82 ; use absolute distances for extrusion
G92 E0
G1 Z0.200 F7200.000
G1 E-2.00000 F2400.00000
G92 E0
G1 Z0.600 F7200.000
G1 X53.801 Y53.581 F7200.000
G1 Z0.200 F7200.000
G1 E2.00000 F2400.00000
G1 X53.975 Y53.408 E2.01279 F1200.000
G1 X54.990 Y52.508 E2.08370
G1 X55.182 Y52.358 E2.09642
G1 X56.508 Y51.460 E2.18004
G1 X57.931 Y50.730 E2.26366
G1 X59.201 Y50.248 E2.33461
G1 X59.756 Y50.080 E2.36489
G1 X102.756 Y38.080 E4.69726
G1 X103.990 Y37.807 E4.76331
G1 X105.340 Y37.643 E4.83433
G1 X106.260 Y37.608 E4.88247
G1 X109.349 Y37.608 E5.04382
G1 X143.828 Y37.879 E6.84523 F1200.000
G1 X144.660 Y37.914 E6.88876
G1 X146.010 Y38.078 E6.95977
G1 X147.244 Y38.351 E7.02582
G1 X190.244 Y50.351 E9.35819
G1 X190.798 Y50.519 E9.38841
G1 X192.069 Y51.000 E9.45942
G1 X193.492 Y51.731 E9.54304
G1 X193.702 Y51.858 E9.55582
G1 X195.008 Y52.777 E9.63928
G1 X196.196 Y53.850 E9.72289
G1 X197.246 Y55.057 E9.80650
G1 X198.144 Y56.383 E9.89012
G1 X198.874 Y57.806 E9.97374
G1 X199.427 Y59.303 E10.05710
G1 X199.754 Y60.628 E10.12836
G1 X199.961 Y62.215 E10.21199
G1 X199.996 Y63.135 E10.26013
G1 X199.996 Y87.135 E11.51400
G1 X199.961 Y88.056 E11.56214
G1 X199.753 Y89.645 E11.64588
G1 X199.356 Y91.194 E11.72938
G1 X198.875 Y92.464 E11.80038
G1 X198.773 Y92.690 E11.81328
G1 X198.144 Y93.888 E11.88402
G1 X198.017 Y94.099 E11.89687
G1 X197.097 Y95.404 E11.98027
G1 X196.196 Y96.421 E12.05128
G1 X196.025 Y96.592 E12.06390
G1 X194.822 Y97.639 E12.14726
G1 X193.493 Y98.540 E12.23112
G1 X192.289 Y99.171 E12.30215
G1 X190.800 Y99.752 E12.38562
G1 X147.244 Y111.920 E14.74834
G1 X146.010 Y112.193 E14.81439
G1 X144.660 Y112.357 E14.88541
G1 X144.411 Y112.372 E14.89846
G1 X143.740 Y112.392 E14.93355
G1 X140.651 Y112.392 E15.09491
G1 X106.172 Y112.121 E16.89632
G1 X105.340 Y112.086 E16.93984
G1 X103.990 Y111.922 E17.01086
G1 X102.756 Y111.649 E17.07690
G1 X59.756 Y99.649 E19.40927
G1 X59.200 Y99.481 E19.43964
G1 X57.931 Y99.000 E19.51051
G1 X56.507 Y98.269 E19.59413
G1 X56.301 Y98.144 E19.60675
G1 X54.992 Y97.223 E19.69036
G1 X53.804 Y96.150 E19.77398
G1 X52.903 Y95.133 E19.84498
G1 X51.982 Y93.826 E19.92849
G1 X51.225 Y92.414 E20.01223
G1 X51.125 Y92.194 E20.02485
G1 X50.572 Y90.692 E20.10846
G1 X50.203 Y89.135 E20.19207
G1 X50.039 Y87.785 E20.26309
G1 X50.004 Y86.865 E20.31123
G1 X50.004 Y62.865 E21.56511
G1 X50.039 Y61.944 E21.61325
G1 X50.203 Y60.595 E21.68421
G1 X50.571 Y59.039 E21.76778
G1 X51.125 Y57.536 E21.85149
G1 X51.225 Y57.315 E21.86411
G1 X51.981 Y55.905 E21.94773
G1 X52.754 Y54.786 E22.01875
G1 X53.762 Y53.626 E22.09906
G1 X54.231 Y54.042 F7200.000
G1 X54.419 Y53.852 E22.11299 F1200.000
G1 X55.378 Y53.002 E22.17995
G1 X55.570 Y52.852 E22.19266
G1 X56.833 Y51.998 E22.27231
G1 X58.189 Y51.303 E22.35197
G1 X59.388 Y50.848 E22.41896
G1 X59.925 Y50.685 E22.44826
G1 X102.925 Y38.685 E24.78063
G1 X104.104 Y38.425 E24.84369
G1 X105.378 Y38.270 E24.91074
G1 X106.260 Y38.236 E24.95690
G1 X109.344 Y38.237 E25.11800
G1 X143.823 Y38.507 E26.91941 F1200.000
G1 X144.622 Y38.541 E26.96121
G1 X145.896 Y38.696 E27.02826
G1 X147.075 Y38.956 E27.09132
G1 X190.075 Y50.956 E29.42369
G1 X190.611 Y51.118 E29.45293
G1 X191.811 Y51.573 E29.51998
G1 X193.167 Y52.269 E29.59963
G1 X193.377 Y52.395 E29.61240
G1 X194.620 Y53.272 E29.69191
G1 X195.752 Y54.294 E29.77156
G1 X196.752 Y55.445 E29.85121
G1 X197.606 Y56.708 E29.93086
G1 X198.302 Y58.064 E30.01051
G1 X198.827 Y59.490 E30.08991
G1 X199.136 Y60.741 E30.15721
G1 X199.334 Y62.253 E30.23687
G1 X199.368 Y63.135 E30.28303
G1 X199.368 Y87.135 E31.53690
G1 X199.349 Y87.773 E31.57023
G1 X199.179 Y89.292 E31.65010
G1 X198.828 Y90.776 E31.72975
G1 X198.757 Y91.007 E31.74237
G1 X198.204 Y92.422 E31.82176
G1 X197.606 Y93.563 E31.88907
G1 X197.479 Y93.773 E31.90190
G1 X196.603 Y95.017 E31.98135
G1 X195.752 Y95.977 E32.04840
G1 X195.581 Y96.148 E32.06101
G1 X194.434 Y97.145 E32.14041
G1 X193.168 Y98.002 E32.22031
G1 X192.031 Y98.598 E32.28737
G1 X190.613 Y99.152 E32.36689
G1 X147.075 Y111.315 E34.72862
G1 X145.896 Y111.575 E34.79168
G1 X144.622 Y111.730 E34.85874
G1 X144.373 Y111.745 E34.87177
G1 X143.740 Y111.764 E34.90490
G1 X140.740 Y111.764 E35.06164
G1 X106.177 Y111.493 E36.86741
G1 X105.378 Y111.459 E36.90920
G1 X104.104 Y111.304 E36.97626
G1 X102.925 Y111.044 E37.03932
G1 X59.387 Y98.881 E39.40106
G1 X57.969 Y98.327 E39.48057
G1 X56.832 Y97.731 E39.54764
G1 X55.570 Y96.877 E39.62728
G1 X54.419 Y95.877 E39.70693
G1 X53.397 Y94.746 E39.78658
G1 X52.520 Y93.501 E39.86613
G1 X52.394 Y93.292 E39.87886
G1 X51.698 Y91.936 E39.95851
G1 X51.172 Y90.505 E40.03816
G1 X50.864 Y89.259 E40.10521
G1 X50.666 Y87.747 E40.18486
G1 X50.632 Y86.865 E40.23102
G1 X50.632 Y62.865 E41.48490
G1 X50.666 Y61.982 E41.53105
G1 X50.864 Y60.470 E41.61071
G1 X51.172 Y59.221 E41.67792
G1 X51.698 Y57.793 E41.75740
G1 X51.798 Y57.573 E41.77003
G1 X52.519 Y56.230 E41.84968
G1 X53.248 Y55.174 E41.91674
G1 X54.191 Y54.087 E41.99193
G1 E39.99193 F2400.00000
G92 E0
G1 Z0.600 F7200.000
G1 X85.529 Y68.900 F7200.000
G1 Z0.200 F7200.000
G1 E2.00000 F2400.00000
G1 X84.984 Y69.240 E2.03361 F1050.000
G1 X84.582 Y69.542 E2.05984
G1 X84.204 Y69.871 E2.08604
G1 X83.850 Y70.227 E2.11223
G1 X83.527 Y70.601 E2.13810
G1 X83.223 Y71.009 E2.16464
G1 X82.953 Y71.431 E2.19087
G1 X82.713 Y71.872 E2.21707
G1 X82.506 Y72.329 E2.24326
G1 X82.376 Y72.679 E2.26278
G1 X75.321 Y72.679 E2.63138
G1 X75.321 Y63.041 E3.13489
G1 X75.343 Y62.838 E3.14558
G1 X75.443 Y62.616 E3.15832
G1 X75.554 Y62.492 E3.16701
G1 X75.686 Y62.401 E3.17536
G1 X75.838 Y62.343 E3.18388
G1 X76.040 Y62.321 E3.19449
G1 X115.040 Y62.321 E5.23204
G1 X115.401 Y62.299 E5.25092
G1 X115.795 Y62.227 E5.27189
G1 X116.179 Y62.107 E5.29285
G1 X116.544 Y61.943 E5.31382
G1 X116.888 Y61.735 E5.33479
G1 X117.204 Y61.488 E5.35576
G1 X117.488 Y61.204 E5.37672
G1 X117.736 Y60.887 E5.39777
G1 X117.945 Y60.539 E5.41899
G1 X118.107 Y60.179 E5.43962
G1 X118.227 Y59.795 E5.46059
G1 X118.299 Y59.401 E5.48156
G1 X118.321 Y59.040 E5.50044
G1 X118.321 Y51.040 E5.91840
G1 X118.328 Y50.918 E5.92475
G1 X118.367 Y50.760 E5.93327
G1 X118.443 Y50.616 E5.94180
G1 X118.551 Y50.494 E5.95032
G1 X118.686 Y50.401 E5.95884
G1 X118.838 Y50.343 E5.96736
G1 X119.040 Y50.321 E5.97797
G1 X120.679 Y50.321 E6.06360
G1 X120.679 Y99.679 E8.64230
G1 X119.040 Y99.679 E8.72794 F1050.000
G1 X118.838 Y99.657 E8.73854
G1 X118.686 Y99.599 E8.74706
G1 X118.551 Y99.506 E8.75559
G1 X118.443 Y99.384 E8.76411
G1 X118.367 Y99.240 E8.77263
G1 X118.328 Y99.082 E8.78115
G1 X118.321 Y98.960 E8.78751
G1 X118.321 Y90.960 E9.20547
G1 X118.299 Y90.598 E9.22443
G1 X118.225 Y90.199 E9.24564
G1 X118.107 Y89.821 E9.26628
G1 X117.943 Y89.456 E9.28724
G1 X117.735 Y89.112 E9.30821
G1 X117.488 Y88.796 E9.32918
G1 X117.204 Y88.512 E9.35015
G1 X116.888 Y88.265 E9.37111
G1 X116.544 Y88.057 E9.39208
G1 X116.179 Y87.893 E9.41305
G1 X115.795 Y87.773 E9.43402
G1 X115.401 Y87.701 E9.45498
G1 X115.040 Y87.679 E9.47386
G1 X76.040 Y87.679 E11.51141
G1 X75.918 Y87.672 E11.51778
G1 X75.759 Y87.632 E11.52634
G1 X75.551 Y87.506 E11.53903
G1 X75.443 Y87.384 E11.54756
G1 X75.367 Y87.240 E11.55608
G1 X75.328 Y87.082 E11.56460
G1 X75.321 Y86.960 E11.57096
G1 X75.321 Y77.321 E12.07455
G1 X82.376 Y77.321 E12.44315
G1 X82.506 Y77.671 E12.46266
G1 X82.713 Y78.128 E12.48885
G1 X82.953 Y78.569 E12.51506
G1 X83.223 Y78.991 E12.54129
G1 X83.527 Y79.399 E12.56783
G1 X83.850 Y79.773 E12.59370
G1 X84.204 Y80.129 E12.61989
G1 X84.582 Y80.458 E12.64609
G1 X84.984 Y80.760 E12.67232
G1 X85.411 Y81.035 E12.69886
G1 X85.845 Y81.273 E12.72473
G1 X86.300 Y81.482 E12.75092
G1 X86.770 Y81.658 E12.77714
G1 X87.258 Y81.802 E12.80369
G1 X87.741 Y81.908 E12.82955
G1 X88.237 Y81.980 E12.85574
G1 X88.738 Y82.017 E12.88197
G1 X89.246 Y82.017 E12.90851
G1 X89.740 Y81.983 E12.93438
G1 X90.236 Y81.912 E12.96057
G1 X90.727 Y81.806 E12.98679
G1 X91.214 Y81.663 E13.01334
G1 X91.679 Y81.491 E13.03921
G1 X92.135 Y81.283 E13.06539
G1 X92.576 Y81.043 E13.09162
G1 X93.003 Y80.769 E13.11816
G1 X93.400 Y80.472 E13.14403
G1 X93.779 Y80.145 E13.17022
G1 X94.134 Y79.790 E13.19645
G1 X94.467 Y79.406 E13.22299
G1 X94.764 Y79.010 E13.24886
G1 X95.036 Y78.589 E13.27505
G1 X95.277 Y78.148 E13.30127
G1 X95.488 Y77.686 E13.32783
G1 X95.663 Y77.216 E13.35404
G1 X95.803 Y76.741 E13.37989
G1 X95.909 Y76.251 E13.40610
G1 X95.982 Y75.748 E13.43264
G1 X96.017 Y75.254 E13.45851
G1 X96.017 Y74.753 E13.48472
G1 X95.981 Y74.245 E13.51128
G1 X95.909 Y73.749 E13.53750
G1 X95.803 Y73.259 E13.56369
G1 X95.663 Y72.784 E13.58956
G1 X95.485 Y72.308 E13.61610
G1 X95.276 Y71.851 E13.64233
G1 X95.036 Y71.412 E13.66852
G1 X94.768 Y70.995 E13.69439
G1 X94.463 Y70.589 E13.72093
G1 X94.134 Y70.210 E13.74715
G1 X93.779 Y69.855 E13.77336
G1 X93.400 Y69.528 E13.79955
G1 X93.003 Y69.231 E13.82542
G1 X92.576 Y68.957 E13.85196
G1 X92.135 Y68.717 E13.87819
G1 X91.679 Y68.509 E13.90437
G1 X91.214 Y68.337 E13.93024
G1 X90.727 Y68.194 E13.95679
G1 X90.236 Y68.088 E13.98301
G1 X89.740 Y68.017 E14.00920
G1 X89.246 Y67.983 E14.03507
G1 X88.738 Y67.983 E14.06161
G1 X88.237 Y68.020 E14.08784
G1 X87.741 Y68.092 E14.11403
G1 X87.258 Y68.198 E14.13989
G1 X86.770 Y68.342 E14.16644
G1 X86.300 Y68.518 E14.19266
G1 X85.845 Y68.727 E14.21885
G1 X85.582 Y68.871 E14.23450
G1 X85.884 Y69.422 F7200.000
G1 X85.343 Y69.756 E14.26772 F1050.000
G1 X84.978 Y70.031 E14.29159
G1 X84.633 Y70.330 E14.31545
G1 X84.311 Y70.654 E14.33930
G1 X84.017 Y70.995 E14.36283
G1 X83.740 Y71.366 E14.38702
G1 X83.494 Y71.751 E14.41089
G1 X83.276 Y72.152 E14.43475
G1 X83.088 Y72.568 E14.45860
G1 X82.931 Y72.990 E14.48213
G1 X82.839 Y73.307 E14.49938
G1 X74.693 Y73.307 E14.92496
G1 X74.693 Y63.022 E15.46233
G1 X74.732 Y62.687 E15.47991
G1 X74.779 Y62.537 E15.48815
G1 X74.925 Y62.258 E15.50460
G1 X75.137 Y62.020 E15.52126
G1 X75.393 Y61.844 E15.53750
G1 X75.687 Y61.732 E15.55395
G1 X76.021 Y61.693 E15.57149
G1 X115.021 Y61.693 E17.60904
G1 X115.325 Y61.674 E17.62494
G1 X115.645 Y61.616 E17.64194
G1 X115.955 Y61.519 E17.65893
G1 X116.252 Y61.385 E17.67593
G1 X116.530 Y61.217 E17.69293
G1 X116.786 Y61.016 E17.70992
G1 X117.016 Y60.786 E17.72692
G1 X117.218 Y60.530 E17.74396
G1 X117.388 Y60.247 E17.76120
G1 X117.519 Y59.955 E17.77790
G1 X117.616 Y59.645 E17.79490
G1 X117.674 Y59.325 E17.81190
G1 X117.693 Y59.021 E17.82780
G1 X117.693 Y51.021 E18.24576
G1 X117.732 Y50.687 E18.26330
G1 X117.844 Y50.393 E18.27975
G1 X118.022 Y50.134 E18.29620
G1 X118.258 Y49.925 E18.31265
G1 X118.393 Y49.844 E18.32089
G1 X118.687 Y49.732 E18.33734
G1 X119.021 Y49.693 E18.35488
G1 X121.307 Y49.693 E18.47433
G1 X121.307 Y100.307 E21.11868
G1 X119.021 Y100.307 E21.23814 F1050.000
G1 X118.687 Y100.268 E21.25568
G1 X118.393 Y100.156 E21.27213
G1 X118.134 Y99.978 E21.28858
G1 X118.022 Y99.866 E21.29682
G1 X117.844 Y99.607 E21.31327
G1 X117.732 Y99.313 E21.32972
G1 X117.693 Y98.979 E21.34726
G1 X117.693 Y90.979 E21.76522
G1 X117.674 Y90.674 E21.78116
G1 X117.614 Y90.350 E21.79841
G1 X117.519 Y90.045 E21.81511
G1 X117.385 Y89.748 E21.83211
G1 X117.217 Y89.470 E21.84910
G1 X117.016 Y89.214 E21.86610
G1 X116.786 Y88.984 E21.88309
G1 X116.530 Y88.783 E21.90009
G1 X116.252 Y88.615 E21.91709
G1 X115.955 Y88.481 E21.93408
G1 X115.645 Y88.384 E21.95108
G1 X115.325 Y88.326 E21.96807
G1 X115.021 Y88.307 E21.98397
G1 X76.021 Y88.307 E24.02152
G1 X75.842 Y88.297 E24.03086
G1 X75.536 Y88.221 E24.04733
G1 X75.258 Y88.075 E24.06376
G1 X75.134 Y87.978 E24.07200
G1 X74.925 Y87.742 E24.08845
G1 X74.779 Y87.463 E24.10490
G1 X74.703 Y87.157 E24.12135
G1 X74.693 Y86.979 E24.13068
G1 X74.693 Y76.693 E24.66809
G1 X82.839 Y76.693 E25.09367
G1 X82.931 Y77.010 E25.11092
G1 X83.088 Y77.432 E25.13445
G1 X83.276 Y77.848 E25.15830
G1 X83.494 Y78.249 E25.18216
G1 X83.740 Y78.634 E25.20603
G1 X84.017 Y79.005 E25.23022
G1 X84.311 Y79.346 E25.25375
G1 X84.633 Y79.670 E25.27760
G1 X84.978 Y79.969 E25.30146
G1 X85.343 Y80.244 E25.32533
G1 X85.732 Y80.495 E25.34952
G1 X86.127 Y80.711 E25.37305
G1 X86.542 Y80.902 E25.39690
G1 X86.970 Y81.062 E25.42077
G1 X87.414 Y81.193 E25.44496
G1 X87.854 Y81.290 E25.46849
G1 X88.306 Y81.355 E25.49234
G1 X88.761 Y81.389 E25.51621
G1 X89.224 Y81.389 E25.54040
G1 X89.674 Y81.358 E25.56393
G1 X90.125 Y81.293 E25.58778
G1 X90.572 Y81.197 E25.61165
G1 X91.016 Y81.067 E25.63584
G1 X91.439 Y80.910 E25.65937
G1 X91.854 Y80.721 E25.68322
G1 X92.255 Y80.502 E25.70709
G1 X92.645 Y80.252 E25.73128
G1 X93.006 Y79.983 E25.75481
G1 X93.351 Y79.684 E25.77866
G1 X93.675 Y79.361 E25.80253
G1 X93.978 Y79.011 E25.82672
G1 X94.248 Y78.651 E25.85025
G1 X94.495 Y78.267 E25.87410
G1 X94.714 Y77.866 E25.89797
G1 X94.907 Y77.445 E25.92217
G1 X95.066 Y77.017 E25.94603
G1 X95.193 Y76.585 E25.96955
G1 X95.291 Y76.139 E25.99341
G1 X95.357 Y75.681 E26.01760
G1 X95.389 Y75.232 E26.04113
G1 X95.389 Y74.775 E26.06499
G1 X95.356 Y74.313 E26.08919
G1 X95.291 Y73.861 E26.11306
G1 X95.193 Y73.415 E26.13691
G1 X95.066 Y72.983 E26.16044
G1 X94.905 Y72.549 E26.18463
G1 X94.714 Y72.133 E26.20850
G1 X94.495 Y71.733 E26.23235
G1 X94.252 Y71.354 E26.25588
G1 X93.974 Y70.984 E26.28007
G1 X93.674 Y70.639 E26.30394
G1 X93.351 Y70.316 E26.32780
G1 X93.006 Y70.017 E26.35165
G1 X92.645 Y69.748 E26.37518
G1 X92.255 Y69.498 E26.39937
G1 X91.854 Y69.279 E26.42324
G1 X91.439 Y69.090 E26.44709
G1 X91.016 Y68.933 E26.47062
G1 X90.572 Y68.803 E26.49481
G1 X90.125 Y68.707 E26.51868
G1 X89.674 Y68.642 E26.54253
G1 X89.224 Y68.611 E26.56606
G1 X88.761 Y68.611 E26.59025
G1 X88.306 Y68.645 E26.61412
G1 X87.854 Y68.710 E26.63797
G1 X87.414 Y68.807 E26.66150
G1 X86.970 Y68.938 E26.68569
G1 X86.542 Y69.098 E26.70956
G1 X85.937 Y69.393 E26.74474
G1 X86.173 Y69.825 F7200.000
G1 X85.625 Y70.161 E26.76383 F525.000
G1 X85.288 Y70.414 E26.77634
G1 X84.970 Y70.691 E26.78886
G1 X84.673 Y70.989 E26.80137
G1 X84.401 Y71.304 E26.81370
G1 X84.146 Y71.646 E26.82640
G1 X83.919 Y72.002 E26.83891
G1 X83.718 Y72.372 E26.85143
G1 X83.543 Y72.756 E26.86394
G1 X83.399 Y73.145 E26.87627
G1 X83.227 Y73.800 E26.89637
G1 X74.200 Y73.800 E27.16439
G1 X74.200 Y63.006 E27.48487
G1 X74.214 Y62.779 E27.49165
G1 X74.253 Y62.569 E27.49796
G1 X74.317 Y62.362 E27.50442
G1 X74.407 Y62.164 E27.51087
G1 X74.519 Y61.978 E27.51732
G1 X74.653 Y61.807 E27.52377
G1 X74.810 Y61.650 E27.53036
G1 X74.978 Y61.519 E27.53668
G1 X75.164 Y61.407 E27.54313
G1 X75.362 Y61.317 E27.54958
G1 X75.569 Y61.253 E27.55604
G1 X75.783 Y61.213 E27.56249
G1 X76.006 Y61.200 E27.56912
G1 X115.006 Y61.200 E28.72708
G1 X115.265 Y61.184 E28.73479
G1 X115.527 Y61.136 E28.74268
G1 X115.780 Y61.057 E28.75057
G1 X116.023 Y60.948 E28.75846
G1 X116.250 Y60.811 E28.76635
G1 X116.459 Y60.647 E28.77424
G1 X116.647 Y60.459 E28.78213
G1 X116.811 Y60.250 E28.79002
G1 X116.950 Y60.018 E28.79805
G1 X117.057 Y59.780 E28.80579
G1 X117.136 Y59.527 E28.81368
G1 X117.184 Y59.265 E28.82157
G1 X117.200 Y59.006 E28.82928
G1 X117.200 Y51.006 E29.06681
G1 X117.213 Y50.783 E29.07344
G1 X117.253 Y50.569 E29.07990
G1 X117.317 Y50.362 E29.08635
G1 X117.407 Y50.164 E29.09280
G1 X117.519 Y49.978 E29.09925
G1 X117.653 Y49.807 E29.10571
G1 X117.807 Y49.653 E29.11216
G1 X117.978 Y49.519 E29.11861
G1 X118.164 Y49.407 E29.12506
G1 X118.362 Y49.317 E29.13152
G1 X118.569 Y49.253 E29.13797
G1 X118.783 Y49.213 E29.14442
G1 X119.006 Y49.200 E29.15105
G1 X121.800 Y49.200 E29.23401
G1 X121.800 Y100.800 E30.76608
G1 X119.006 Y100.800 E30.84904 F525.000
G1 X118.783 Y100.787 E30.85567
G1 X118.569 Y100.747 E30.86212
G1 X118.362 Y100.683 E30.86857
G1 X118.164 Y100.593 E30.87503
G1 X117.978 Y100.481 E30.88148
G1 X117.807 Y100.347 E30.88793
G1 X117.653 Y100.193 E30.89438
G1 X117.519 Y100.022 E30.90083
G1 X117.407 Y99.836 E30.90729
G1 X117.317 Y99.638 E30.91374
