; generated by Slic3r 1.2.9 on 2018-02-16 at 19:57:22

; external perimeters extrusion width = 0.40mm
; perimeters extrusion width = 0.67mm
; infill extrusion width = 0.67mm
; solid infill extrusion width = 0.67mm
; top infill extrusion width = 0.67mm
; support material extrusion width = 0.40mm

M104 S210 ; set temperature
;G28 ; home all axes
G1 Z10 F5000 ; lift nozzle

M104 S210 ; set temperature
M116 ; wait for temperature to be reached
G21 ; set units to millimeters
G90 ; use absolute coordinates
M82 ; use absolute distances for extrusion
G92 E0
G1 Z0.200 F7200.000
G1 E-3.00000 F2400.00000
G92 E0
G1 Z0.700 F7200.000
G1 X109.287 Y65.705 F7200.000
G1 Z0.200 F7200.000
G1 E3.00000 F2400.00000
G1 X109.965 Y64.644 E3.06576 F1200.000
G1 X110.614 Y63.761 E3.12301
G1 X111.290 Y62.945 E3.17838
G1 X112.180 Y62.003 E3.24609
G1 X112.982 Y61.257 E3.30333
G1 X113.978 Y60.446 E3.37044
G1 X115.038 Y59.701 E3.43814
G1 X115.974 Y59.131 E3.49538
G1 X117.123 Y58.531 E3.56308
G1 X118.092 Y58.102 E3.61846
G1 X119.118 Y57.717 E3.67574
G1 X120.347 Y57.346 E3.74279
G1 X121.610 Y57.061 E3.81044
G1 X122.694 Y56.890 E3.86776
G1 X123.749 Y56.787 E3.92313
G1 X125.044 Y56.744 E3.99083
G1 X125.692 Y56.757 E4.02469 F1200.000
G1 X126.574 Y56.812 E4.07087
G1 X127.418 Y56.904 E4.11521
G1 X128.058 Y57.001 E4.14902
G1 X129.340 Y57.267 E4.21744
G1 X129.965 Y57.432 E4.25121
G1 X130.776 Y57.682 E4.29552
G1 X131.607 Y57.982 E4.34171
G1 X132.207 Y58.227 E4.37556
G1 X132.978 Y58.579 E4.41983
G1 X133.556 Y58.872 E4.45371
G1 X134.133 Y59.192 E4.48817
G1 X134.857 Y59.634 E4.53251
G1 X135.397 Y59.994 E4.56637
G1 X136.111 Y60.514 E4.61255
G1 X136.772 Y61.046 E4.65685
G1 X137.268 Y61.480 E4.69132
G1 X137.741 Y61.924 E4.72520
G1 X138.334 Y62.530 E4.76950
G1 X138.768 Y63.011 E4.80336
G1 X139.332 Y63.692 E4.84954
G1 X139.842 Y64.369 E4.89383
G1 X140.210 Y64.903 E4.92770
G1 X140.565 Y65.460 E4.96221
G1 X140.991 Y66.193 E5.00649
G1 X141.293 Y66.766 E5.04034
G1 X141.673 Y67.564 E5.08653
G1 X142.000 Y68.345 E5.13077
G1 X142.226 Y68.954 E5.16471
G1 X142.615 Y70.203 E5.23305
G1 X142.774 Y70.831 E5.26689
G1 X142.948 Y71.661 E5.31118
G1 X143.055 Y72.300 E5.34504
G1 X143.165 Y73.177 E5.39122
G1 X143.230 Y74.022 E5.43552
G1 X143.254 Y74.670 E5.46939
G1 X143.254 Y75.331 E5.50390
G1 X143.218 Y76.177 E5.54817
G1 X143.165 Y76.823 E5.58203
G1 X143.055 Y77.700 E5.62821
G1 X142.911 Y78.536 E5.67253
G1 X142.774 Y79.169 E5.70638
G1 X142.612 Y79.809 E5.74084
G1 X142.369 Y80.622 E5.78515
G1 X142.158 Y81.234 E5.81901
G1 X141.836 Y82.058 E5.86520
G1 X141.491 Y82.833 E5.90952
G1 X141.197 Y83.423 E5.94396
G1 X140.888 Y83.993 E5.97785
G1 X140.453 Y84.721 E6.02214
G1 X140.098 Y85.263 E6.05600
G1 X139.584 Y85.982 E6.10219
G1 X139.059 Y86.647 E6.14648
G1 X138.636 Y87.139 E6.18034
G1 X137.732 Y88.084 E6.24869
G1 X137.260 Y88.528 E6.28254
G1 X136.618 Y89.082 E6.32684
G1 X136.111 Y89.486 E6.36069
G1 X135.396 Y90.006 E6.40688
G1 X134.689 Y90.473 E6.45116
G1 X134.123 Y90.813 E6.48565
G1 X133.556 Y91.127 E6.51952
G1 X132.798 Y91.507 E6.56382
G1 X131.989 Y91.865 E6.61001
G1 X131.387 Y92.102 E6.64387
G1 X130.586 Y92.381 E6.68816
G1 X129.964 Y92.569 E6.72209
G1 X128.694 Y92.879 E6.79038
G1 X128.058 Y92.999 E6.82419
G1 X127.219 Y93.121 E6.86852
G1 X126.574 Y93.188 E6.90237
G1 X125.692 Y93.243 E6.94856
G1 X124.844 Y93.256 E6.99284
G1 X124.185 Y93.238 E7.02731
G1 X123.536 Y93.198 E7.06129
G1 X122.694 Y93.110 E7.10550
G1 X122.053 Y93.016 E7.13936
G1 X121.184 Y92.853 E7.18555
G1 X120.359 Y92.657 E7.22984
G1 X119.725 Y92.478 E7.26428
G1 X119.108 Y92.280 E7.29815
G1 X118.311 Y91.986 E7.34249
G1 X117.497 Y91.643 E7.38868
G1 X116.911 Y91.366 E7.42254
G1 X116.159 Y90.973 E7.46683
G1 X115.598 Y90.649 E7.50068
G1 X115.038 Y90.299 E7.53519
G1 X114.339 Y89.820 E7.57948
G1 X113.820 Y89.432 E7.61334
G1 X113.134 Y88.874 E7.65952
G1 X112.502 Y88.308 E7.70381
G1 X112.038 Y87.856 E7.73768
G1 X111.150 Y86.895 E7.80602
G1 X110.737 Y86.396 E7.83988
G1 X110.224 Y85.721 E7.88418
G1 X109.722 Y84.993 E7.93036
G1 X109.377 Y84.445 E7.96422
G1 X108.955 Y83.709 E8.00852
G1 X108.650 Y83.124 E8.04301
G1 X108.373 Y82.539 E8.07682
G1 X108.041 Y81.758 E8.12116
G1 X107.734 Y80.929 E8.16734
G1 X107.534 Y80.312 E8.20121
G1 X107.305 Y79.495 E8.24556
G1 X107.157 Y78.864 E8.27940
G1 X107.029 Y78.216 E8.31392
G1 X106.900 Y77.379 E8.35816
G1 X106.827 Y76.735 E8.39201
G1 X106.764 Y75.854 E8.43819
G1 X106.743 Y75.006 E8.48249
G1 X106.755 Y74.347 E8.51695
G1 X106.790 Y73.699 E8.55084
G1 X106.870 Y72.855 E8.59514
G1 X106.958 Y72.213 E8.62900
G1 X107.114 Y71.343 E8.67518
G1 X107.302 Y70.517 E8.71944
G1 X107.476 Y69.879 E8.75395
G1 X107.669 Y69.260 E8.78787
G1 X107.955 Y68.462 E8.83213
G1 X108.291 Y67.645 E8.87831
G1 X108.563 Y67.056 E8.91217
G1 X108.949 Y66.302 E8.95643
G1 X109.257 Y65.757 E8.98915
G1 X109.801 Y66.071 F7200.000
G1 X110.482 Y65.001 E9.05542 F1200.000
G1 X111.111 Y64.145 E9.11092
G1 X111.759 Y63.363 E9.16397
G1 X112.618 Y62.453 E9.22934
G1 X113.396 Y61.730 E9.28484
G1 X114.357 Y60.947 E9.34961
G1 X115.381 Y60.227 E9.41498
G1 X116.289 Y59.675 E9.47048
G1 X117.185 Y59.199 E9.52352
G1 X118.326 Y58.685 E9.58890
G1 X119.321 Y58.312 E9.64442
G1 X120.507 Y57.954 E9.70914
G1 X121.727 Y57.678 E9.77447
G1 X122.777 Y57.513 E9.83004
G1 X123.788 Y57.414 E9.88308
G1 X125.038 Y57.372 E9.94845
G1 X125.664 Y57.385 E9.98114 F1200.000
G1 X126.524 Y57.438 E10.02616
G1 X127.334 Y57.527 E10.06875
G1 X127.952 Y57.621 E10.10140
G1 X129.191 Y57.877 E10.16748
G1 X129.794 Y58.036 E10.20009
G1 X130.573 Y58.276 E10.24266
G1 X131.163 Y58.485 E10.27535
G1 X131.963 Y58.806 E10.32037
G1 X132.703 Y59.144 E10.36289
G1 X133.261 Y59.427 E10.39560
G1 X133.819 Y59.736 E10.42890
G1 X134.515 Y60.161 E10.47149
G1 X135.035 Y60.508 E10.50418
G1 X135.732 Y61.015 E10.54920
G1 X136.367 Y61.526 E10.59175
G1 X136.846 Y61.945 E10.62506
G1 X137.302 Y62.374 E10.65777
G1 X137.872 Y62.956 E10.70032
G1 X138.291 Y63.421 E10.73301
G1 X138.841 Y64.084 E10.77803
G1 X139.331 Y64.735 E10.82057
G1 X139.687 Y65.250 E10.85328
G1 X140.030 Y65.788 E10.88662
G1 X140.439 Y66.492 E10.92915
G1 X140.836 Y67.257 E10.97417
G1 X141.101 Y67.824 E11.00687
G1 X141.415 Y68.574 E11.04936
G1 X141.633 Y69.162 E11.08213
G1 X142.009 Y70.368 E11.14814
G1 X142.163 Y70.975 E11.18082
G1 X142.330 Y71.772 E11.22336
G1 X142.433 Y72.389 E11.25605
G1 X142.540 Y73.244 E11.30106
G1 X142.603 Y74.056 E11.34362
G1 X142.625 Y74.681 E11.37633
G1 X142.625 Y75.319 E11.40967
G1 X142.591 Y76.133 E11.45219
G1 X142.540 Y76.756 E11.48489
G1 X142.433 Y77.611 E11.52990
G1 X142.294 Y78.414 E11.57248
G1 X142.162 Y79.026 E11.60515
G1 X142.006 Y79.644 E11.63846
G1 X141.772 Y80.424 E11.68102
G1 X141.569 Y81.016 E11.71371
G1 X141.255 Y81.819 E11.75874
G1 X140.924 Y82.563 E11.80131
G1 X140.640 Y83.133 E11.83459
G1 X140.341 Y83.684 E11.86731
G1 X139.923 Y84.383 E11.90985
G1 X139.581 Y84.906 E11.94255
G1 X139.079 Y85.607 E11.98757
G1 X138.575 Y86.246 E12.03011
G1 X138.167 Y86.721 E12.06281
G1 X137.294 Y87.634 E12.12883
G1 X136.838 Y88.062 E12.16151
G1 X136.221 Y88.595 E12.20406
G1 X135.732 Y88.985 E12.23675
G1 X135.035 Y89.492 E12.28177
G1 X134.356 Y89.941 E12.32431
G1 X133.809 Y90.269 E12.35763
G1 X133.262 Y90.573 E12.39034
G1 X132.533 Y90.937 E12.43289
G1 X131.963 Y91.194 E12.46558
G1 X131.163 Y91.515 E12.51060
G1 X130.394 Y91.783 E12.55315
G1 X129.794 Y91.964 E12.58591
G1 X128.567 Y92.264 E12.65188
G1 X127.953 Y92.379 E12.68452
G1 X127.146 Y92.497 E12.72710
G1 X126.524 Y92.562 E12.75979
G1 X125.664 Y92.615 E12.80481
G1 X124.850 Y92.628 E12.84734
G1 X124.213 Y92.611 E12.88065
G1 X123.586 Y92.571 E12.91346
G1 X122.777 Y92.487 E12.95593
G1 X122.158 Y92.397 E12.98862
G1 X121.311 Y92.237 E13.03364
G1 X120.519 Y92.049 E13.07618
G1 X119.906 Y91.876 E13.10947
G1 X119.310 Y91.685 E13.14217
G1 X118.545 Y91.403 E13.18476
G1 X117.751 Y91.068 E13.22978
G1 X117.185 Y90.801 E13.26248
G1 X116.464 Y90.424 E13.30502
G1 X115.922 Y90.111 E13.33771
G1 X115.381 Y89.772 E13.37105
G1 X114.709 Y89.312 E13.41360
G1 X114.208 Y88.938 E13.44629
G1 X113.539 Y88.394 E13.49131
G1 X112.933 Y87.851 E13.53384
G1 X112.484 Y87.414 E13.56655
G1 X111.627 Y86.486 E13.63256
G1 X111.228 Y86.004 E13.66525
G1 X110.735 Y85.356 E13.70780
G1 X110.246 Y84.646 E13.75282
G1 X109.913 Y84.116 E13.78551
G1 X109.507 Y83.410 E13.82807
G1 X109.213 Y82.844 E13.86139
G1 X108.945 Y82.279 E13.89404
G1 X108.626 Y81.529 E13.93663
G1 X108.327 Y80.721 E13.98165
G1 X108.134 Y80.126 E14.01435
G1 X107.914 Y79.340 E14.05695
G1 X107.771 Y78.732 E14.08962
G1 X107.647 Y78.105 E14.12298
G1 X107.523 Y77.302 E14.16547
G1 X107.453 Y76.680 E14.19816
G1 X107.391 Y75.820 E14.24318
G1 X107.372 Y75.006 E14.28572
G1 X107.383 Y74.369 E14.31902
G1 X107.417 Y73.744 E14.35174
G1 X107.494 Y72.933 E14.39430
G1 X107.578 Y72.313 E14.42699
G1 X107.731 Y71.464 E14.47201
G1 X107.912 Y70.671 E14.51452
G1 X108.079 Y70.055 E14.54787
G1 X108.266 Y69.457 E14.58062
G1 X108.540 Y68.691 E14.62313
G1 X108.868 Y67.894 E14.66815
G1 X109.130 Y67.326 E14.70084
G1 X109.501 Y66.601 E14.74336
G1 X109.771 Y66.123 E14.77207
G1 E11.77207 F2400.00000
G92 E0
G1 Z0.700 F7200.000
G1 X121.628 Y73.053 F7200.000
G1 Z0.200 F7200.000
G1 E3.00000 F2400.00000
G1 X121.855 Y72.704 E3.02177 F450.000
G1 X122.240 Y72.253 E3.05275
G1 X122.550 Y71.974 E3.07451
G1 X122.882 Y71.732 E3.09599
G1 X123.407 Y71.446 E3.12724
G1 X123.797 Y71.297 E3.14903
G1 X124.190 Y71.191 E3.17032
G1 X124.593 Y71.128 E3.19161
G1 X125.004 Y71.106 E3.21309 F450.000
G1 X125.600 Y71.152 E3.24434
G1 X126.008 Y71.239 E3.26613
G1 X126.395 Y71.365 E3.28742
G1 X126.768 Y71.531 E3.30871
G1 X127.121 Y71.735 E3.33000
G1 X127.450 Y71.974 E3.35130
G1 X127.753 Y72.247 E3.37259
G1 X128.026 Y72.550 E3.39388
G1 X128.271 Y72.887 E3.41565
G1 X128.554 Y73.408 E3.44663
G1 X128.703 Y73.797 E3.46840
G1 X128.809 Y74.190 E3.48969
G1 X128.872 Y74.593 E3.51098
G1 X128.894 Y75.000 E3.53227
G1 X128.872 Y75.407 E3.55357
G1 X128.809 Y75.810 E3.57486
G1 X128.703 Y76.203 E3.59615
G1 X128.557 Y76.584 E3.61745
G1 X128.372 Y76.947 E3.63874
G1 X128.145 Y77.296 E3.66051
G1 X127.760 Y77.747 E3.69148
G1 X127.450 Y78.026 E3.71325
G1 X127.121 Y78.265 E3.73455
G1 X126.768 Y78.469 E3.75584
G1 X126.395 Y78.635 E3.77713
G1 X126.008 Y78.761 E3.79842
G1 X125.600 Y78.848 E3.82019
G1 X125.009 Y78.894 E3.85117
G1 X124.593 Y78.872 E3.87294
G1 X124.190 Y78.809 E3.89423
G1 X123.797 Y78.703 E3.91552
G1 X123.416 Y78.557 E3.93682
G1 X123.053 Y78.372 E3.95810
G1 X122.708 Y78.148 E3.97959
G1 X122.253 Y77.760 E4.01083
G1 X121.974 Y77.450 E4.03262
G1 X121.735 Y77.121 E4.05391
G1 X121.531 Y76.768 E4.07521
G1 X121.365 Y76.395 E4.09650
G1 X121.239 Y76.008 E4.11779
G1 X121.153 Y75.606 E4.13927
G1 X121.106 Y75.009 E4.17052
G1 X121.128 Y74.593 E4.19231
G1 X121.191 Y74.190 E4.21360
G1 X121.297 Y73.797 E4.23489
G1 X121.443 Y73.416 E4.25618
G1 X121.601 Y73.107 E4.27434
G1 X122.040 Y73.330 F7200.000
G1 X122.251 Y72.999 E4.28600 F450.000
G1 X122.594 Y72.597 E4.30168
G1 X122.860 Y72.358 E4.31233
G1 X123.146 Y72.150 E4.32282
G1 X123.614 Y71.895 E4.33866
G1 X123.949 Y71.766 E4.34931
G1 X124.293 Y71.674 E4.35988
G1 X124.645 Y71.618 E4.37044
G1 X124.997 Y71.600 E4.38094 F450.000
G1 X125.529 Y71.641 E4.39677
G1 X125.880 Y71.716 E4.40742
G1 X126.219 Y71.826 E4.41799
G1 X126.544 Y71.970 E4.42856
G1 X126.852 Y72.148 E4.43912
G1 X127.140 Y72.357 E4.44969
G1 X127.404 Y72.596 E4.46026
G1 X127.643 Y72.860 E4.47083
G1 X127.853 Y73.150 E4.48147
G1 X128.105 Y73.615 E4.49716
G1 X128.234 Y73.949 E4.50780
G1 X128.326 Y74.293 E4.51837
G1 X128.382 Y74.645 E4.52894
G1 X128.400 Y75.000 E4.53951
G1 X128.382 Y75.355 E4.55007
G1 X128.326 Y75.707 E4.56064
G1 X128.234 Y76.051 E4.57121
G1 X128.106 Y76.383 E4.58178
G1 X127.945 Y76.700 E4.59235
G1 X127.749 Y77.001 E4.60299
G1 X127.406 Y77.403 E4.61868
G1 X127.140 Y77.643 E4.62932
G1 X126.852 Y77.852 E4.63989
G1 X126.544 Y78.030 E4.65046
G1 X126.219 Y78.174 E4.66103
G1 X125.880 Y78.284 E4.67159
G1 X125.529 Y78.359 E4.68224
G1 X125.003 Y78.400 E4.69793
G1 X124.645 Y78.382 E4.70857
G1 X124.293 Y78.326 E4.71914
G1 X123.949 Y78.234 E4.72971
G1 X123.617 Y78.106 E4.74027
G1 X123.300 Y77.945 E4.75084
G1 X123.003 Y77.752 E4.76133
G1 X122.597 Y77.406 E4.77717
G1 X122.357 Y77.140 E4.78782
G1 X122.148 Y76.852 E4.79839
G1 X121.970 Y76.544 E4.80896
G1 X121.826 Y76.219 E4.81952
G1 X121.716 Y75.880 E4.83009
G1 X121.642 Y75.534 E4.84058
G1 X121.600 Y75.003 E4.85642
G1 X121.618 Y74.645 E4.86707
G1 X121.674 Y74.293 E4.87764
G1 X121.766 Y73.949 E4.88820
G1 X121.894 Y73.617 E4.89877
G1 X122.013 Y73.384 E4.90654
G1 X121.847 Y72.988 F7200.000
G1 E1.90654 F2400.00000
G92 E0
G1 Z0.700 F7200.000
G1 X128.889 Y79.964 F7200.000
G1 Z0.200 F7200.000
G1 E3.00000 F2400.00000
G1 X128.533 Y80.224 E3.02305 F450.000
G1 X127.952 Y80.573 E3.05844
G1 X127.349 Y80.853 E3.09320
G1 X126.928 Y81.005 E3.11658
G1 X126.273 Y81.176 E3.15195
G1 X125.609 Y81.277 E3.18702
G1 X124.938 Y81.306 E3.22209
G1 X124.268 Y81.264 E3.25718
G1 X123.612 Y81.152 E3.29194
G1 X123.180 Y81.038 E3.31532
G1 X122.543 Y80.808 E3.35071
G1 X121.949 Y80.519 E3.38516
G1 X121.375 Y80.161 E3.42055
G1 X121.018 Y79.891 E3.44392
G1 X120.517 Y79.435 E3.47931
G1 X120.078 Y78.943 E3.51376
G1 X119.687 Y78.397 E3.54885
G1 X119.353 Y77.808 E3.58423
G1 X119.168 Y77.401 E3.60759
G1 X118.945 Y76.761 E3.64298
G1 X118.792 Y76.114 E3.67774
G1 X118.729 Y75.671 E3.70112
G1 X118.694 Y74.994 E3.73651
G1 X118.729 Y74.336 E3.77096
G1 X118.836 Y73.667 E3.80635
G1 X118.946 Y73.233 E3.82972
G1 X119.171 Y72.594 E3.86509
G1 X119.459 Y71.988 E3.90018
G1 X119.807 Y71.421 E3.93494
G1 X120.074 Y71.062 E3.95832
G1 X120.525 Y70.556 E3.99371
G1 X121.014 Y70.113 E4.02816
G1 X121.561 Y69.714 E4.06356
G1 X121.944 Y69.483 E4.08692
G1 X122.553 Y69.188 E4.12229
G1 X123.185 Y68.961 E4.15736
G1 X123.837 Y68.802 E4.19243
G1 X124.503 Y68.713 E4.22752
G1 X125.162 Y68.696 E4.26197
G1 X125.837 Y68.749 E4.29737
G1 X126.278 Y68.824 E4.32074 F450.000
G1 X126.922 Y68.994 E4.35550
G1 X127.555 Y69.234 E4.39090
G1 X127.957 Y69.430 E4.41426
G1 X128.537 Y69.779 E4.44965
G1 X129.063 Y70.177 E4.48410
G1 X129.557 Y70.641 E4.51950
G1 X129.855 Y70.975 E4.54286
G1 X130.258 Y71.519 E4.57823
G1 X130.599 Y72.097 E4.61332
G1 X130.874 Y72.703 E4.64808
G1 X131.022 Y73.126 E4.67146
G1 X131.188 Y73.782 E4.70685
G1 X131.281 Y74.435 E4.74130
G1 X131.306 Y75.112 E4.77670
G1 X131.282 Y75.559 E4.80006
G1 X131.185 Y76.229 E4.83545
G1 X131.023 Y76.868 E4.86990
G1 X130.788 Y77.504 E4.90530
G1 X130.596 Y77.908 E4.92866
G1 X130.252 Y78.491 E4.96405
G1 X129.859 Y79.020 E4.99850
G1 X129.403 Y79.514 E5.03359
G1 X128.935 Y79.925 E5.06615
G1 X129.260 Y80.296 F7200.000
G1 X128.805 Y80.635 E5.08299 F525.000
G1 X128.183 Y81.009 E5.10453
G1 X127.536 Y81.309 E5.12571
G1 X127.074 Y81.476 E5.14030
G1 X126.372 Y81.660 E5.16184
G1 X125.657 Y81.768 E5.18333
G1 X124.934 Y81.799 E5.20482
G1 X124.211 Y81.754 E5.22631
G1 X123.508 Y81.634 E5.24749
G1 X123.033 Y81.509 E5.26208
G1 X122.350 Y81.262 E5.28362
G1 X121.711 Y80.951 E5.30475
G1 X121.095 Y80.567 E5.32629
G1 X120.703 Y80.270 E5.34088
G1 X120.166 Y79.782 E5.36242
G1 X119.693 Y79.251 E5.38355
G1 X119.271 Y78.663 E5.40504
G1 X118.913 Y78.032 E5.42658
G1 X118.710 Y77.584 E5.44117
G1 X118.471 Y76.899 E5.46272
G1 X118.308 Y76.205 E5.48389
G1 X118.238 Y75.718 E5.49849
G1 X118.200 Y74.994 E5.52003
G1 X118.238 Y74.283 E5.54115
G1 X118.353 Y73.567 E5.56270
G1 X118.474 Y73.091 E5.57729
G1 X118.714 Y72.406 E5.59883
G1 X119.026 Y71.753 E5.62032
G1 X119.399 Y71.145 E5.64150
G1 X119.692 Y70.750 E5.65609
G1 X120.175 Y70.209 E5.67763
G1 X120.702 Y69.731 E5.69876
G1 X121.288 Y69.303 E5.72030
G1 X121.709 Y69.050 E5.73489
G1 X122.362 Y68.733 E5.75643
G1 X123.043 Y68.488 E5.77792
G1 X123.746 Y68.317 E5.79941
G1 X124.464 Y68.222 E5.82090
G1 X125.175 Y68.203 E5.84203
G1 X125.898 Y68.260 E5.86357
G1 X126.383 Y68.342 E5.87816 F525.000
G1 X127.072 Y68.524 E5.89934
G1 X127.751 Y68.781 E5.92088
G1 X128.193 Y68.996 E5.93547
G1 X128.814 Y69.371 E5.95702
G1 X129.381 Y69.800 E5.97814
G1 X129.911 Y70.297 E5.99969
G1 X130.237 Y70.663 E6.01428
G1 X130.670 Y71.246 E6.03582
G1 X131.037 Y71.870 E6.05731
G1 X131.331 Y72.520 E6.07849
G1 X131.494 Y72.983 E6.09308
