; generated by Slic3r 1.2.9 on 2018-02-16 at 19:51:41

; external perimeters extrusion width = 0.40mm
; perimeters extrusion width = 0.67mm
; infill extrusion width = 0.67mm
; solid infill extrusion width = 0.67mm
; top infill extrusion width = 0.67mm
; support material extrusion width = 0.40mm

M104 S210 ; set temperature
;G28 ; home all axes
G1 Z10 F5000 ; lift nozzle

M104 S210 ; set temperature
M116 ; wait for temperature to be reached
G21 ; set units to millimeters
G90 ; use absolute coordinates
M82 ; use absolute distances for extrusion
G92 E0
G1 Z0.200 F7200.000
G1 E-3.00000 F2400.00000
G92 E0
G1 Z0.700 F7200.000
G1 X109.374 Y65.561 F7200.000
G1 Z0.200 F7200.000
G1 E3.00000 F2400.00000
G1 X110.083 Y64.476 E3.06770 F1200.000
G1 X110.867 Y63.444 E3.13540
G1 X111.723 Y62.471 E3.20310
G1 X112.354 Y61.834 E3.24994
G1 X113.130 Y61.130 E3.30466
G1 X114.144 Y60.323 E3.37237
G1 X115.211 Y59.591 E3.44002
G1 X115.980 Y59.128 E3.48690
G1 X116.906 Y58.637 E3.54162
G1 X118.086 Y58.104 E3.60931
G1 X119.302 Y57.656 E3.67699
G1 X120.547 Y57.296 E3.74473
G1 X121.814 Y57.024 E3.81242
G1 X122.701 Y56.889 E3.85927
G1 X123.991 Y56.772 E3.92697
G1 X125.049 Y56.744 E3.98223
G1 X125.934 Y56.768 E4.02853 F1200.000
G1 X126.581 Y56.813 E4.06238
G1 X127.225 Y56.880 E4.09624
G1 X128.261 Y57.038 E4.15095
G1 X129.527 Y57.314 E4.21865
G1 X130.152 Y57.486 E4.25252
G1 X131.005 Y57.760 E4.29935
G1 X131.613 Y57.984 E4.33321
G1 X132.578 Y58.391 E4.38789
G1 X133.737 Y58.970 E4.45562
G1 X134.853 Y59.631 E4.52334
G1 X135.595 Y60.133 E4.57017
G1 X136.116 Y60.518 E4.60403
G1 X136.623 Y60.922 E4.63788
G1 X137.411 Y61.612 E4.69261
G1 X138.330 Y62.526 E4.76031
G1 X139.181 Y63.503 E4.82801
G1 X139.580 Y64.013 E4.86187
G1 X140.102 Y64.742 E4.90870
G1 X140.792 Y65.839 E4.97640
G1 X141.291 Y66.760 E5.03110
G1 X141.573 Y67.343 E5.06498
G1 X141.835 Y67.936 E5.09884
G1 X142.161 Y68.771 E5.14567
G1 X142.371 Y69.384 E5.17953
G1 X142.665 Y70.390 E5.23425
G1 X142.947 Y71.654 E5.30194
G1 X143.055 Y72.294 E5.33581
G1 X143.166 Y73.183 E5.38265
G1 X143.249 Y74.476 E5.45035
G1 X143.256 Y75.124 E5.48420
G1 X143.219 Y76.171 E5.53892
G1 X143.166 Y76.817 E5.57278
G1 X143.055 Y77.706 E5.61962
G1 X142.947 Y78.346 E5.65347
G1 X142.726 Y79.368 E5.70815
G1 X142.371 Y80.616 E5.77590
G1 X142.161 Y81.228 E5.80972
G1 X141.835 Y82.064 E5.85659
G1 X141.291 Y83.240 E5.92430
G1 X140.792 Y84.161 E5.97902
G1 X140.457 Y84.715 E6.01287
G1 X140.102 Y85.258 E6.04673
G1 X139.580 Y85.987 E6.09357
G1 X139.181 Y86.497 E6.12742
G1 X138.499 Y87.291 E6.18213
G1 X137.584 Y88.227 E6.25050
G1 X136.929 Y88.820 E6.29668
G1 X136.431 Y89.235 E6.33054
G1 X135.918 Y89.632 E6.36439
G1 X135.062 Y90.233 E6.41908
G1 X133.955 Y90.909 E6.48682
G1 X132.804 Y91.504 E6.55452
G1 X132.202 Y91.775 E6.58901
G1 X131.381 Y92.105 E6.63521
G1 X130.152 Y92.514 E6.70291
G1 X129.139 Y92.781 E6.75763
G1 X128.505 Y92.916 E6.79149
G1 X127.621 Y93.067 E6.83833
G1 X126.979 Y93.148 E6.87219
G1 X125.935 Y93.232 E6.92690
G1 X125.287 Y93.254 E6.96076
G1 X123.991 Y93.228 E7.02847
G1 X123.098 Y93.157 E7.07530
G1 X122.454 Y93.078 E7.10915
G1 X121.422 Y92.902 E7.16387
G1 X120.789 Y92.763 E7.19774
G1 X119.528 Y92.416 E7.26605
G1 X118.691 Y92.131 E7.31227
G1 X118.087 Y91.896 E7.34613
G1 X117.491 Y91.640 E7.37998
G1 X116.550 Y91.182 E7.43468
G1 X115.423 Y90.542 E7.50241
G1 X114.878 Y90.192 E7.53623
G1 X114.144 Y89.677 E7.58310
G1 X113.130 Y88.870 E7.65080
G1 X112.354 Y88.166 E7.70552
G1 X111.895 Y87.709 E7.73938
G1 X111.026 Y86.747 E7.80708
G1 X110.618 Y86.244 E7.84094
G1 X110.083 Y85.524 E7.88777
G1 X109.374 Y84.439 E7.95547
G1 X109.049 Y83.879 E7.98933
G1 X108.566 Y82.949 E8.04406
G1 X108.294 Y82.361 E8.07791
G1 X107.953 Y81.532 E8.12475
G1 X107.607 Y80.544 E8.17944
G1 X107.421 Y79.923 E8.21333
G1 X107.257 Y79.296 E8.24719
G1 X107.068 Y78.420 E8.29402
G1 X106.870 Y77.139 E8.36172
G1 X106.806 Y76.494 E8.39557
G1 X106.750 Y75.449 E8.45028
G1 X106.764 Y74.153 E8.51799
G1 X106.872 Y72.849 E8.58635
G1 X106.997 Y71.974 E8.63254
G1 X107.116 Y71.337 E8.66639
G1 X107.421 Y70.077 E8.73409
G1 X107.607 Y69.456 E8.76795
G1 X107.953 Y68.468 E8.82266
G1 X108.201 Y67.856 E8.85715
G1 X108.566 Y67.051 E8.90336
G1 X108.859 Y66.472 E8.93722
G1 X109.344 Y65.612 E8.98881
G1 X109.885 Y65.931 F7200.000
G1 X110.380 Y65.152 E9.03703 F1200.000
G1 X111.116 Y64.140 E9.10240
G1 X111.756 Y63.368 E9.15479
G1 X112.614 Y62.458 E9.22017
G1 X113.251 Y61.859 E9.26584
G1 X114.213 Y61.059 E9.33121
G1 X115.229 Y60.328 E9.39658
G1 X116.295 Y59.672 E9.46195
G1 X117.404 Y59.093 E9.52732
G1 X118.332 Y58.682 E9.58037
G1 X119.494 Y58.254 E9.64505
G1 X120.696 Y57.906 E9.71046
G1 X121.920 Y57.644 E9.77582
G1 X122.784 Y57.512 E9.82150
G1 X124.030 Y57.399 E9.88687
G1 X125.043 Y57.372 E9.93981
G1 X125.907 Y57.396 E9.98493 F1200.000
G1 X126.531 Y57.439 E10.01763
G1 X127.153 Y57.504 E10.05032
G1 X128.144 Y57.655 E10.10270
G1 X129.379 Y57.925 E10.16873
G1 X130.208 Y58.159 E10.21375
G1 X130.803 Y58.355 E10.24644
G1 X131.390 Y58.571 E10.27913
G1 X132.313 Y58.961 E10.33148
G1 X133.433 Y59.520 E10.39688
G1 X134.510 Y60.157 E10.46227
G1 X135.234 Y60.647 E10.50794
G1 X135.737 Y61.019 E10.54063
G1 X136.702 Y61.816 E10.60600
G1 X137.162 Y62.240 E10.63869
G1 X137.868 Y62.952 E10.69109
G1 X138.691 Y63.895 E10.75646
G1 X139.076 Y64.388 E10.78915
G1 X139.585 Y65.099 E10.83482
G1 X139.927 Y65.623 E10.86751
G1 X140.436 Y66.487 E10.91990
G1 X141.006 Y67.614 E10.98592
G1 X141.348 Y68.405 E11.03094
G1 X141.572 Y68.990 E11.06363
G1 X141.775 Y69.582 E11.09632
G1 X142.056 Y70.544 E11.14872
G1 X142.331 Y71.777 E11.21472
G1 X142.468 Y72.628 E11.25976
G1 X142.541 Y73.250 E11.29245
G1 X142.621 Y74.499 E11.35782
G1 X142.628 Y75.124 E11.39051
G1 X142.592 Y76.126 E11.44289
G1 X142.541 Y76.750 E11.47560
G1 X142.433 Y77.618 E11.52127
G1 X142.329 Y78.235 E11.55396
G1 X142.117 Y79.214 E11.60630
G1 X141.775 Y80.418 E11.67172
G1 X141.568 Y81.022 E11.70506
G1 X141.254 Y81.824 E11.75009
G1 X140.729 Y82.960 E11.81546
G1 X140.250 Y83.842 E11.86785
G1 X139.927 Y84.377 E11.90054
G1 X139.585 Y84.901 E11.93323
G1 X139.076 Y85.612 E11.97890
G1 X138.691 Y86.105 E12.01159
G1 X138.037 Y86.865 E12.06397
G1 X137.154 Y87.769 E12.12999
G1 X136.515 Y88.348 E12.17503
G1 X136.034 Y88.748 E12.20772
G1 X135.539 Y89.131 E12.24041
G1 X134.719 Y89.707 E12.29277
G1 X133.651 Y90.359 E12.35817
G1 X132.539 Y90.934 E12.42354
G1 X131.958 Y91.197 E12.45687
G1 X131.158 Y91.517 E12.50191
G1 X129.970 Y91.913 E12.56728
G1 X129.001 Y92.168 E12.61966
G1 X128.389 Y92.299 E12.65236
G1 X127.153 Y92.496 E12.71774
G1 X126.518 Y92.562 E12.75107
G1 X125.658 Y92.615 E12.79609
G1 X125.033 Y92.628 E12.82878
G1 X124.030 Y92.601 E12.88118
G1 X123.159 Y92.531 E12.92685
G1 X122.538 Y92.455 E12.95954
G1 X121.549 Y92.287 E13.01192
G1 X120.938 Y92.153 E13.04463
G1 X119.720 Y91.818 E13.11061
G1 X118.904 Y91.540 E13.15566
G1 X118.321 Y91.313 E13.18836
G1 X117.746 Y91.066 E13.22104
G1 X116.844 Y90.627 E13.27342
G1 X115.756 Y90.009 E13.33881
G1 X115.219 Y89.665 E13.37212
G1 X114.514 Y89.169 E13.41717
G1 X113.535 Y88.389 E13.48254
G1 X112.792 Y87.716 E13.53494
G1 X112.349 Y87.275 E13.56763
G1 X111.510 Y86.346 E13.63300
G1 X111.116 Y85.860 E13.66569
G1 X110.594 Y85.158 E13.71136
G1 X109.910 Y84.111 E13.77673
G1 X109.596 Y83.570 E13.80942
G1 X109.134 Y82.680 E13.86182
G1 X108.625 Y81.524 E13.92781
G1 X108.325 Y80.715 E13.97286
G1 X108.133 Y80.120 E14.00555
G1 X107.962 Y79.518 E14.03824
G1 X107.732 Y78.542 E14.09063
G1 X107.616 Y77.915 E14.12395
G1 X107.494 Y77.061 E14.16900
G1 X107.432 Y76.439 E14.20168
G1 X107.378 Y75.437 E14.25406
G1 X107.392 Y74.186 E14.31944
G1 X107.495 Y72.928 E14.38540
G1 X107.618 Y72.073 E14.43049
G1 X107.732 Y71.458 E14.46318
G1 X108.027 Y70.242 E14.52855
G1 X108.207 Y69.643 E14.56124
G1 X108.538 Y68.697 E14.61362
G1 X108.772 Y68.117 E14.64630
G1 X109.134 Y67.320 E14.69200
G1 X109.416 Y66.762 E14.72469
G1 X109.855 Y65.983 E14.77140
G1 E11.77140 F2400.00000
G92 E0
G1 Z0.700 F7200.000
G1 X121.687 Y72.860 F7200.000
G1 Z0.200 F7200.000
G1 E3.00000 F2400.00000
G1 X122.048 Y72.385 E3.03113 F450.000
G1 X122.342 Y72.088 E3.05299
G1 X122.658 Y71.828 E3.07438
G1 X122.999 Y71.602 E3.09576
G1 X123.362 Y71.413 E3.11715
G1 X123.743 Y71.262 E3.13854
G1 X124.137 Y71.152 E3.15993
G1 X124.541 Y71.083 E3.18131
G1 X124.953 Y71.056 E3.20289 F450.000
G1 X125.553 Y71.095 E3.23428
G1 X125.963 Y71.176 E3.25616
G1 X126.355 Y71.296 E3.27755
G1 X126.732 Y71.457 E3.29897
G1 X127.112 Y71.668 E3.32169
G1 X127.426 Y71.891 E3.34182
G1 X127.734 Y72.158 E3.36311
G1 X128.014 Y72.456 E3.38449
G1 X128.267 Y72.790 E3.40635
G1 X128.563 Y73.307 E3.43748
G1 X128.722 Y73.694 E3.45934
G1 X128.837 Y74.087 E3.48073
G1 X128.911 Y74.489 E3.50212
G1 X128.943 Y74.898 E3.52351
G1 X128.932 Y75.307 E3.54489
G1 X128.879 Y75.713 E3.56628
G1 X128.784 Y76.111 E3.58767
G1 X128.646 Y76.506 E3.60953
G1 X128.377 Y77.038 E3.64066
G1 X128.142 Y77.384 E3.66252
G1 X127.878 Y77.697 E3.68391
G1 X127.583 Y77.980 E3.70529
G1 X127.253 Y78.238 E3.72715
G1 X126.740 Y78.540 E3.75828
G1 X126.355 Y78.704 E3.78014
G1 X125.963 Y78.824 E3.80153
G1 X125.562 Y78.903 E3.82292
G1 X125.154 Y78.941 E3.84431
G1 X124.745 Y78.935 E3.86569
G1 X124.338 Y78.888 E3.88708
G1 X123.939 Y78.798 E3.90847
G1 X123.551 Y78.667 E3.92986
G1 X123.178 Y78.497 E3.95125
G1 X122.818 Y78.285 E3.97311
G1 X122.348 Y77.919 E4.00423
G1 X122.054 Y77.621 E4.02609
G1 X121.798 Y77.301 E4.04748
G1 X121.577 Y76.957 E4.06887
G1 X121.392 Y76.592 E4.09026
G1 X121.247 Y76.209 E4.11165
G1 X121.139 Y75.805 E4.13351
G1 X121.062 Y75.214 E4.16463
G1 X121.062 Y74.795 E4.18649
G1 X121.105 Y74.388 E4.20788
G1 X121.189 Y73.988 E4.22927
G1 X121.315 Y73.598 E4.25066
G1 X121.480 Y73.223 E4.27205
G1 X121.658 Y72.912 E4.29077
G1 X122.085 Y73.157 F7200.000
G1 X122.421 Y72.709 E4.30738 F450.000
G1 X122.674 Y72.452 E4.31809
G1 X122.951 Y72.225 E4.32873
G1 X123.250 Y72.027 E4.33936
G1 X123.567 Y71.862 E4.35000
G1 X123.900 Y71.730 E4.36063
G1 X124.245 Y71.633 E4.37127
G1 X124.598 Y71.573 E4.38190
G1 X124.953 Y71.550 E4.39246 F450.000
G1 X125.489 Y71.584 E4.40840
G1 X125.843 Y71.654 E4.41911
G1 X126.185 Y71.760 E4.42975
G1 X126.515 Y71.900 E4.44039
G1 X126.849 Y72.086 E4.45173
G1 X127.122 Y72.279 E4.46167
G1 X127.392 Y72.513 E4.47229
G1 X127.637 Y72.775 E4.48292
G1 X127.855 Y73.062 E4.49363
G1 X128.119 Y73.524 E4.50942
G1 X128.256 Y73.857 E4.52013
G1 X128.357 Y74.201 E4.53077
G1 X128.422 Y74.553 E4.54140
G1 X128.450 Y74.910 E4.55204
G1 X128.440 Y75.268 E4.56267
G1 X128.394 Y75.624 E4.57331
G1 X128.311 Y75.972 E4.58394
G1 X128.192 Y76.312 E4.59465
G1 X127.952 Y76.787 E4.61044
G1 X127.749 Y77.086 E4.62115
G1 X127.518 Y77.359 E4.63179
G1 X127.260 Y77.608 E4.64242
G1 X126.975 Y77.829 E4.65313
G1 X126.517 Y78.099 E4.66892
G1 X126.185 Y78.240 E4.67963
G1 X125.843 Y78.346 E4.69027
G1 X125.492 Y78.415 E4.70090
G1 X125.135 Y78.448 E4.71154
G1 X124.777 Y78.443 E4.72217
G1 X124.421 Y78.401 E4.73281
G1 X124.072 Y78.323 E4.74344
G1 X123.732 Y78.209 E4.75407
G1 X123.406 Y78.060 E4.76471
G1 X123.095 Y77.877 E4.77542
G1 X122.676 Y77.550 E4.79121
G1 X122.423 Y77.293 E4.80192
G1 X122.199 Y77.013 E4.81256
G1 X122.005 Y76.712 E4.82319
G1 X121.844 Y76.392 E4.83382
G1 X121.716 Y76.058 E4.84446
G1 X121.624 Y75.709 E4.85517
G1 X121.555 Y75.182 E4.87096
G1 X121.555 Y74.821 E4.88167
G1 X121.592 Y74.465 E4.89231
G1 X121.666 Y74.114 E4.90294
G1 X121.776 Y73.773 E4.91357
G1 X121.920 Y73.446 E4.92421
G1 X122.056 Y73.209 E4.93231
G1 X121.913 Y72.796 F7200.000
G1 E1.93231 F2400.00000
G92 E0
G1 Z0.700 F7200.000
G1 X121.030 Y79.899 F7200.000
G1 Z0.200 F7200.000
G1 E3.00000 F2400.00000
G1 X120.517 Y79.435 E3.03614 F450.000
G1 X120.222 Y79.115 E3.05888
G1 X119.808 Y78.579 E3.09427
G1 X119.457 Y78.007 E3.12934
G1 X119.166 Y77.395 E3.16471
G1 X119.011 Y76.975 E3.18809
G1 X118.837 Y76.333 E3.22286
G1 X118.730 Y75.670 E3.25794
G1 X118.694 Y74.994 E3.29331
G1 X118.710 Y74.547 E3.31669
G1 X118.793 Y73.887 E3.35146
G1 X118.947 Y73.233 E3.38654
G1 X119.171 Y72.594 E3.42191
G1 X119.356 Y72.187 E3.44529
G1 X119.684 Y71.608 E3.48006
G1 X120.075 Y71.062 E3.51514
G1 X120.526 Y70.556 E3.55054
G1 X120.843 Y70.258 E3.57328
G1 X121.376 Y69.840 E3.60867
G1 X121.945 Y69.483 E3.64374
G1 X122.549 Y69.190 E3.67881
G1 X123.180 Y68.962 E3.71389
G1 X123.832 Y68.803 E3.74896
G1 X124.503 Y68.713 E3.78433
G1 X124.950 Y68.694 E3.80771
G1 X125.615 Y68.724 E3.84247
G1 X126.279 Y68.825 E3.87756 F450.000
G1 X126.928 Y68.995 E3.91263
G1 X127.561 Y69.236 E3.94800
G1 X127.963 Y69.433 E3.97138
G1 X128.533 Y69.776 E4.00615
G1 X129.068 Y70.181 E4.04123
G1 X129.562 Y70.645 E4.07662
G1 X129.852 Y70.970 E4.09936
G1 X130.256 Y71.514 E4.13476
G1 X130.596 Y72.092 E4.16983
G1 X130.876 Y72.709 E4.20522
G1 X131.020 Y73.120 E4.22797
G1 X131.187 Y73.777 E4.26336
G1 X131.282 Y74.441 E4.29843
G1 X131.306 Y75.118 E4.33382
G1 X131.283 Y75.553 E4.35657
G1 X131.187 Y76.223 E4.39196
G1 X131.022 Y76.874 E4.42703
G1 X130.787 Y77.509 E4.46242
G1 X130.600 Y77.902 E4.48517
G1 X130.256 Y78.486 E4.52056
G1 X129.855 Y79.025 E4.55563
G1 X129.396 Y79.523 E4.59102
G1 X129.073 Y79.815 E4.61377
G1 X128.533 Y80.224 E4.64916
G1 X127.958 Y80.570 E4.68423
G1 X127.344 Y80.855 E4.71962
G1 X126.934 Y81.003 E4.74237
G1 X126.279 Y81.175 E4.77776
G1 X125.615 Y81.276 E4.81283
G1 X124.945 Y81.306 E4.84790
G1 X124.269 Y81.264 E4.88327
G1 X123.827 Y81.196 E4.90665
G1 X123.180 Y81.038 E4.94142
G1 X122.543 Y80.808 E4.97680
G1 X122.137 Y80.619 E5.00018
G1 X121.561 Y80.286 E5.03495
G1 X121.079 Y79.934 E5.06615
G1 X120.789 Y80.332 F7200.000
G1 X120.170 Y79.786 E5.09066 F525.000
G1 X119.845 Y79.434 E5.10489
G1 X119.402 Y78.859 E5.12643
G1 X119.023 Y78.242 E5.14792
G1 X118.712 Y77.587 E5.16946
G1 X118.542 Y77.126 E5.18405
G1 X118.354 Y76.437 E5.20523
G1 X118.239 Y75.723 E5.22672
G1 X118.201 Y74.998 E5.24826
G1 X118.219 Y74.507 E5.26286
G1 X118.308 Y73.799 E5.28403
G1 X118.473 Y73.095 E5.30553
G1 X118.713 Y72.410 E5.32707
G1 X118.917 Y71.963 E5.34166
G1 X119.268 Y71.342 E5.36284
G1 X119.690 Y70.754 E5.38433
G1 X120.172 Y70.212 E5.40587
G1 X120.521 Y69.884 E5.42010
G1 X121.092 Y69.436 E5.44164
G1 X121.706 Y69.052 E5.46313
G1 X122.357 Y68.735 E5.48462
G1 X123.038 Y68.490 E5.50611
G1 X123.741 Y68.318 E5.52760
G1 X124.460 Y68.222 E5.54914
G1 X124.951 Y68.201 E5.56373
G1 X125.663 Y68.233 E5.58491
G1 X126.379 Y68.341 E5.60640 F525.000
G1 X127.079 Y68.526 E5.62789
G1 X127.757 Y68.784 E5.64943
G1 X128.198 Y68.999 E5.66402
G1 X128.810 Y69.367 E5.68520
G1 X129.387 Y69.804 E5.70669
G1 X129.915 Y70.301 E5.72824
G1 X130.234 Y70.659 E5.74246
G1 X130.667 Y71.241 E5.76401
G1 X131.034 Y71.865 E5.78550
G1 X131.334 Y72.525 E5.80704
G1 X131.493 Y72.978 E5.82126
G1 X131.671 Y73.681 E5.84281
G1 X131.774 Y74.397 E5.86430
G1 X131.799 Y75.122 E5.88584
G1 X131.774 Y75.601 E5.90007
G1 X131.671 Y76.319 E5.92161
G1 X131.493 Y77.021 E5.94310
G1 X131.241 Y77.701 E5.96464
G1 X131.035 Y78.134 E5.97887
G1 X130.667 Y78.759 E6.00041
G1 X130.235 Y79.340 E6.02190
G1 X129.743 Y79.873 E6.04344
G1 X129.388 Y80.195 E6.05767
G1 X128.810 Y80.633 E6.07921
G1 X128.189 Y81.006 E6.10070
G1 X127.531 Y81.311 E6.12225
G1 X127.081 Y81.474 E6.13647
G1 X126.379 Y81.659 E6.15802
G1 X125.663 Y81.767 E6.17951
G1 X124.940 Y81.799 E6.20100
G1 X124.216 Y81.754 E6.22254
G1 X123.730 Y81.680 E6.23713
G1 X123.038 Y81.510 E6.25831
G1 X122.355 Y81.264 E6.27985
G1 X121.910 Y81.056 E6.29444
G1 X121.292 Y80.699 E6.31562
G1 X120.837 Y80.368 E6.33234
G1 X120.856 Y79.938 F7200.000
G1 E3.33234 F2400.00000
G92 E0
G1 Z0.700 F7200.000
G1 X121.316 Y79.479 F7200.000
G1 Z0.200 F7200.000
G1 E3.00000 F2400.00000
G1 X120.460 Y78.623 E3.06454 F600.000
G1 E0.06454 F2400.00000
G92 E0
G1 Z0.700 F7200.000
G1 X119.345 Y76.601 F7200.000
G1 Z0.200 F7200.000
G1 E3.00000 F2400.00000
G1 X123.401 Y80.656 E3.30581 F600.000
G1 X124.542 Y80.891 E3.36796
G1 X119.107 Y75.456 E3.77781
G1 E0.77781 F2400.00000
G92 E0
G1 Z0.700 F7200.000
G1 X120.829 Y76.271 F7200.000
G1 Z0.200 F7200.000
G1 E3.00000 F2400.00000
G1 X119.087 Y74.529 E3.13136 F600.000
G1 X119.194 Y73.729 E3.17440
G1 X120.681 Y75.216 E3.28658
G1 X120.744 Y74.372 E3.33172
G1 X119.388 Y73.016 E3.43399
G1 X119.645 Y72.366 E3.47124
