; generated by Slic3r 1.2.9 on 2018-05-11 at 18:51:11

; external perimeters extrusion width = 0.40mm
; perimeters extrusion width = 0.58mm
; infill extrusion width = 0.58mm
; solid infill extrusion width = 0.58mm
; top infill extrusion width = 0.58mm
; support material extrusion width = 0.40mm

M104 S220 ; set temperature
;G28 ; home all axes
G1 Z10 F5000 ; lift nozzle

M104 S220 ; set temperature
M116 ; wait for temperature to be reached
G21 ; set units to millimeters
G90 ; use absolute coordinates
M82 ; use absolute distances for extrusion
G92 E0
G1 E-2.00000 F3600.00000
G92 E0
G1 Z0.280 F7200.000
G1 X80.677 Y30.601 F7200.000
G1 E2.00000 F3600.00000
G1 X82.572 Y27.586 E2.18602 F1200.000
G1 X85.090 Y25.069 E2.37205
G1 X88.105 Y23.175 E2.55807
G1 X91.852 Y21.917 E2.76455
G1 X99.827 Y20.306 E3.18965
G1 X102.975 Y19.991 E3.35493
G1 X147.080 Y19.991 E5.65919
G1 X150.250 Y20.310 E5.82561 F1200.000
G1 X158.169 Y21.922 E6.24784
G1 X161.557 Y23.018 E6.43387
G1 X164.616 Y24.840 E6.61989
G1 X167.192 Y27.298 E6.80592
G1 X169.157 Y30.267 E6.99194
G1 X170.412 Y33.600 E7.17797
G1 X170.898 Y37.500 E7.38332
G1 X170.898 Y57.500 E8.42822
G1 X170.499 Y61.038 E8.61424
G1 X169.940 Y62.933 E8.71744
G1 X149.940 Y117.933 E11.77499
G1 X148.357 Y121.122 E11.96102
G1 X146.103 Y123.878 E12.14704
G1 X143.292 Y126.064 E12.33307
G1 X140.065 Y127.569 E12.51909
G1 X135.000 Y128.398 E12.78723
G1 X115.000 Y128.398 E13.83212
G1 X111.462 Y127.999 E14.01815
G1 X108.101 Y126.823 E14.20417
G1 X105.086 Y124.928 E14.39020
G1 X102.569 Y122.410 E14.57622
G1 X100.060 Y117.933 E14.84436
G1 X80.060 Y62.933 E17.90191
G1 X79.225 Y59.471 E18.08794
G1 X79.102 Y57.500 E18.19113
G1 X79.102 Y37.500 E19.23603
G1 X79.501 Y33.962 E19.42205
G1 X80.658 Y30.658 E19.60494
G1 X81.108 Y30.754 F7200.000
G1 X83.017 Y27.749 E19.79093 F1200.000
G1 X85.527 Y25.296 E19.97431
G1 X88.526 Y23.473 E20.15768
G1 X91.941 Y22.357 E20.34535
G1 X99.916 Y20.746 E20.77044
G1 X102.975 Y20.440 E20.93106
G1 X147.080 Y20.440 E23.23532
G1 X150.160 Y20.750 E23.39704 F1200.000
G1 X158.080 Y22.361 E23.81927
G1 X161.417 Y23.447 E24.00264
G1 X164.424 Y25.258 E24.18602
G1 X166.944 Y27.702 E24.36939
G1 X168.847 Y30.650 E24.55276
G1 X170.036 Y33.953 E24.73613
G1 X170.449 Y37.500 E24.92270
G1 X170.449 Y57.500 E25.96760
G1 X170.050 Y60.987 E26.15097
G1 X169.519 Y62.780 E26.24864
G1 X149.519 Y117.780 E29.30620
G1 X147.952 Y120.920 E29.48957
G1 X145.717 Y123.627 E29.67294
G1 X142.929 Y125.759 E29.85631
G1 X139.732 Y127.206 E30.03969
G1 X135.000 Y127.949 E30.28992
G1 X115.000 Y127.949 E31.33482
G1 X111.513 Y127.550 E31.51819
G1 X108.206 Y126.375 E31.70156
G1 X105.249 Y124.483 E31.88493
G1 X102.796 Y121.973 E32.06831
G1 X100.481 Y117.780 E32.31854
G1 X80.481 Y62.780 E35.37610
G1 X79.664 Y59.366 E35.55947
G1 X79.551 Y57.500 E35.65714
G1 X79.551 Y37.500 E36.70204
G1 X79.950 Y34.013 E36.88541
G1 X81.088 Y30.811 E37.06296
G1 X82.383 Y32.029 F7200.000
G1 X89.702 Y24.709 E37.60375 F1200.000
G1 X96.186 Y24.709 E37.94252
G1 X96.306 Y24.675 E37.94905
G1 X97.699 Y23.816 E38.03453
G1 X101.123 Y22.844 E38.22052
G1 X108.942 Y22.844 E38.62898
G1 X110.232 Y22.527 E38.69838
G1 X111.906 Y22.840 E38.78737
G1 X113.288 Y22.844 E38.85956 F1200.000
G1 X114.009 Y23.233 E38.90237
G1 X115.727 Y23.553 E38.99366
G1 X116.606 Y24.174 E39.04989
G1 X116.875 Y24.183 E39.06399
G1 X117.470 Y23.816 E39.10048
G1 X120.894 Y22.844 E39.28647
G1 X125.652 Y22.844 E39.53501
G1 X125.985 Y22.768 E39.55288
G1 X127.617 Y22.844 E39.63823
G1 X130.017 Y22.844 E39.76361
G1 X130.189 Y22.939 E39.77388
G1 X130.289 Y22.968 E39.77933
G1 X132.039 Y23.049 E39.87087
G1 X133.631 Y24.012 E39.96806
G1 X133.884 Y24.010 E39.98125
G1 X134.199 Y23.816 E40.00061
G1 X137.624 Y22.844 E40.18660
G1 X146.626 Y22.844 E40.65693
G1 X149.720 Y22.632 E40.81896
G1 X153.969 Y24.687 E41.06550
G1 X154.068 Y24.709 E41.07080
G1 X160.298 Y24.709 E41.39632
G1 X167.791 Y32.202 E41.94991
G1 X167.791 Y62.798 E43.54841
G1 X160.298 Y70.291 E44.10201
G1 X148.290 Y70.291 E44.72938
G1 X147.960 Y70.388 E44.74732
G1 X147.791 Y70.623 E44.76247
G1 X147.791 Y117.798 E47.22712
G1 X140.298 Y125.291 E47.78072
G1 X109.702 Y125.291 E49.37921
G1 X102.209 Y117.798 E49.93281
G1 X102.209 Y70.554 E52.40109
G1 X101.946 Y70.291 E52.42052
G1 X89.702 Y70.291 E53.06023
G1 X82.209 Y62.798 E53.61382
G1 X82.209 Y32.202 E55.21232
G1 X82.340 Y32.071 E55.22199
G1 F5760
G1 X84.603 Y29.808 E53.32199
G1 E53.22199 F3600.00000
G92 E0
G1 X92.000 Y34.500 F7200.000
G1 X92.000 Y34.500 F7200.000
G1 X116.859 Y24.720 F7200.000
G1 E2.00000 F3600.00000
G1 X117.652 Y24.230 E2.04872 F1200.000
G1 X120.957 Y23.292 E2.22819
G1 X125.706 Y23.292 E2.47631
G1 X126.030 Y23.219 E2.49363
G1 X127.607 Y23.292 E2.57612
G1 X129.900 Y23.292 E2.69595
G1 X130.062 Y23.383 E2.70564
G1 X130.163 Y23.411 E2.71109
G1 X131.905 Y23.492 E2.80220
G1 X133.634 Y24.537 E2.90776
G1 X133.886 Y24.536 E2.92095
G1 X134.382 Y24.230 E2.95138
G1 X137.686 Y23.292 E3.13084
G1 X146.642 Y23.292 E3.59870
G1 X149.632 Y23.088 E3.75531
G1 X153.866 Y25.135 E4.00100
G1 X153.965 Y25.158 E4.00631
G1 X160.112 Y25.158 E4.32748
G1 X167.342 Y32.388 E4.86165
G1 X167.342 Y62.612 E6.44072
G1 X160.112 Y69.842 E6.97490
G1 X148.217 Y69.842 E7.59635
G1 X147.512 Y70.064 E7.63500
G1 X147.342 Y70.299 E7.65015
G1 X147.342 Y117.612 E10.12200
G1 X140.112 Y124.842 E10.65617
G1 X109.888 Y124.842 E12.23524
G1 X102.658 Y117.612 E12.76942
G1 X102.658 Y70.105 E15.25143
G1 X102.395 Y69.842 E15.27086
G1 X89.888 Y69.842 E15.92430
G1 X82.658 Y62.612 E16.45848
G1 X82.658 Y32.388 E18.03755
G1 X89.888 Y25.158 E18.57172
G1 X96.314 Y25.158 E18.90743
G1 X96.434 Y25.124 E18.91396
G1 X97.881 Y24.230 E19.00283
G1 X101.186 Y23.292 E19.18229
G1 X108.997 Y23.292 E19.59039
G1 X110.246 Y22.986 E19.65756
G1 X111.864 Y23.289 E19.74359
G1 X113.171 Y23.292 E19.81186
G1 X113.854 Y23.660 E19.85241
G1 X115.548 Y23.976 E19.94241
G1 X116.589 Y24.712 E20.00901
G1 X116.799 Y24.718 E20.01997
G1 X116.842 Y25.258 F7200.000
G1 X117.835 Y24.645 E20.08093 F1200.000
G1 X121.019 Y23.741 E20.25387
G1 X125.761 Y23.741 E20.50158
G1 X126.074 Y23.671 E20.51835
G1 X127.596 Y23.741 E20.59797
G1 X129.784 Y23.741 E20.71225
G1 X129.936 Y23.826 E20.72137
G1 X130.036 Y23.855 E20.72681
G1 X131.770 Y23.935 E20.81749
G1 X133.636 Y25.063 E20.93142
G1 X133.889 Y25.062 E20.94461
G1 X134.564 Y24.645 E20.98610
G1 X137.749 Y23.741 E21.15903
G1 X146.657 Y23.741 E21.62444
G1 X149.544 Y23.544 E21.77563
G1 X153.763 Y25.584 E22.02046
G1 X153.862 Y25.607 E22.02577
G1 X159.926 Y25.607 E22.34260
G1 X166.893 Y32.574 E22.85735
G1 X166.893 Y62.426 E24.41700
G1 X159.926 Y69.393 E24.93174
G1 X148.145 Y69.393 E25.54728
G1 X147.063 Y69.740 E25.60664
G1 X146.893 Y69.976 E25.62179
G1 X146.893 Y117.426 E28.10084
G1 X139.926 Y124.393 E28.61559
G1 X110.074 Y124.393 E30.17524
G1 X103.107 Y117.426 E30.68999
G1 X103.107 Y69.656 E33.18574
G1 X102.844 Y69.393 E33.20516
G1 X90.074 Y69.393 E33.87234
G1 X83.107 Y62.426 E34.38709
G1 X83.107 Y32.574 E35.94674
G1 X90.074 Y25.607 E36.46149
G1 X96.441 Y25.607 E36.79414
G1 X96.561 Y25.573 E36.80067
G1 X98.064 Y24.645 E36.89293
G1 X101.248 Y23.741 E37.06587
G1 X109.052 Y23.741 E37.47360
G1 X110.260 Y23.446 E37.53854
G1 X111.823 Y23.737 E37.62162
G1 X113.054 Y23.741 E37.68595
G1 X113.700 Y24.088 E37.72424
G1 X115.369 Y24.400 E37.81295
G1 X116.573 Y25.250 E37.88993
G1 X116.782 Y25.256 E37.90089
G1 X116.826 Y25.796 F7200.000
G1 X118.018 Y25.060 E37.97408 F1200.000
G1 X121.082 Y24.190 E38.14049
G1 X125.815 Y24.190 E38.38779
G1 X126.118 Y24.122 E38.40400
G1 X127.586 Y24.190 E38.48077
G1 X129.667 Y24.190 E38.58950
G1 X129.810 Y24.270 E38.59803
G1 X129.910 Y24.298 E38.60348
G1 X131.635 Y24.378 E38.69372
G1 X133.639 Y25.589 E38.81603
G1 X133.891 Y25.588 E38.82922
G1 X134.747 Y25.060 E38.88176
G1 X137.811 Y24.190 E39.04817
G1 X146.672 Y24.190 E39.51112
G1 X149.456 Y24.000 E39.65689
G1 X153.660 Y26.033 E39.90087
G1 X153.759 Y26.056 E39.90618
G1 X159.740 Y26.056 E40.21867
G1 X166.444 Y32.760 E40.71399
G1 X166.444 Y62.240 E42.25422
G1 X159.740 Y68.944 E42.74954
G1 X148.072 Y68.944 E43.35915
G1 X146.614 Y69.417 E43.43922
G1 X146.444 Y69.652 E43.45437
G1 X146.444 Y117.240 E45.94063
G1 X139.740 Y123.944 E46.43596
G1 X110.260 Y123.944 E47.97618
G1 X103.556 Y117.240 E48.47150
G1 X103.556 Y69.421 E50.96985
G1 X103.422 Y69.204 E50.98316
G1 X102.952 Y68.968 E51.01060
G1 X102.850 Y68.944 E51.01607
G1 X90.260 Y68.944 E51.67387
G1 X83.556 Y62.240 E52.16920
G1 X83.556 Y32.760 E53.70942
G1 X90.260 Y26.056 E54.20474
G1 X96.568 Y26.056 E54.53434
G1 X96.688 Y26.022 E54.54087
G1 X98.246 Y25.060 E54.63652
G1 X101.311 Y24.190 E54.80293
G1 X109.108 Y24.190 E55.21030
G1 X110.274 Y23.905 E55.27301
G1 X111.781 Y24.186 E55.35313
G1 X112.938 Y24.190 E55.41354
G1 X113.545 Y24.516 E55.44956
G1 X115.190 Y24.823 E55.53699
G1 X116.556 Y25.787 E55.62434
G1 X116.766 Y25.794 E55.63530
G1 X116.809 Y26.333 F7200.000
G1 X118.200 Y25.474 E55.72072 F1200.000
G1 X121.144 Y24.639 E55.88061
G1 X125.870 Y24.639 E56.12749
G1 X126.162 Y24.573 E56.14315
G1 X127.576 Y24.639 E56.21706
G1 X129.550 Y24.639 E56.32023
G1 X129.683 Y24.713 E56.32819
G1 X129.784 Y24.742 E56.33364
G1 X131.501 Y24.821 E56.42345
G1 X133.641 Y26.115 E56.55412
G1 X133.894 Y26.114 E56.56731
G1 X134.930 Y25.474 E56.63092
G1 X137.874 Y24.639 E56.79080
G1 X146.688 Y24.639 E57.25129
G1 X149.368 Y24.456 E57.39163
G1 X153.557 Y26.482 E57.63477
G1 X153.656 Y26.504 E57.64007
G1 X159.555 Y26.504 E57.94823
G1 X165.996 Y32.945 E58.42412
G1 X165.996 Y62.055 E59.94492
G1 X159.555 Y68.496 E60.42082
G1 X147.999 Y68.496 E61.02452
G1 X146.165 Y69.093 E61.12530
G1 X145.996 Y69.328 E61.14045
G1 X145.996 Y117.055 E63.63391
G1 X139.555 Y123.496 E64.10981
G1 X110.445 Y123.496 E65.63061
G1 X104.004 Y117.055 E66.10651
G1 X104.004 Y69.143 E68.60961
G1 X103.871 Y68.927 E68.62292
G1 X103.058 Y68.520 E68.67039
G1 X102.957 Y68.496 E68.67586
G1 X90.445 Y68.496 E69.32950
G1 X84.004 Y62.055 E69.80540
G1 X84.004 Y32.945 E71.32619
G1 X90.445 Y26.504 E71.80209
G1 X96.696 Y26.504 E72.12863
G1 X96.816 Y26.470 E72.13516
G1 X98.429 Y25.474 E72.23421
G1 X101.373 Y24.639 E72.39409
G1 X109.163 Y24.639 E72.80109
G1 X110.288 Y24.364 E72.86157
G1 X111.740 Y24.635 E72.93874
G1 X112.821 Y24.639 E72.99522
G1 X113.391 Y24.943 E73.02899
G1 X115.011 Y25.246 E73.11512
G1 X116.539 Y26.325 E73.21284
G1 X116.749 Y26.331 E73.22380
G1 X116.792 Y26.871 F7200.000
G1 X118.383 Y25.889 E73.32146 F1200.000
G1 X121.207 Y25.088 E73.47482
G1 X125.924 Y25.088 E73.72128
G1 X126.206 Y25.025 E73.73639
G1 X127.565 Y25.088 E73.80745
G1 X129.434 Y25.088 E73.90506
G1 X129.557 Y25.156 E73.91244
G1 X129.657 Y25.185 E73.91789
G1 X131.366 Y25.264 E74.00727
G1 X133.644 Y26.641 E74.14631
G1 X133.896 Y26.640 E74.15950
G1 X135.112 Y25.889 E74.23417
G1 X137.936 Y25.088 E74.38753
G1 X146.703 Y25.088 E74.84555
G1 X149.280 Y24.912 E74.98048
G1 X153.454 Y26.931 E75.22276
G1 X153.553 Y26.953 E75.22807
G1 X159.369 Y26.953 E75.53188
G1 X165.547 Y33.131 E75.98835
G1 X165.547 Y61.869 E77.48973
G1 X159.369 Y68.047 E77.94620
G1 X147.927 Y68.047 E78.54398
G1 X145.716 Y68.769 E78.66547
G1 X145.547 Y69.004 E78.68062
G1 X145.547 Y116.869 E81.18129
G1 X139.369 Y123.047 E81.63776
G1 X110.631 Y123.047 E83.13914
G1 X104.453 Y116.869 E83.59561
G1 X104.453 Y68.866 E86.10348
G1 X104.319 Y68.650 E86.11679
G1 X103.165 Y68.071 E86.18428
G1 X103.063 Y68.047 E86.18975
G1 X90.631 Y68.047 E86.83922
G1 X84.453 Y61.869 E87.29570
G1 X84.453 Y33.131 E88.79707
G1 X90.631 Y26.953 E89.25354
G1 X96.823 Y26.953 E89.57703
G1 X96.943 Y26.919 E89.58355
G1 X98.612 Y25.889 E89.68599
G1 X101.436 Y25.088 E89.83935
G1 X109.219 Y25.088 E90.24598
G1 X110.302 Y24.823 E90.30423
G1 X111.698 Y25.084 E90.37845
G1 X112.704 Y25.088 E90.43100
G1 X113.236 Y25.371 E90.46250
G1 X114.833 Y25.669 E90.54735
G1 X116.523 Y26.863 E90.65544
G1 X116.732 Y26.869 E90.66641
G1 X116.722 Y27.402 F7200.000
G1 X116.842 Y27.368 E90.67293 F1200.000
G1 X118.565 Y26.304 E90.77877
G1 X121.269 Y25.536 E90.92560
G1 X125.979 Y25.536 E91.17165
G1 X126.251 Y25.476 E91.18620
G1 X127.555 Y25.536 E91.25440
G1 X129.317 Y25.536 E91.34646
G1 X129.431 Y25.600 E91.35327
G1 X129.531 Y25.628 E91.35871
G1 X131.231 Y25.707 E91.44766
G1 X133.646 Y27.167 E91.59508
G1 X133.899 Y27.166 E91.60827
G1 X135.295 Y26.304 E91.69399
G1 X137.999 Y25.536 E91.84083
G1 X146.718 Y25.536 E92.29639
G1 X149.191 Y25.367 E92.42589
G1 X153.352 Y27.379 E92.66733
G1 X153.451 Y27.402 E92.67263
G1 X159.183 Y27.402 E92.97210
G1 X165.098 Y33.317 E93.40915
G1 X165.098 Y61.683 E94.89110
G1 X159.183 Y67.598 E95.32815
G1 X147.854 Y67.598 E95.92001
G1 X145.268 Y68.445 E96.06221
G1 X145.098 Y68.680 E96.07736
G1 X145.098 Y116.683 E98.58524
G1 X139.183 Y122.598 E99.02229
G1 X110.817 Y122.598 E100.50424
G1 X104.902 Y116.683 E100.94129
G1 X104.902 Y68.589 E103.45392
G1 X104.768 Y68.373 E103.46723
G1 X103.271 Y67.622 E103.55474
G1 X103.169 Y67.598 E103.56021
G1 X90.817 Y67.598 E104.20552
G1 X84.902 Y61.683 E104.64257
G1 X84.902 Y33.317 E106.12452
G1 X90.817 Y27.402 E106.56157
G1 X96.950 Y27.402 E106.88199
G1 X97.071 Y27.368 E106.88852
G1 X98.794 Y26.304 E106.99435
G1 X101.498 Y25.536 E107.14118
G1 X109.274 Y25.536 E107.54744
G1 X110.316 Y25.282 E107.60346
G1 X111.657 Y25.533 E107.67473
G1 X112.587 Y25.536 E107.72336
G1 X113.082 Y25.799 E107.75259
G1 X114.654 Y26.092 E107.83615
G1 X116.449 Y27.360 E107.95096
G1 X116.581 Y27.402 E107.95822
G1 X116.662 Y27.402 E107.96241
G1 F5760
G1 X116.842 Y27.368 E107.85354
G1 F5760
G1 X118.565 Y26.304 E106.65076
G1 F5760
G1 X119.519 Y26.033 E106.06241
G1 E105.96241 F3600.00000
G92 E0
G1 X158.000 Y34.500 F7200.000
G1 X158.000 Y34.500 F7200.000
G1 X133.901 Y27.692 F7200.000
G1 E2.00000 F3600.00000
G1 X135.478 Y26.718 E2.09679 F1200.000
G1 X138.061 Y25.985 E2.23710
G1 X146.734 Y25.985 E2.69020
G1 X149.103 Y25.823 E2.81428
G1 X153.249 Y27.828 E3.05486
G1 X153.348 Y27.851 E3.06017
G1 X158.997 Y27.851 E3.35530
G1 X164.649 Y33.503 E3.77293
G1 X164.649 Y61.497 E5.23545
G1 X158.997 Y67.149 E5.65308
G1 X147.782 Y67.149 E6.23901
G1 X144.819 Y68.121 E6.40192
G1 X144.649 Y68.357 E6.41708
G1 X144.649 Y116.497 E8.93215
G1 X138.997 Y122.149 E9.34978
G1 X111.003 Y122.149 E10.81230
G1 X105.351 Y116.497 E11.22993
G1 X105.351 Y68.312 E13.74733
G1 X105.217 Y68.095 E13.76064
G1 X103.377 Y67.173 E13.86817
G1 X103.275 Y67.149 E13.87364
G1 X91.003 Y67.149 E14.51478
G1 X85.351 Y61.497 E14.93241
G1 X85.351 Y33.503 E16.39493
G1 X91.003 Y27.851 E16.81256
G1 X97.078 Y27.851 E17.12993
G1 X97.198 Y27.817 E17.13645
G1 X98.977 Y26.718 E17.24568
G1 X101.560 Y25.985 E17.38599
G1 X109.329 Y25.985 E17.79187
G1 X110.330 Y25.741 E17.84567
G1 X111.615 Y25.981 E17.91398
G1 X112.471 Y25.985 E17.95868
G1 X112.927 Y26.226 E17.98566
G1 X114.475 Y26.515 E18.06792
G1 X116.306 Y27.809 E18.18505
G1 X116.439 Y27.851 E18.19232
G1 X116.849 Y27.851 E18.21374
G1 X116.969 Y27.817 E18.22027
G1 X118.748 Y26.718 E18.32949
G1 X121.332 Y25.985 E18.46980
G1 X126.033 Y25.985 E18.71544
G1 X126.295 Y25.927 E18.72944
G1 X127.544 Y25.985 E18.79478
G1 X129.200 Y25.985 E18.88129
G1 X129.304 Y26.043 E18.88751
G1 X129.404 Y26.072 E18.89296
G1 X131.097 Y26.150 E18.98147
G1 X133.649 Y27.693 E19.13726
G1 X133.841 Y27.692 E19.14731
G1 X133.904 Y28.218 F7200.000
G1 X135.660 Y27.133 E19.25516 F1200.000
G1 X138.124 Y26.434 E19.38894
G1 X146.749 Y26.434 E19.83959
G1 X149.015 Y26.279 E19.95825
G1 X153.146 Y28.277 E20.19798
G1 X153.245 Y28.300 E20.20328
G1 X158.811 Y28.300 E20.49408
G1 X164.200 Y33.689 E20.89228
G1 X164.200 Y61.311 E22.33538
G1 X158.811 Y66.700 E22.73358
G1 X147.709 Y66.700 E23.31360
G1 X144.370 Y67.798 E23.49722
G1 X144.200 Y68.033 E23.51237
G1 X144.200 Y116.311 E26.03465
G1 X138.811 Y121.700 E26.43286
G1 X111.189 Y121.700 E27.87596
G1 X105.800 Y116.311 E28.27416
G1 X105.800 Y68.035 E30.79632
G1 X105.666 Y67.818 E30.80963
G1 X103.483 Y66.724 E30.93718
G1 X103.381 Y66.700 E30.94265
G1 X91.189 Y66.700 E31.57963
G1 X85.800 Y61.311 E31.97783
G1 X85.800 Y33.689 E33.42093
G1 X91.189 Y28.300 E33.81913
G1 X97.205 Y28.300 E34.13344
G1 X97.325 Y28.266 E34.13997
G1 X99.160 Y27.133 E34.25259
G1 X101.623 Y26.434 E34.38637
G1 X109.385 Y26.434 E34.79189
