; generated by Slic3r 1.2.9 on 2018-04-22 at 17:31:54

; external perimeters extrusion width = 0.40mm
; perimeters extrusion width = 0.58mm
; infill extrusion width = 0.58mm
; solid infill extrusion width = 0.58mm
; top infill extrusion width = 0.58mm

M104 S215 ; set temperature
;G28 ; home all axes
G1 Z10 F5000 ; lift nozzle

M104 S215 ; set temperature
M116 ; wait for temperature to be reached
G21 ; set units to millimeters
G90 ; use absolute coordinates
M82 ; use absolute distances for extrusion
G92 E0
G1 E-2.00000 F3600.00000
G92 E0
G1 Z0.280 F7200.000
G1 X80.677 Y30.601 F7200.000
G1 E2.00000 F3600.00000
G1 X82.572 Y27.586 E2.18230 F1200.000
G1 X85.090 Y25.069 E2.36461
G1 X88.105 Y23.175 E2.54691
G1 X91.467 Y22.000 E2.72922
G1 X95.000 Y21.602 E2.91127
G1 X155.000 Y21.602 E5.98327
G1 X158.538 Y22.001 E6.16558
G1 X161.899 Y23.177 E6.34788
G1 X164.914 Y25.072 E6.53018
G1 X167.431 Y27.590 E6.71249
G1 X169.325 Y30.605 E6.89479
G1 X170.500 Y33.967 E7.07710
G1 X170.898 Y37.500 E7.25915
G1 X170.898 Y57.500 E8.28315
G1 X170.499 Y61.038 E8.46546
G1 X169.940 Y62.933 E8.56659
G1 X149.940 Y117.933 E11.56299
G1 X148.357 Y121.122 E11.74530
G1 X146.103 Y123.878 E11.92760
G1 X143.292 Y126.064 E12.10990
G1 X140.065 Y127.569 E12.29221
G1 X135.000 Y128.398 E12.55498
G1 X115.000 Y128.398 E13.57898
G1 X111.462 Y127.999 E13.76128
G1 X108.101 Y126.823 E13.94359
G1 X105.086 Y124.928 E14.12589
G1 X102.569 Y122.410 E14.30820
G1 X100.060 Y117.933 E14.57097
G1 X80.060 Y62.933 E17.56737
G1 X79.225 Y59.471 E17.74968
G1 X79.102 Y57.500 E17.85081
G1 X79.102 Y37.500 E18.87481
G1 X79.501 Y33.962 E19.05711
G1 X80.658 Y30.658 E19.23634
G1 X81.125 Y30.706 F7200.000
G1 X83.017 Y27.749 E19.41605 F1200.000
G1 X85.527 Y25.296 E19.59575
G1 X88.526 Y23.473 E19.77546
G1 X91.860 Y22.374 E19.95516
G1 X95.000 Y22.051 E20.11679
G1 X155.000 Y22.051 E23.18879
G1 X158.487 Y22.450 E23.36849
G1 X161.794 Y23.625 E23.54820
G1 X164.751 Y25.517 E23.72790
G1 X167.204 Y28.027 E23.90760
G1 X169.027 Y31.026 E24.08731
G1 X170.126 Y34.360 E24.26701
G1 X170.449 Y37.500 E24.42864
G1 X170.449 Y57.500 E25.45264
G1 X170.050 Y60.987 E25.63234
G1 X169.519 Y62.780 E25.72806
G1 X149.519 Y117.780 E28.72446
G1 X147.952 Y120.920 E28.90417
G1 X145.717 Y123.627 E29.08387
G1 X142.929 Y125.759 E29.26358
G1 X139.732 Y127.206 E29.44328
G1 X135.000 Y127.949 E29.68851
G1 X115.000 Y127.949 E30.71251
G1 X111.513 Y127.550 E30.89222
G1 X108.206 Y126.375 E31.07192
G1 X105.249 Y124.483 E31.25163
G1 X102.796 Y121.973 E31.43133
G1 X100.481 Y117.780 E31.67656
G1 X80.481 Y62.780 E34.67296
G1 X79.664 Y59.366 E34.85267
G1 X79.551 Y57.500 E34.94839
G1 X79.551 Y37.500 E35.97239
G1 X79.950 Y34.013 E36.15209
G1 X81.105 Y30.762 E36.32872
G1 X82.209 Y32.202 F7200.000
G1 X89.702 Y24.709 E36.87125 F1200.000
G1 X160.298 Y24.709 E40.48577
G1 X167.791 Y32.202 E41.02830
G1 X167.791 Y62.798 E42.59482
G1 X160.298 Y70.291 E43.13735
G1 X148.054 Y70.291 E43.76427
G1 X147.791 Y70.554 E43.78330
G1 X147.791 Y117.798 E46.20222
G1 X140.298 Y125.291 E46.74474
G1 X109.702 Y125.291 E48.31127
G1 X102.209 Y117.798 E48.85379
G1 X102.209 Y70.554 E51.27271
G1 X101.946 Y70.291 E51.29175
G1 X89.702 Y70.291 E51.91866
G1 X82.209 Y62.798 E52.46119
G1 X82.209 Y32.262 E54.02464
G1 X82.658 Y32.388 F7200.000
G1 X89.888 Y25.158 E54.54813 F1200.000
G1 X160.112 Y25.158 E58.14362
G1 X167.342 Y32.388 E58.66711
G1 X167.342 Y62.612 E60.21460
G1 X160.112 Y69.842 E60.73809
G1 X147.605 Y69.842 E61.37847
G1 X147.342 Y70.105 E61.39750
G1 X147.342 Y117.612 E63.82988
G1 X140.112 Y124.842 E64.35337
G1 X109.888 Y124.842 E65.90086
G1 X102.658 Y117.612 E66.42435
G1 X102.658 Y70.105 E68.85672
G1 X102.395 Y69.842 E68.87576
G1 X89.888 Y69.842 E69.51614
G1 X82.658 Y62.612 E70.03963
G1 X82.658 Y32.448 E71.58404
G1 X83.107 Y32.574 F7200.000
G1 X90.074 Y25.607 E72.08850 F1200.000
G1 X159.926 Y25.607 E75.66495
G1 X166.893 Y32.574 E76.16940
G1 X166.893 Y62.426 E77.69786
G1 X159.926 Y69.393 E78.20231
G1 X147.156 Y69.393 E78.85615
G1 X146.893 Y69.656 E78.87518
G1 X146.893 Y117.426 E81.32102
G1 X139.926 Y124.393 E81.82547
G1 X110.074 Y124.393 E83.35393
G1 X103.107 Y117.426 E83.85838
G1 X103.107 Y69.656 E86.30422
G1 X102.844 Y69.393 E86.32325
G1 X90.074 Y69.393 E86.97709
G1 X83.107 Y62.426 E87.48154
G1 X83.107 Y32.634 E89.00693
G1 X83.556 Y32.760 F7200.000
G1 X90.260 Y26.056 E89.49234 F1200.000
G1 X159.740 Y26.056 E93.04976
G1 X166.444 Y32.760 E93.53518
G1 X166.444 Y62.240 E95.04460
G1 X159.740 Y68.944 E95.53001
G1 X146.707 Y68.944 E96.19731
G1 X146.444 Y69.207 E96.21635
G1 X146.444 Y117.240 E98.67564
G1 X139.740 Y123.944 E99.16106
G1 X110.260 Y123.944 E100.67048
G1 X103.556 Y117.240 E101.15590
G1 X103.556 Y69.207 E103.61519
G1 X103.293 Y68.944 E103.63423
G1 X90.260 Y68.944 E104.30153
G1 X83.556 Y62.240 E104.78695
G1 X83.556 Y32.820 E106.29329
G1 X84.004 Y32.945 F7200.000
G1 X90.445 Y26.504 E106.75967 F1200.000
G1 X159.555 Y26.504 E110.29805
G1 X165.996 Y32.945 E110.76444
G1 X165.996 Y62.055 E112.25482
G1 X159.555 Y68.496 E112.72120
G1 X146.258 Y68.496 E113.40196
G1 X145.996 Y68.758 E113.42099
G1 X145.996 Y117.055 E115.89375
G1 X139.555 Y123.496 E116.36013
G1 X110.445 Y123.496 E117.85051
G1 X104.004 Y117.055 E118.31690
G1 X104.004 Y68.758 E120.78965
G1 X103.742 Y68.496 E120.80869
G1 X90.445 Y68.496 E121.48945
G1 X84.004 Y62.055 E121.95583
G1 X84.004 Y33.005 E123.44314
G1 X84.453 Y33.131 F7200.000
G1 X90.631 Y26.953 E123.89048 F1200.000
G1 X159.369 Y26.953 E127.40983
G1 X165.547 Y33.131 E127.85718
G1 X165.547 Y61.869 E129.32852
G1 X159.369 Y68.047 E129.77587
G1 X145.810 Y68.047 E130.47008
G1 X145.547 Y68.310 E130.48912
G1 X145.547 Y116.869 E132.97534
G1 X139.369 Y123.047 E133.42268
G1 X110.631 Y123.047 E134.89403
G1 X104.453 Y116.869 E135.34138
G1 X104.453 Y68.310 E137.82759
G1 X104.190 Y68.047 E137.84663
G1 X90.631 Y68.047 E138.54085
G1 X84.453 Y61.869 E138.98819
G1 X84.453 Y33.191 E140.45647
G1 X84.902 Y33.317 F7200.000
G1 X90.817 Y27.402 E140.88478 F1200.000
G1 X159.183 Y27.402 E144.38509
G1 X165.098 Y33.317 E144.81340
G1 X165.098 Y61.683 E146.26571
G1 X159.183 Y67.598 E146.69402
G1 X145.361 Y67.598 E147.40169
G1 X145.098 Y67.861 E147.42073
G1 X145.098 Y116.683 E149.92041
G1 X139.183 Y122.598 E150.34872
G1 X110.817 Y122.598 E151.80103
G1 X104.902 Y116.683 E152.22934
G1 X104.902 Y67.861 E154.72902
G1 X104.639 Y67.598 E154.74805
G1 X90.817 Y67.598 E155.45573
G1 X84.902 Y61.683 E155.88404
G1 X84.902 Y33.377 E157.33328
G1 X85.351 Y33.503 F7200.000
G1 X91.003 Y27.851 E157.74255 F1200.000
G1 X158.997 Y27.851 E161.22383
G1 X164.649 Y33.503 E161.63310
G1 X164.649 Y61.497 E163.06637
G1 X158.997 Y67.149 E163.47565
G1 X144.912 Y67.149 E164.19679
G1 X144.649 Y67.412 E164.21582
G1 X144.649 Y116.497 E166.72896
G1 X138.997 Y122.149 E167.13824
G1 X111.003 Y122.149 E168.57151
G1 X105.351 Y116.497 E168.98078
G1 X105.351 Y67.412 E171.49392
G1 X105.088 Y67.149 E171.51296
G1 X91.003 Y67.149 E172.23410
G1 X85.351 Y61.497 E172.64337
G1 X85.351 Y33.563 E174.07357
G1 X85.800 Y33.689 F7200.000
G1 X91.189 Y28.300 E174.46381 F1200.000
G1 X158.811 Y28.300 E177.92605
G1 X164.200 Y33.689 E178.31629
G1 X164.200 Y61.311 E179.73052
G1 X158.811 Y66.700 E180.12076
G1 X144.463 Y66.700 E180.85536
G1 X144.200 Y66.963 E180.87440
G1 X144.200 Y116.311 E183.40100
G1 X138.811 Y121.700 E183.79123
G1 X111.189 Y121.700 E185.20547
G1 X105.800 Y116.311 E185.59571
G1 X105.800 Y66.963 E188.12231
G1 X105.537 Y66.700 E188.14135
G1 X91.189 Y66.700 E188.87595
G1 X85.800 Y61.311 E189.26618
G1 X85.800 Y33.749 E190.67735
G1 X86.248 Y33.875 F7200.000
G1 X91.375 Y28.748 E191.04855 F1200.000
G1 X158.625 Y28.748 E194.49175
G1 X163.752 Y33.875 E194.86295
G1 X163.752 Y61.125 E196.25815
G1 X158.625 Y66.252 E196.62936
G1 X144.014 Y66.252 E197.37742
G1 X143.752 Y66.514 E197.39645
G1 X143.752 Y116.125 E199.93651
G1 X138.625 Y121.252 E200.30771
G1 X111.375 Y121.252 E201.70292
G1 X106.248 Y116.125 E202.07412
G1 X106.248 Y66.514 E204.61418
G1 X105.986 Y66.252 E204.63321
G1 X91.375 Y66.252 E205.38127
G1 X86.248 Y61.125 E205.75248
G1 X86.248 Y33.935 E207.14461
G1 X86.697 Y34.061 F7200.000
G1 X91.561 Y29.197 E207.49677 F1200.000
G1 X158.439 Y29.197 E210.92094
G1 X163.303 Y34.061 E211.27310
G1 X163.303 Y60.939 E212.64927
G1 X158.439 Y65.803 E213.00143
G1 X143.566 Y65.803 E213.76296
G1 X143.303 Y66.066 E213.78199
G1 X143.303 Y115.939 E216.33551
G1 X138.439 Y120.803 E216.68768
G1 X111.561 Y120.803 E218.06384
G1 X106.697 Y115.939 E218.41601
G1 X106.697 Y66.066 E220.96953
G1 X106.434 Y65.803 E220.98857
G1 X91.561 Y65.803 E221.75009
G1 X86.697 Y60.939 E222.10225
G1 X86.697 Y34.121 E223.47535
G1 X87.146 Y34.247 F7200.000
G1 X91.747 Y29.646 E223.80848 F1200.000
G1 X158.253 Y29.646 E227.21361
G1 X162.854 Y34.247 E227.54673
G1 X162.854 Y60.753 E228.90386
G1 X158.253 Y65.354 E229.23699
G1 X143.117 Y65.354 E230.01198
G1 X142.854 Y65.617 E230.03101
G1 X142.854 Y115.753 E232.59799
G1 X138.253 Y120.354 E232.93112
G1 X111.747 Y120.354 E234.28825
G1 X107.146 Y115.753 E234.62138
G1 X107.146 Y65.617 E237.18836
G1 X106.883 Y65.354 E237.20740
G1 X91.747 Y65.354 E237.98238
G1 X87.146 Y60.753 E238.31551
G1 X87.146 Y34.307 E239.66957
G1 X87.595 Y34.433 F7200.000
G1 X91.933 Y30.095 E239.98366 F1200.000
G1 X158.067 Y30.095 E243.36976
G1 X162.405 Y34.433 E243.68385
G1 X162.405 Y60.567 E245.02194
G1 X158.067 Y64.905 E245.33604
G1 X142.668 Y64.905 E246.12448
G1 X142.405 Y65.168 E246.14351
G1 X142.405 Y115.567 E248.72396
G1 X138.067 Y119.905 E249.03805
G1 X111.933 Y119.905 E250.37614
G1 X107.595 Y115.567 E250.69024
G1 X107.595 Y65.168 E253.27068
G1 X107.332 Y64.905 E253.28971
G1 X91.933 Y64.905 E254.07816
G1 X87.595 Y60.567 E254.39225
G1 X87.595 Y34.493 E255.72727
G1 X88.044 Y34.619 F7200.000
G1 X92.119 Y30.544 E256.02233 F1200.000
G1 X157.881 Y30.544 E259.38939
G1 X161.956 Y34.619 E259.68444
G1 X161.956 Y60.381 E261.00350
G1 X157.881 Y64.456 E261.29856
G1 X142.219 Y64.456 E262.10046
G1 X141.956 Y64.719 E262.11950
G1 X141.956 Y115.381 E264.71340
G1 X137.881 Y119.456 E265.00846
G1 X112.119 Y119.456 E266.32752
G1 X108.044 Y115.381 E266.62257
G1 X108.044 Y64.719 E269.21648
G1 X107.781 Y64.456 E269.23551
G1 X92.119 Y64.456 E270.03741
G1 X88.044 Y60.381 E270.33247
G1 X88.044 Y34.679 E271.64846
G1 X88.492 Y34.804 F7200.000
G1 X92.304 Y30.992 E271.92448 F1200.000
G1 X157.696 Y30.992 E275.27250
G1 X161.508 Y34.804 E275.54852
G1 X161.508 Y60.196 E276.84854
G1 X157.696 Y64.008 E277.12457
G1 X141.770 Y64.008 E277.93993
G1 X141.508 Y64.270 E277.95897
G1 X141.508 Y115.196 E280.56633
G1 X137.696 Y119.008 E280.84235
G1 X112.304 Y119.008 E282.14237
G1 X108.492 Y115.196 E282.41839
G1 X108.492 Y64.270 E285.02576
G1 X108.230 Y64.008 E285.04479
G1 X92.304 Y64.008 E285.86015
G1 X88.492 Y60.196 E286.13618
G1 X88.492 Y34.864 E287.43313
G1 X88.941 Y34.990 F7200.000
G1 X92.490 Y31.441 E287.69011 F1200.000
G1 X157.510 Y31.441 E291.01910
G1 X161.059 Y34.990 E291.27608
G1 X161.059 Y60.010 E292.55707
G1 X157.510 Y63.559 E292.81405
G1 X141.322 Y63.559 E293.64288
G1 X141.059 Y63.822 E293.66191
G1 X141.059 Y115.010 E296.28274
G1 X137.510 Y118.559 E296.53972
G1 X112.490 Y118.559 E297.82071
G1 X108.941 Y115.010 E298.07769
G1 X108.941 Y63.822 E300.69852
G1 X108.678 Y63.559 E300.71755
G1 X92.490 Y63.559 E301.54638
G1 X88.941 Y60.010 E301.80336
G1 X88.941 Y35.050 E303.08128
G1 X89.390 Y35.176 F7200.000
G1 X92.676 Y31.890 E303.31923 F1200.000
G1 X157.324 Y31.890 E306.62918
G1 X160.610 Y35.176 E306.86713
G1 X160.610 Y59.824 E308.12908
G1 X157.324 Y63.110 E308.36703
G1 X140.873 Y63.110 E309.20931
G1 X140.610 Y63.373 E309.22834
G1 X140.610 Y114.824 E311.86263
G1 X137.324 Y118.110 E312.10058
G1 X112.676 Y118.110 E313.36253
G1 X109.390 Y114.824 E313.60048
G1 X109.390 Y63.373 E316.23476
G1 X109.127 Y63.110 E316.25380
G1 X92.676 Y63.110 E317.09608
G1 X89.390 Y59.824 E317.33403
G1 X89.390 Y35.236 E318.59291
G1 X89.839 Y35.362 F7200.000
G1 X92.862 Y32.339 E318.81182 F1200.000
G1 X157.138 Y32.339 E322.10274
G1 X160.161 Y35.362 E322.32165
G1 X160.161 Y59.638 E323.56456
G1 X157.138 Y62.661 E323.78348
G1 X140.424 Y62.661 E324.63922
G1 X140.161 Y62.924 E324.65826
G1 X140.161 Y114.638 E327.30600
G1 X137.138 Y117.661 E327.52492
G1 X112.862 Y117.661 E328.76783
G1 X109.839 Y114.638 E328.98674
G1 X109.839 Y62.924 E331.63449
G1 X109.576 Y62.661 E331.65352
G1 X92.862 Y62.661 E332.50927
G1 X89.839 Y59.638 E332.72818
G1 X89.839 Y35.422 E333.96802
G1 X90.288 Y35.548 F7200.000
G1 X93.048 Y32.788 E334.16790 F1200.000
G1 X156.952 Y32.788 E337.43978
G1 X159.712 Y35.548 E337.63966
G1 X159.712 Y59.452 E338.86353
G1 X156.952 Y62.212 E339.06341
G1 X139.975 Y62.212 E339.93262
G1 X139.712 Y62.475 E339.95165
G1 X139.712 Y114.452 E342.61286
G1 X136.952 Y117.212 E342.81274
G1 X113.048 Y117.212 E344.03661
G1 X110.288 Y114.452 E344.23649
G1 X110.288 Y62.475 E346.89770
G1 X110.025 Y62.212 E346.91673
G1 X93.048 Y62.212 E347.78594
G1 X90.288 Y59.452 E347.98581
G1 X90.288 Y35.608 E349.20662
G1 X90.736 Y35.734 F7200.000
G1 X93.234 Y33.236 E349.38746 F1200.000
G1 X156.766 Y33.236 E352.64030
G1 X159.264 Y35.734 E352.82115
G1 X159.264 Y59.266 E354.02599
G1 X156.766 Y61.764 E354.20683
G1 X139.526 Y61.764 E355.08949
G1 X139.264 Y62.026 E355.10853
G1 X139.264 Y114.266 E357.78320
G1 X136.766 Y116.764 E357.96404
G1 X113.234 Y116.764 E359.16888
G1 X110.736 Y114.266 E359.34972
G1 X110.736 Y62.026 E362.02439
G1 X110.474 Y61.764 E362.04342
G1 X93.234 Y61.764 E362.92609
G1 X90.736 Y59.266 E363.10693
G1 X90.736 Y35.794 E364.30870
G1 X91.185 Y35.920 F7200.000
G1 X93.420 Y33.685 E364.47050 F1200.000
G1 X156.580 Y33.685 E367.70431
G1 X158.815 Y35.920 E367.86612
G1 X158.815 Y59.080 E369.05192
G1 X156.580 Y61.315 E369.21373
G1 X139.078 Y61.315 E370.10985
G1 X138.815 Y61.578 E370.12889
G1 X138.815 Y114.080 E372.81701
G1 X136.580 Y116.315 E372.97882
G1 X113.420 Y116.315 E374.16463
G1 X111.185 Y114.080 E374.32643
G1 X111.185 Y61.578 E377.01456
G1 X110.922 Y61.315 E377.03359
G1 X93.420 Y61.315 E377.92972
G1 X91.185 Y59.080 E378.09153
G1 X91.185 Y35.980 E379.27426
G1 X91.634 Y36.106 F7200.000
G1 X93.606 Y34.134 E379.41703 F1200.000
G1 X156.394 Y34.134 E382.63180
G1 X158.366 Y36.106 E382.77457
G1 X158.366 Y58.894 E383.94134
G1 X156.394 Y60.866 E384.08411
G1 X138.629 Y60.866 E384.99369
G1 X138.366 Y61.129 E385.01273
G1 X138.366 Y113.894 E387.71432
G1 X136.394 Y115.866 E387.85709
G1 X113.606 Y115.866 E389.02386
G1 X111.634 Y113.894 E389.16663
G1 X111.634 Y61.129 E391.86821
G1 X111.371 Y60.866 E391.88725
G1 X93.606 Y60.866 E392.79683
G1 X91.634 Y58.894 E392.93960
G1 X91.634 Y36.166 E394.10330
G1 X92.083 Y36.292 F7200.000
G1 X93.792 Y34.583 E394.22704 F1200.000
G1 X156.208 Y34.583 E397.42277
G1 X157.917 Y36.292 E397.54650
G1 X157.917 Y58.708 E398.69424
G1 X156.208 Y60.417 E398.81797
G1 X138.180 Y60.417 E399.74102
G1 X137.917 Y60.680 E399.76005
G1 X137.917 Y113.708 E402.47510
G1 X136.208 Y115.417 E402.59883
G1 X113.792 Y115.417 E403.74657
G1 X112.083 Y113.708 E403.87030
G1 X112.083 Y60.680 E406.58535
G1 X111.820 Y60.417 E406.60438
G1 X93.792 Y60.417 E407.52743
G1 X92.083 Y58.708 E407.65116
G1 X92.083 Y36.352 E408.79583
G1 X92.532 Y36.478 F7200.000
G1 X93.978 Y35.032 E408.90052 F1200.000
G1 X156.022 Y35.032 E412.07722
G1 X157.468 Y36.478 E412.18192
G1 X157.468 Y58.522 E413.31062
G1 X156.022 Y59.968 E413.41532
G1 X137.731 Y59.968 E414.35182
G1 X137.468 Y60.231 E414.37086
G1 X137.468 Y113.522 E417.09937
G1 X136.022 Y114.968 E417.20406
G1 X113.978 Y114.968 E418.33276
G1 X112.532 Y113.522 E418.43746
G1 X112.532 Y60.231 E421.16597
G1 X112.269 Y59.968 E421.18500
G1 X93.978 Y59.968 E422.12151
G1 X92.532 Y58.522 E422.22621
G1 X92.532 Y36.538 E423.35183
G1 X92.980 Y36.663 F7200.000
G1 X94.163 Y35.480 E423.43750 F1200.000
G1 X155.837 Y35.480 E426.59516
G1 X157.020 Y36.663 E426.68082
G1 X157.020 Y58.337 E427.79048
G1 X155.837 Y59.520 E427.87614
G1 X137.282 Y59.520 E428.82611
G1 X137.020 Y59.782 E428.84515
G1 X137.020 Y113.337 E431.58711
G1 X135.837 Y114.520 E431.67278
G1 X114.163 Y114.520 E432.78244
G1 X112.980 Y113.337 E432.86810
G1 X112.980 Y59.782 E435.61007
G1 X112.718 Y59.520 E435.62910
G1 X94.163 Y59.520 E436.57907
G1 X92.980 Y58.337 E436.66473
