; generated by Slic3r 1.2.9 on 2018-04-22 at 12:41:21

; external perimeters extrusion width = 0.40mm
; perimeters extrusion width = 0.58mm
; infill extrusion width = 0.58mm
; solid infill extrusion width = 0.58mm
; top infill extrusion width = 0.58mm

M104 S215 ; set temperature
;G28 ; home all axes
G1 Z10 F5000 ; lift nozzle

M104 S215 ; set temperature
M116 ; wait for temperature to be reached
G21 ; set units to millimeters
G90 ; use absolute coordinates
M82 ; use absolute distances for extrusion
G92 E0
G1 E-2.00000 F3600.00000
G92 E0
G1 Z0.280 F7200.000
G1 X80.677 Y30.601 F7200.000
G1 E2.00000 F3600.00000
G1 X82.572 Y27.586 E2.17858 F1200.000
G1 X85.090 Y25.069 E2.35717
G1 X88.105 Y23.175 E2.53575
G1 X91.467 Y22.000 E2.71433
G1 X95.000 Y21.602 E2.89267
G1 X155.000 Y21.602 E5.90198
G1 X158.538 Y22.001 E6.08056
G1 X161.899 Y23.177 E6.25915
G1 X164.914 Y25.072 E6.43773
G1 X167.431 Y27.590 E6.61632
G1 X169.325 Y30.605 E6.79490
G1 X170.500 Y33.967 E6.97348
G1 X170.898 Y37.500 E7.15182
G1 X170.898 Y57.500 E8.15492
G1 X170.499 Y61.038 E8.33351
G1 X169.940 Y62.933 E8.43258
G1 X149.940 Y117.933 E11.36783
G1 X148.357 Y121.122 E11.54641
G1 X146.103 Y123.878 E11.72500
G1 X143.292 Y126.064 E11.90358
G1 X140.065 Y127.569 E12.08216
G1 X135.000 Y128.398 E12.33957
G1 X115.000 Y128.398 E13.34267
G1 X111.462 Y127.999 E13.52126
G1 X108.101 Y126.823 E13.69984
G1 X105.086 Y124.928 E13.87842
G1 X102.569 Y122.410 E14.05701
G1 X100.060 Y117.933 E14.31442
G1 X80.060 Y62.933 E17.24967
G1 X79.225 Y59.471 E17.42825
G1 X79.102 Y57.500 E17.52732
G1 X79.102 Y37.500 E18.53042
G1 X79.501 Y33.962 E18.70901
G1 X80.658 Y30.658 E18.88458
G1 X81.125 Y30.706 F7200.000
G1 X83.017 Y27.749 E19.06062 F1200.000
G1 X85.527 Y25.296 E19.23666
G1 X88.526 Y23.473 E19.41269
G1 X91.860 Y22.374 E19.58873
G1 X95.000 Y22.051 E19.74706
G1 X155.000 Y22.051 E22.75636
G1 X158.487 Y22.450 E22.93240
G1 X161.794 Y23.625 E23.10844
G1 X164.751 Y25.517 E23.28447
G1 X167.204 Y28.027 E23.46051
G1 X169.027 Y31.026 E23.63655
G1 X170.126 Y34.360 E23.81258
G1 X170.449 Y37.500 E23.97091
G1 X170.449 Y57.500 E24.97401
G1 X170.050 Y60.987 E25.15005
G1 X169.519 Y62.780 E25.24382
G1 X149.519 Y117.780 E28.17907
G1 X147.952 Y120.920 E28.35510
G1 X145.717 Y123.627 E28.53114
G1 X142.929 Y125.759 E28.70718
G1 X139.732 Y127.206 E28.88321
G1 X135.000 Y127.949 E29.12344
G1 X115.000 Y127.949 E30.12654
G1 X111.513 Y127.550 E30.30258
G1 X108.206 Y126.375 E30.47862
G1 X105.249 Y124.483 E30.65465
G1 X102.796 Y121.973 E30.83069
G1 X100.481 Y117.780 E31.07092
G1 X80.481 Y62.780 E34.00617
G1 X79.664 Y59.366 E34.18221
G1 X79.551 Y57.500 E34.27597
G1 X79.551 Y37.500 E35.27907
G1 X79.950 Y34.013 E35.45511
G1 X81.105 Y30.762 E35.62814
G1 X82.209 Y32.202 F7200.000
G1 X89.702 Y24.709 E36.15959 F1200.000
G1 X160.298 Y24.709 E39.70035
G1 X167.791 Y32.202 E40.23180
G1 X167.791 Y62.798 E41.76636
G1 X160.298 Y70.291 E42.29781
G1 X148.054 Y70.291 E42.91193
G1 X147.791 Y70.554 E42.93058
G1 X147.791 Y117.798 E45.30013
G1 X140.298 Y125.291 E45.83159
G1 X109.702 Y125.291 E47.36614
G1 X102.209 Y117.798 E47.89759
G1 X102.209 Y70.554 E50.26715
G1 X101.946 Y70.291 E50.28579
G1 X89.702 Y70.291 E50.89992
G1 X82.209 Y62.798 E51.43137
G1 X82.209 Y32.262 E52.96291
G1 X82.658 Y32.388 F7200.000
G1 X89.888 Y25.158 E53.47572 F1200.000
G1 X160.112 Y25.158 E56.99783
G1 X167.342 Y32.388 E57.51064
G1 X167.342 Y62.612 E59.02655
G1 X160.112 Y69.842 E59.53935
G1 X147.605 Y69.842 E60.16666
G1 X147.342 Y70.105 E60.18531
G1 X147.342 Y117.612 E62.56804
G1 X140.112 Y124.842 E63.08085
G1 X109.888 Y124.842 E64.59676
G1 X102.658 Y117.612 E65.10956
G1 X102.658 Y70.105 E67.49230
G1 X102.395 Y69.842 E67.51095
G1 X89.888 Y69.842 E68.13826
G1 X82.658 Y62.612 E68.65106
G1 X82.658 Y32.448 E70.16396
G1 X83.107 Y32.574 F7200.000
G1 X90.074 Y25.607 E70.65812 F1200.000
G1 X159.926 Y25.607 E74.16158
G1 X166.893 Y32.574 E74.65574
G1 X166.893 Y62.426 E76.15300
G1 X159.926 Y69.393 E76.64716
G1 X147.156 Y69.393 E77.28765
G1 X146.893 Y69.656 E77.30630
G1 X146.893 Y117.426 E79.70222
G1 X139.926 Y124.393 E80.19638
G1 X110.074 Y124.393 E81.69364
G1 X103.107 Y117.426 E82.18780
G1 X103.107 Y69.656 E84.58372
G1 X102.844 Y69.393 E84.60237
G1 X90.074 Y69.393 E85.24286
G1 X83.107 Y62.426 E85.73702
G1 X83.107 Y32.634 E87.23127
G1 X83.556 Y32.760 F7200.000
G1 X90.260 Y26.056 E87.70679 F1200.000
G1 X159.740 Y26.056 E91.19160
G1 X166.444 Y32.760 E91.66711
G1 X166.444 Y62.240 E93.14573
G1 X159.740 Y68.944 E93.62124
G1 X146.707 Y68.944 E94.27492
G1 X146.444 Y69.207 E94.29356
G1 X146.444 Y117.240 E96.70267
G1 X139.740 Y123.944 E97.17818
G1 X110.260 Y123.944 E98.65680
G1 X103.556 Y117.240 E99.13231
G1 X103.556 Y69.207 E101.54142
G1 X103.293 Y68.944 E101.56006
G1 X90.260 Y68.944 E102.21374
G1 X83.556 Y62.240 E102.68925
G1 X83.556 Y32.820 E104.16486
G1 X84.004 Y32.945 F7200.000
G1 X90.445 Y26.504 E104.62172 F1200.000
G1 X159.555 Y26.504 E108.08789
G1 X165.996 Y32.945 E108.54475
G1 X165.996 Y62.055 E110.00472
G1 X159.555 Y68.496 E110.46158
G1 X146.258 Y68.496 E111.12845
G1 X145.996 Y68.758 E111.14709
G1 X145.996 Y117.055 E113.56939
G1 X139.555 Y123.496 E114.02625
G1 X110.445 Y123.496 E115.48622
G1 X104.004 Y117.055 E115.94308
G1 X104.004 Y68.758 E118.36537
G1 X103.742 Y68.496 E118.38402
G1 X90.445 Y68.496 E119.05089
G1 X84.004 Y62.055 E119.50775
G1 X84.004 Y33.005 E120.96471
G1 X84.453 Y33.131 F7200.000
G1 X90.631 Y26.953 E121.40292 F1200.000
G1 X159.369 Y26.953 E124.85045
G1 X165.547 Y33.131 E125.28866
G1 X165.547 Y61.869 E126.72998
G1 X159.369 Y68.047 E127.16820
G1 X145.810 Y68.047 E127.84825
G1 X145.547 Y68.310 E127.86689
G1 X145.547 Y116.869 E130.30237
G1 X139.369 Y123.047 E130.74059
G1 X110.631 Y123.047 E132.18191
G1 X104.453 Y116.869 E132.62012
G1 X104.453 Y68.310 E135.05560
G1 X104.190 Y68.047 E135.07425
G1 X90.631 Y68.047 E135.75430
G1 X84.453 Y61.869 E136.19252
G1 X84.453 Y33.191 E137.63083
G1 X84.902 Y33.317 F7200.000
G1 X90.817 Y27.402 E138.05039 F1200.000
G1 X159.183 Y27.402 E141.47927
G1 X165.098 Y33.317 E141.89884
G1 X165.098 Y61.683 E143.32151
G1 X159.183 Y67.598 E143.74108
G1 X145.361 Y67.598 E144.43431
G1 X145.098 Y67.861 E144.45296
G1 X145.098 Y116.683 E146.90163
G1 X139.183 Y122.598 E147.32119
G1 X110.817 Y122.598 E148.74386
G1 X104.902 Y116.683 E149.16343
G1 X104.902 Y67.861 E151.61210
G1 X104.639 Y67.598 E151.63075
G1 X90.817 Y67.598 E152.32398
G1 X84.902 Y61.683 E152.74355
G1 X84.902 Y33.377 E154.16321
G1 X85.351 Y33.503 F7200.000
G1 X91.003 Y27.851 E154.56413 F1200.000
G1 X158.997 Y27.851 E157.97436
G1 X164.649 Y33.503 E158.37528
G1 X164.649 Y61.497 E159.77930
G1 X158.997 Y67.149 E160.18023
G1 X144.912 Y67.149 E160.88665
G1 X144.649 Y67.412 E160.90530
G1 X144.649 Y116.497 E163.36715
G1 X138.997 Y122.149 E163.76807
G1 X111.003 Y122.149 E165.17209
G1 X105.351 Y116.497 E165.57301
G1 X105.351 Y67.412 E168.03486
G1 X105.088 Y67.149 E168.05351
G1 X91.003 Y67.149 E168.75993
G1 X85.351 Y61.497 E169.16085
G1 X85.351 Y33.563 E170.56187
G1 X85.800 Y33.689 F7200.000
G1 X91.189 Y28.300 E170.94414 F1200.000
G1 X158.811 Y28.300 E174.33572
G1 X164.200 Y33.689 E174.71799
G1 X164.200 Y61.311 E176.10337
G1 X158.811 Y66.700 E176.48564
G1 X144.463 Y66.700 E177.20525
G1 X144.200 Y66.963 E177.22390
G1 X144.200 Y116.311 E179.69894
G1 X138.811 Y121.700 E180.08121
G1 X111.189 Y121.700 E181.46658
G1 X105.800 Y116.311 E181.84886
G1 X105.800 Y66.963 E184.32389
G1 X105.537 Y66.700 E184.34254
G1 X91.189 Y66.700 E185.06215
G1 X85.800 Y61.311 E185.44442
G1 X85.800 Y33.749 E186.82679
G1 X86.248 Y33.875 F7200.000
G1 X91.375 Y28.748 E187.19042 F1200.000
G1 X158.625 Y28.748 E190.56335
G1 X163.752 Y33.875 E190.92697
G1 X163.752 Y61.125 E192.29370
G1 X158.625 Y66.252 E192.65733
G1 X144.014 Y66.252 E193.39012
G1 X143.752 Y66.514 E193.40877
G1 X143.752 Y116.125 E195.89699
G1 X138.625 Y121.252 E196.26062
G1 X111.375 Y121.252 E197.62735
G1 X106.248 Y116.125 E197.99097
G1 X106.248 Y66.514 E200.47920
G1 X105.986 Y66.252 E200.49784
G1 X91.375 Y66.252 E201.23064
G1 X86.248 Y61.125 E201.59426
G1 X86.248 Y33.935 E202.95798
G1 X86.697 Y34.061 F7200.000
G1 X91.561 Y29.197 E203.30296 F1200.000
G1 X158.439 Y29.197 E206.65724
G1 X163.303 Y34.061 E207.00222
G1 X163.303 Y60.939 E208.35030
G1 X158.439 Y65.803 E208.69528
G1 X143.566 Y65.803 E209.44126
G1 X143.303 Y66.066 E209.45991
G1 X143.303 Y115.939 E211.96132
G1 X138.439 Y120.803 E212.30630
G1 X111.561 Y120.803 E213.65438
G1 X106.697 Y115.939 E213.99936
G1 X106.697 Y66.066 E216.50076
G1 X106.434 Y65.803 E216.51941
G1 X91.561 Y65.803 E217.26539
G1 X86.697 Y60.939 E217.61037
G1 X86.697 Y34.121 E218.95544
G1 X87.146 Y34.247 F7200.000
G1 X91.747 Y29.646 E219.28177 F1200.000
G1 X158.253 Y29.646 E222.61741
G1 X162.854 Y34.247 E222.94374
G1 X162.854 Y60.753 E224.27317
G1 X158.253 Y65.354 E224.59950
G1 X143.117 Y65.354 E225.35867
G1 X142.854 Y65.617 E225.37732
G1 X142.854 Y115.753 E227.89191
G1 X138.253 Y120.354 E228.21824
G1 X111.747 Y120.354 E229.54768
G1 X107.146 Y115.753 E229.87401
G1 X107.146 Y65.617 E232.38860
G1 X106.883 Y65.354 E232.40725
G1 X91.747 Y65.354 E233.16641
G1 X87.146 Y60.753 E233.49274
G1 X87.146 Y34.307 E234.81917
G1 X87.595 Y34.433 F7200.000
G1 X91.933 Y30.095 E235.12685 F1200.000
G1 X158.067 Y30.095 E238.44384
G1 X162.405 Y34.433 E238.75153
G1 X162.405 Y60.567 E240.06231
G1 X158.067 Y64.905 E240.36999
G1 X142.668 Y64.905 E241.14235
G1 X142.405 Y65.168 E241.16099
G1 X142.405 Y115.567 E243.68877
G1 X138.067 Y119.905 E243.99646
G1 X111.933 Y119.905 E245.30724
G1 X107.595 Y115.567 E245.61493
G1 X107.595 Y65.168 E248.14271
G1 X107.332 Y64.905 E248.16135
G1 X91.933 Y64.905 E248.93370
G1 X87.595 Y60.567 E249.24139
G1 X87.595 Y34.493 E250.54916
G1 X88.044 Y34.619 F7200.000
G1 X92.119 Y30.544 E250.83820 F1200.000
G1 X157.881 Y30.544 E254.13654
G1 X161.956 Y34.619 E254.42558
G1 X161.956 Y60.381 E255.71772
G1 X157.881 Y64.456 E256.00675
G1 X142.219 Y64.456 E256.79229
G1 X141.956 Y64.719 E256.81094
G1 X141.956 Y115.381 E259.35190
G1 X137.881 Y119.456 E259.64094
G1 X112.119 Y119.456 E260.93308
G1 X108.044 Y115.381 E261.22211
G1 X108.044 Y64.719 E263.76308
G1 X107.781 Y64.456 E263.78173
G1 X92.119 Y64.456 E264.56726
G1 X88.044 Y60.381 E264.85630
G1 X88.044 Y34.679 E266.14543
G1 X88.492 Y34.804 F7200.000
G1 X92.304 Y30.992 E266.41582 F1200.000
G1 X157.696 Y30.992 E269.69551
G1 X161.508 Y34.804 E269.96590
G1 X161.508 Y60.196 E271.23939
G1 X157.696 Y64.008 E271.50978
G1 X141.770 Y64.008 E272.30850
G1 X141.508 Y64.270 E272.32715
G1 X141.508 Y115.196 E274.88130
G1 X137.696 Y119.008 E275.15169
G1 X112.304 Y119.008 E276.42518
G1 X108.492 Y115.196 E276.69557
G1 X108.492 Y64.270 E279.24972
G1 X108.230 Y64.008 E279.26837
G1 X92.304 Y64.008 E280.06709
G1 X88.492 Y60.196 E280.33748
G1 X88.492 Y34.864 E281.60796
G1 X88.941 Y34.990 F7200.000
G1 X92.490 Y31.441 E281.85970 F1200.000
G1 X157.510 Y31.441 E285.12075
G1 X161.059 Y34.990 E285.37249
G1 X161.059 Y60.010 E286.62733
G1 X157.510 Y63.559 E286.87907
G1 X141.322 Y63.559 E287.69098
G1 X141.059 Y63.822 E287.70963
G1 X141.059 Y115.010 E290.27697
G1 X137.510 Y118.559 E290.52871
G1 X112.490 Y118.559 E291.78355
G1 X108.941 Y115.010 E292.03529
G1 X108.941 Y63.822 E294.60263
G1 X108.678 Y63.559 E294.62128
G1 X92.490 Y63.559 E295.43319
G1 X88.941 Y60.010 E295.68493
G1 X88.941 Y35.050 E296.93676
G1 X89.390 Y35.176 F7200.000
G1 X92.676 Y31.890 E297.16985 F1200.000
G1 X157.324 Y31.890 E300.41225
G1 X160.610 Y35.176 E300.64535
G1 X160.610 Y59.824 E301.88154
G1 X157.324 Y63.110 E302.11464
G1 X140.873 Y63.110 E302.93973
G1 X140.610 Y63.373 E302.95838
G1 X140.610 Y114.824 E305.53890
G1 X137.324 Y118.110 E305.77200
G1 X112.676 Y118.110 E307.00819
G1 X109.390 Y114.824 E307.24128
G1 X109.390 Y63.373 E309.82181
G1 X109.127 Y63.110 E309.84045
G1 X92.676 Y63.110 E310.66555
G1 X89.390 Y59.824 E310.89864
G1 X89.390 Y35.236 E312.13183
G1 X89.839 Y35.362 F7200.000
G1 X92.862 Y32.339 E312.34627 F1200.000
G1 X157.138 Y32.339 E315.57003
G1 X160.161 Y35.362 E315.78447
G1 X160.161 Y59.638 E317.00202
G1 X157.138 Y62.661 E317.21647
G1 X140.424 Y62.661 E318.05475
G1 X140.161 Y62.924 E318.07340
G1 X140.161 Y114.638 E320.66710
G1 X137.138 Y117.661 E320.88155
G1 X112.862 Y117.661 E322.09910
G1 X109.839 Y114.638 E322.31354
G1 X109.839 Y62.924 E324.90725
G1 X109.576 Y62.661 E324.92590
G1 X92.862 Y62.661 E325.76418
G1 X89.839 Y59.638 E325.97863
G1 X89.839 Y35.422 E327.19317
G1 X90.288 Y35.548 F7200.000
G1 X93.048 Y32.788 E327.38896 F1200.000
G1 X156.952 Y32.788 E330.59407
G1 X159.712 Y35.548 E330.78987
G1 X159.712 Y59.452 E331.98877
G1 X156.952 Y62.212 E332.18457
G1 X139.975 Y62.212 E333.03603
G1 X139.712 Y62.475 E333.05468
G1 X139.712 Y114.452 E335.66157
G1 X136.952 Y117.212 E335.85737
G1 X113.048 Y117.212 E337.05627
G1 X110.288 Y114.452 E337.25207
G1 X110.288 Y62.475 E339.85897
G1 X110.025 Y62.212 E339.87761
G1 X93.048 Y62.212 E340.72908
G1 X90.288 Y59.452 E340.92488
G1 X90.288 Y35.608 E342.12077
G1 X90.736 Y35.734 F7200.000
G1 X93.234 Y33.236 E342.29792 F1200.000
G1 X156.766 Y33.236 E345.48438
G1 X159.264 Y35.734 E345.66153
G1 X159.264 Y59.266 E346.84178
G1 X156.766 Y61.764 E347.01893
G1 X139.526 Y61.764 E347.88359
G1 X139.264 Y62.026 E347.90223
G1 X139.264 Y114.266 E350.52231
G1 X136.766 Y116.764 E350.69946
G1 X113.234 Y116.764 E351.87972
G1 X110.736 Y114.266 E352.05687
G1 X110.736 Y62.026 E354.67695
G1 X110.474 Y61.764 E354.69560
G1 X93.234 Y61.764 E355.56025
G1 X90.736 Y59.266 E355.73740
G1 X90.736 Y35.794 E356.91464
G1 X91.185 Y35.920 F7200.000
G1 X93.420 Y33.685 E357.07315 F1200.000
G1 X156.580 Y33.685 E360.24096
G1 X158.815 Y35.920 E360.39946
G1 X158.815 Y59.080 E361.56107
G1 X156.580 Y61.315 E361.71957
G1 X139.078 Y61.315 E362.59741
G1 X138.815 Y61.578 E362.61605
G1 X138.815 Y114.080 E365.24932
G1 X136.580 Y116.315 E365.40782
G1 X113.420 Y116.315 E366.56943
G1 X111.185 Y114.080 E366.72793
G1 X111.185 Y61.578 E369.36120
G1 X110.922 Y61.315 E369.37985
G1 X93.420 Y61.315 E370.25768
G1 X91.185 Y59.080 E370.41619
G1 X91.185 Y35.980 E371.57478
G1 X91.634 Y36.106 F7200.000
G1 X93.606 Y34.134 E371.71464 F1200.000
G1 X156.394 Y34.134 E374.86380
G1 X158.366 Y36.106 E375.00366
G1 X158.366 Y58.894 E376.14662
G1 X156.394 Y60.866 E376.28647
G1 X138.629 Y60.866 E377.17750
G1 X138.366 Y61.129 E377.19614
G1 X138.366 Y113.894 E379.84260
G1 X136.394 Y115.866 E379.98245
G1 X113.606 Y115.866 E381.12541
G1 X111.634 Y113.894 E381.26527
G1 X111.634 Y61.129 E383.91172
G1 X111.371 Y60.866 E383.93037
G1 X93.606 Y60.866 E384.82139
G1 X91.634 Y58.894 E384.96124
G1 X91.634 Y36.166 E386.10119
G1 X92.083 Y36.292 F7200.000
G1 X93.792 Y34.583 E386.22240 F1200.000
G1 X156.208 Y34.583 E389.35292
G1 X157.917 Y36.292 E389.47413
G1 X157.917 Y58.708 E390.59844
G1 X156.208 Y60.417 E390.71965
G1 X138.180 Y60.417 E391.62385
G1 X137.917 Y60.680 E391.64250
G1 X137.917 Y113.708 E394.30214
G1 X136.208 Y115.417 E394.42335
G1 X113.792 Y115.417 E395.54766
G1 X112.083 Y113.708 E395.66887
G1 X112.083 Y60.680 E398.32850
G1 X111.820 Y60.417 E398.34715
G1 X93.792 Y60.417 E399.25136
G1 X92.083 Y58.708 E399.37257
G1 X92.083 Y36.352 E400.49387
G1 X92.532 Y36.478 F7200.000
G1 X93.978 Y35.032 E400.59643 F1200.000
G1 X156.022 Y35.032 E403.70830
G1 X157.468 Y36.478 E403.81086
G1 X157.468 Y58.522 E404.91652
G1 X156.022 Y59.968 E405.01909
G1 X137.731 Y59.968 E405.93648
G1 X137.468 Y60.231 E405.95513
G1 X137.468 Y113.522 E408.62795
G1 X136.022 Y114.968 E408.73051
G1 X113.978 Y114.968 E409.83618
G1 X112.532 Y113.522 E409.93874
G1 X112.532 Y60.231 E412.61156
G1 X112.269 Y59.968 E412.63021
G1 X93.978 Y59.968 E413.54760
G1 X92.532 Y58.522 E413.65016
G1 X92.532 Y36.538 E414.75282
G1 X92.980 Y36.663 F7200.000
G1 X94.163 Y35.480 E414.83673 F1200.000
G1 X155.837 Y35.480 E417.92995
G1 X157.020 Y36.663 E418.01386
G1 X157.020 Y58.337 E419.10088
G1 X155.837 Y59.520 E419.18479
G1 X137.282 Y59.520 E420.11537
G1 X137.020 Y59.782 E420.13402
G1 X137.020 Y113.337 E422.82003
G1 X135.837 Y114.520 E422.90394
G1 X114.163 Y114.520 E423.99096
G1 X112.980 Y113.337 E424.07487
G1 X112.980 Y59.782 E426.76088
G1 X112.718 Y59.520 E426.77953
G1 X94.163 Y59.520 E427.71011
G1 X92.980 Y58.337 E427.79402
