; generated by Slic3r 1.2.9 on 2018-04-25 at 19:38:25

; external perimeters extrusion width = 0.40mm
; perimeters extrusion width = 0.58mm
; infill extrusion width = 0.58mm
; solid infill extrusion width = 0.58mm
; top infill extrusion width = 0.58mm

M104 S210 ; set temperature
;G28 ; home all axes
G1 Z10 F5000 ; lift nozzle

M104 S210 ; set temperature
M116 ; wait for temperature to be reached
G21 ; set units to millimeters
G90 ; use absolute coordinates
M82 ; use absolute distances for extrusion
G92 E0
G1 E-2.00000 F3600.00000
G92 E0
G1 Z0.280 F7200.000
G1 X78.781 Y33.935 F7200.000
G1 E2.00000 F3600.00000
G1 X79.216 Y32.926 E2.05511 F1200.000
G1 X81.063 Y30.631 E2.20286
G1 X83.458 Y28.915 E2.35061
G1 X86.225 Y27.903 E2.49836
G1 X88.550 Y27.652 E2.61566
G1 X160.450 Y27.652 E6.22182
G1 X163.369 Y28.051 E6.36957
G1 X166.074 Y29.216 E6.51732 F1200.000
G1 X168.156 Y30.844 E6.64986
G1 X168.296 Y30.984 E6.65979
G1 X170.078 Y33.330 E6.80754
G1 X171.167 Y36.067 E6.95529
G1 X171.488 Y38.690 E7.08783
G1 X171.488 Y66.310 E8.47311
G1 X171.089 Y69.229 E8.62086
G1 X169.924 Y71.934 E8.76861
G1 X168.296 Y74.016 E8.90115
G1 X124.016 Y118.296 E12.04193
G1 X121.670 Y120.078 E12.18968
G1 X118.933 Y121.167 E12.33743
G1 X116.310 Y121.488 E12.46998
G1 X88.690 Y121.488 E13.85526
G1 X85.771 Y121.089 E14.00301
G1 X83.066 Y119.924 E14.15076
G1 X80.984 Y118.296 E14.28330
G1 X80.844 Y118.156 E14.29323
G1 X79.062 Y115.810 E14.44098
G1 X77.973 Y113.073 E14.58873
G1 X77.652 Y110.450 E14.72127
G1 X77.652 Y38.550 E18.32742
G1 X78.051 Y35.631 E18.47517
G1 X78.758 Y33.990 E18.56481
G1 X79.170 Y34.172 F7200.000
G1 X79.663 Y33.054 E18.62607 F1200.000
G1 X81.504 Y30.834 E18.77073
G1 X83.882 Y29.202 E18.91539
G1 X86.616 Y28.282 E19.06005
G1 X88.550 Y28.101 E19.15748
G1 X160.450 Y28.101 E22.76363
G1 X163.307 Y28.499 E22.90829
G1 X165.946 Y29.663 E23.05296 F1200.000
G1 X167.838 Y31.162 E23.17403
G1 X167.978 Y31.302 E23.18396
G1 X169.717 Y33.603 E23.32862
G1 X170.760 Y36.292 E23.47328
G1 X171.039 Y38.690 E23.59436
G1 X171.039 Y66.310 E24.97964
G1 X170.641 Y69.167 E25.12431
G1 X169.477 Y71.806 E25.26897
G1 X167.978 Y73.698 E25.39004
G1 X123.698 Y117.978 E28.53083
G1 X121.397 Y119.717 E28.67549
G1 X118.708 Y120.760 E28.82015
G1 X116.310 Y121.039 E28.94122
G1 X88.690 Y121.039 E30.32651
G1 X85.833 Y120.641 E30.47117
G1 X83.194 Y119.477 E30.61583
G1 X81.302 Y117.978 E30.73691
G1 X81.162 Y117.838 E30.74684
G1 X79.423 Y115.537 E30.89150
G1 X78.380 Y112.848 E31.03616
G1 X78.101 Y110.450 E31.15724
G1 X78.101 Y38.550 E34.76339
G1 X78.499 Y35.693 E34.90805
G1 X79.146 Y34.227 E34.98844
G1 F5760
G1 X79.663 Y33.054 E34.22759
G1 F5760
G1 X80.888 Y31.577 E33.08844
G1 E32.98844 F3600.00000
G92 E0
G1 X84.286 Y36.784 F7200.000
G1 E2.00000 F3600.00000
G1 X86.784 Y34.286 E2.17715 F1200.000
G1 X161.298 Y34.286 E5.91441
G1 X162.865 Y34.936 E5.99949
G1 X164.204 Y36.275 E6.09449 F1200.000
G1 X164.854 Y37.842 E6.17956
G1 X164.854 Y67.158 E7.64991
G1 X164.204 Y68.725 E7.73498
G1 X162.865 Y70.064 E7.82998
G1 X161.298 Y70.714 E7.91506
G1 X120.976 Y70.714 E9.93739
G1 X120.714 Y70.976 E9.95604
G1 X120.714 Y111.298 E11.97837
G1 X120.064 Y112.865 E12.06344
G1 X118.725 Y114.204 E12.15844
G1 X117.158 Y114.854 E12.24351
G1 X87.842 Y114.854 E13.71387
G1 X86.275 Y114.204 E13.79894
G1 X84.936 Y112.865 E13.89394
G1 X84.286 Y111.298 E13.97901
G1 X84.286 Y36.844 E17.71327
G1 X84.735 Y36.970 F7200.000
G1 X86.970 Y34.735 E17.87177 F1200.000
G1 X161.209 Y34.735 E21.59523
G1 X162.611 Y35.316 E21.67135 F1200.000
G1 X163.824 Y36.529 E21.75739
G1 X164.405 Y37.931 E21.83351
G1 X164.405 Y67.069 E23.29491
G1 X163.824 Y68.471 E23.37103
G1 X162.611 Y69.684 E23.45707
G1 X161.209 Y70.265 E23.53319
G1 X120.528 Y70.265 E25.57355
G1 X120.265 Y70.528 E25.59220
G1 X120.265 Y111.209 E27.63257
G1 X119.684 Y112.611 E27.70868
G1 X118.471 Y113.824 E27.79473
G1 X117.069 Y114.405 E27.87085
G1 X87.931 Y114.405 E29.33225
G1 X86.529 Y113.824 E29.40836
G1 X85.316 Y112.611 E29.49441
G1 X84.735 Y111.209 E29.57053
G1 X84.735 Y37.030 E33.29098
G1 X85.184 Y37.156 F7200.000
G1 X87.156 Y35.184 E33.43083 F1200.000
G1 X161.120 Y35.184 E37.14049
G1 X162.357 Y35.696 E37.20766
G1 X163.444 Y36.783 E37.28475 F1200.000
G1 X163.956 Y38.020 E37.35191
G1 X163.956 Y66.980 E38.80435
G1 X163.444 Y68.217 E38.87152
G1 X162.357 Y69.304 E38.94861
G1 X161.120 Y69.816 E39.01577
G1 X120.079 Y69.816 E41.07417
G1 X119.816 Y70.079 E41.09281
G1 X119.816 Y111.120 E43.15121
G1 X119.304 Y112.357 E43.21837
G1 X118.217 Y113.444 E43.29546
G1 X116.980 Y113.956 E43.36263
G1 X88.020 Y113.956 E44.81507
G1 X86.783 Y113.444 E44.88223
G1 X85.696 Y112.357 E44.95932
G1 X85.184 Y111.120 E45.02649
G1 X85.184 Y37.216 E48.73314
G1 X85.633 Y37.342 F7200.000
G1 X87.342 Y35.633 E48.85435 F1200.000
G1 X161.030 Y35.633 E52.55020
G1 X162.102 Y36.077 E52.60841 F1200.000
G1 X163.063 Y37.038 E52.67655
G1 X163.507 Y38.110 E52.73475
G1 X163.507 Y66.890 E54.17824
G1 X163.063 Y67.962 E54.23645
G1 X162.102 Y68.923 E54.30459
G1 X161.030 Y69.367 E54.36279
G1 X119.630 Y69.367 E56.43922
G1 X119.367 Y69.630 E56.45787
G1 X119.367 Y111.030 E58.53430
G1 X118.923 Y112.102 E58.59251
G1 X117.962 Y113.063 E58.66065
G1 X116.890 Y113.507 E58.71885
G1 X88.110 Y113.507 E60.16234
G1 X87.038 Y113.063 E60.22055
G1 X86.077 Y112.102 E60.28869
G1 X85.633 Y111.030 E60.34689
G1 X85.633 Y37.402 E64.03974
G1 X86.082 Y37.528 F7200.000
G1 X87.528 Y36.082 E64.14230 F1200.000
G1 X160.941 Y36.082 E67.82436
G1 X161.848 Y36.457 E67.87361
G1 X162.683 Y37.292 E67.93280 F1200.000
G1 X163.058 Y38.199 E67.98205
G1 X163.058 Y66.801 E69.41658
G1 X162.683 Y67.708 E69.46583
G1 X161.848 Y68.543 E69.52502
G1 X160.941 Y68.918 E69.57427
G1 X119.181 Y68.918 E71.66873
G1 X118.918 Y69.181 E71.68738
G1 X118.918 Y110.941 E73.78184
G1 X118.543 Y111.848 E73.83109
G1 X117.708 Y112.683 E73.89027
G1 X116.801 Y113.058 E73.93952
G1 X88.199 Y113.058 E75.37406
G1 X87.292 Y112.683 E75.42331
G1 X86.457 Y111.848 E75.48249
G1 X86.082 Y110.941 E75.53175
G1 X86.082 Y37.588 E79.21079
G1 X86.530 Y37.713 F7200.000
G1 X87.713 Y36.530 E79.29471 F1200.000
G1 X160.852 Y36.530 E82.96297
G1 X161.594 Y36.838 E83.00326 F1200.000
G1 X162.302 Y37.546 E83.05349
G1 X162.610 Y38.288 E83.09379
G1 X162.610 Y66.712 E84.51937
G1 X162.302 Y67.454 E84.55966
G1 X161.594 Y68.162 E84.60989
G1 X160.852 Y68.470 E84.65019
G1 X118.732 Y68.470 E86.76268
G1 X118.470 Y68.732 E86.78133
G1 X118.470 Y110.852 E88.89382
G1 X118.162 Y111.594 E88.93412
G1 X117.454 Y112.302 E88.98435
G1 X116.712 Y112.610 E89.02464
G1 X88.288 Y112.610 E90.45022
G1 X87.546 Y112.302 E90.49052
G1 X86.838 Y111.594 E90.54075
G1 X86.530 Y110.852 E90.58105
G1 X86.530 Y37.773 E94.24629
G1 X86.979 Y37.899 F7200.000
G1 X87.899 Y36.979 E94.31156 F1200.000
G1 X160.762 Y36.979 E97.96602
G1 X161.340 Y37.218 E97.99736
G1 X161.922 Y37.800 E98.03863 F1200.000
G1 X162.161 Y38.378 E98.06997
G1 X162.161 Y66.622 E99.48660
G1 X161.922 Y67.200 E99.51794
G1 X161.340 Y67.782 E99.55921
G1 X160.762 Y68.021 E99.59055
G1 X118.284 Y68.021 E101.72108
G1 X118.021 Y68.284 E101.73973
G1 X118.021 Y110.762 E103.87025
G1 X117.782 Y111.340 E103.90160
G1 X117.200 Y111.922 E103.94287
G1 X116.622 Y112.161 E103.97421
G1 X88.378 Y112.161 E105.39084
G1 X87.800 Y111.922 E105.42218
G1 X87.218 Y111.340 E105.46345
G1 X86.979 Y110.762 E105.49479
G1 X86.979 Y37.959 E109.14624
G1 X87.428 Y38.085 F7200.000
G1 X88.085 Y37.428 E109.19286 F1200.000
G1 X160.673 Y37.428 E112.83351
G1 X161.086 Y37.599 E112.85590 F1200.000
G1 X161.541 Y38.054 E112.88822
G1 X161.712 Y38.467 E112.91060
G1 X161.712 Y66.533 E114.31827
G1 X161.541 Y66.946 E114.34066
G1 X161.086 Y67.401 E114.37298
G1 X160.673 Y67.572 E114.39537
G1 X117.835 Y67.572 E116.54392
G1 X117.572 Y67.835 E116.56257
G1 X117.572 Y110.673 E118.71113
G1 X117.401 Y111.086 E118.73352
G1 X116.946 Y111.541 E118.76584
G1 X116.533 Y111.712 E118.78822
G1 X88.467 Y111.712 E120.19589
G1 X88.054 Y111.541 E120.21828
G1 X87.599 Y111.086 E120.25060
G1 X87.428 Y110.673 E120.27298
G1 X87.428 Y38.145 E123.91063
G1 X87.877 Y38.271 F7200.000
G1 X88.271 Y37.877 E123.93860 F1200.000
G1 X160.584 Y37.877 E127.56546
G1 X160.831 Y37.979 E127.57889
G1 X161.161 Y38.309 E127.60225 F1200.000
G1 X161.263 Y38.556 E127.61568
G1 X161.263 Y66.444 E129.01440
G1 X161.161 Y66.691 E129.02783
G1 X160.831 Y67.021 E129.05119
G1 X160.584 Y67.123 E129.06463
G1 X117.386 Y67.123 E131.23122
G1 X117.123 Y67.386 E131.24986
G1 X117.123 Y110.584 E133.41645
G1 X117.021 Y110.831 E133.42989
G1 X116.691 Y111.161 E133.45325
G1 X116.444 Y111.263 E133.46668
G1 X88.556 Y111.263 E134.86540
G1 X88.309 Y111.161 E134.87883
G1 X87.979 Y110.831 E134.90219
G1 X87.877 Y110.584 E134.91562
G1 X87.877 Y38.331 E138.53947
G1 X88.326 Y38.457 F7200.000
G1 X88.457 Y38.326 E138.54879 F1200.000
G1 X160.495 Y38.326 E142.16185
G1 X160.577 Y38.360 E142.16632 F1200.000
G1 X160.780 Y38.563 E142.18073
G1 X160.814 Y38.645 E142.18521
G1 X160.814 Y66.355 E143.57497
G1 X160.780 Y66.437 E143.57945
G1 X160.577 Y66.640 E143.59385
G1 X160.495 Y66.674 E143.59833
G1 X116.937 Y66.674 E145.78295
G1 X116.674 Y66.937 E145.80160
G1 X116.674 Y110.495 E147.98622
G1 X116.640 Y110.577 E147.99070
G1 X116.437 Y110.780 E148.00511
G1 X116.355 Y110.814 E148.00959
G1 X88.645 Y110.814 E149.39935
G1 X88.563 Y110.780 E149.40383
G1 X88.360 Y110.577 E149.41823
G1 X88.326 Y110.495 E149.42271
G1 X88.326 Y38.517 E153.03275
G1 X88.750 Y38.750 F7200.000
G1 X160.367 Y38.750 E155.75324 F525.000
G1 X160.390 Y38.773 E155.75447
G1 X160.390 Y66.227 E156.79736 F525.000
G1 X160.367 Y66.250 E156.79859
G1 X116.250 Y66.250 E158.47444
G1 X116.250 Y110.367 E160.15030
G1 X116.227 Y110.390 E160.15152
G1 X88.773 Y110.390 E161.19442
G1 X88.750 Y110.367 E161.19564
G1 X88.750 Y38.810 E163.91385
G1 X89.096 Y38.950 F7200.000
G1 X89.144 Y39.144 F7200.000
G1 X159.996 Y39.144 E167.46740 F1050.000
G1 X159.996 Y65.856 E168.80711
G1 X115.856 Y65.856 E171.02096 F1050.000
G1 X115.856 Y109.996 E173.23480
G1 X89.144 Y109.996 E174.57451
G1 X89.144 Y39.204 E178.12506
G1 F5760
G1 X92.344 Y39.202 E176.22506
G1 E176.12506 F3600.00000
G92 E0
G1 X89.550 Y39.550 F7200.000
G1 X128.832 Y60.003 F7200.000
G1 X143.705 Y59.577 F7200.000
G1 X149.843 Y60.592 F7200.000
G1 X153.046 Y60.197 F7200.000
G1 X154.079 Y59.939 F7200.000
G1 X159.590 Y65.450 F7200.000
G1 X158.006 Y65.407 F7200.000
G1 E2.00000 F3600.00000
G1 X115.407 Y65.407 E4.13656 F1050.000
G1 X115.407 Y109.547 E6.35041
G1 X89.593 Y109.547 E7.64510
G1 X89.593 Y39.593 E11.15363
G1 X159.547 Y39.593 E14.66217
G1 X159.547 Y65.407 E15.95686
G1 X158.066 Y65.407 E16.03113 F1050.000
G1 F5760
G1 X154.866 Y65.407 E14.13113
G1 E14.03113 F3600.00000
G92 E0
G1 X150.843 Y54.518 F7200.000
G1 E2.00000 F3600.00000
G1 X150.319 Y54.792 E2.02245 F450.000
G1 X149.745 Y54.934 E2.04490
G1 X149.155 Y54.934 E2.06735
G1 X148.581 Y54.792 E2.08980
G1 X148.057 Y54.518 E2.11225
G1 X147.615 Y54.126 E2.13470
G1 X147.279 Y53.639 E2.15715
G1 X147.070 Y53.087 E2.17960
G1 X147.001 Y52.520 E2.20129
G1 X147.069 Y51.914 E2.22444
G1 X147.279 Y51.361 E2.24692
G1 X147.615 Y50.874 E2.26937
G1 X148.057 Y50.482 E2.29182
G1 X148.581 Y50.208 E2.31427
G1 X149.155 Y50.066 E2.33672
G1 X149.745 Y50.066 E2.35917 F450.000
G1 X150.319 Y50.208 E2.38162
G1 X150.843 Y50.482 E2.40407
G1 X151.285 Y50.874 E2.42652
G1 X151.621 Y51.361 E2.44897
G1 X151.830 Y51.913 E2.47142
G1 X151.901 Y52.500 E2.49387
G1 X151.830 Y53.087 E2.51632
G1 X151.621 Y53.639 E2.53877
G1 X151.285 Y54.126 E2.56121
G1 X150.888 Y54.478 E2.58139
G1 X150.859 Y54.917 F7200.000
G1 X151.149 Y54.773 F7200.000
G1 X151.068 Y54.844 E2.58680 F450.000
G1 X150.460 Y55.164 E2.62124
G1 X149.793 Y55.328 E2.65568
G1 X149.107 Y55.328 E2.69013
G1 X148.440 Y55.164 E2.72457
G1 X147.832 Y54.844 E2.75902
G1 X147.318 Y54.389 E2.79346
G1 X146.928 Y53.824 E2.82790
G1 X146.684 Y53.182 E2.86235
G1 X146.604 Y52.521 E2.89572
G1 X146.683 Y51.821 E2.93109
G1 X146.928 Y51.176 E2.96565
G1 X147.318 Y50.611 E3.00010
G1 X147.832 Y50.156 E3.03454
G1 X148.440 Y49.836 E3.06899
G1 X149.107 Y49.672 E3.10343
G1 X149.793 Y49.672 E3.13787 F450.000
G1 X150.460 Y49.836 E3.17232
G1 X151.068 Y50.156 E3.20676
G1 X151.582 Y50.611 E3.24121
G1 X151.972 Y51.176 E3.27565
G1 X152.216 Y51.818 E3.31009
G1 X152.299 Y52.500 E3.34454
G1 X152.216 Y53.182 E3.37898
G1 X151.972 Y53.824 E3.41343
G1 X151.582 Y54.389 E3.44787
G1 X151.194 Y54.733 E3.47389
G1 X151.492 Y55.069 F7200.000
G1 X151.325 Y55.217 E3.48505 F450.000
G1 X150.620 Y55.586 E3.52496
G1 X149.848 Y55.777 E3.56487
G1 X149.052 Y55.777 E3.60478
G1 X148.280 Y55.586 E3.64469
G1 X147.575 Y55.217 E3.68460
G1 X146.979 Y54.689 E3.72451
G1 X146.527 Y54.034 E3.76442
G1 X146.245 Y53.290 E3.80433
G1 X146.152 Y52.523 E3.84307
G1 X146.244 Y51.714 E3.88391
G1 X146.527 Y50.966 E3.92404
G1 X146.979 Y50.311 E3.96395
G1 X147.575 Y49.783 E4.00386
G1 X148.280 Y49.414 E4.04377
G1 X149.052 Y49.223 E4.08368
G1 X149.848 Y49.223 E4.12359 F450.000
G1 X150.620 Y49.414 E4.16350
G1 X151.325 Y49.783 E4.20341
G1 X151.921 Y50.311 E4.24332
G1 X152.373 Y50.966 E4.28323
G1 X152.655 Y51.710 E4.32314
G1 X152.751 Y52.500 E4.36305
G1 X152.655 Y53.290 E4.40296
G1 X152.373 Y54.034 E4.44287
G1 X151.921 Y54.689 E4.48278
G1 X151.536 Y55.029 E4.50853
G1 F5760
G1 X151.325 Y55.217 E4.34087
G1 F5760
G1 X150.620 Y55.586 E3.86839
G1 F5760
G1 X149.848 Y55.777 E3.39593
G1 F5760
G1 X149.052 Y55.777 E2.92346
G1 F5760
G1 X148.537 Y55.650 E2.60853
G1 E2.50853 F3600.00000
G92 E0
G1 X126.901 Y52.500 F7200.000
G1 E2.00000 F3600.00000
G1 X126.830 Y53.087 E2.02245 F450.000
G1 X126.621 Y53.639 E2.04490
G1 X126.285 Y54.126 E2.06735
G1 X125.843 Y54.518 E2.08980
G1 X125.319 Y54.792 E2.11225
G1 X124.745 Y54.934 E2.13470
G1 X124.155 Y54.934 E2.15715
G1 X123.581 Y54.792 E2.17960
G1 X123.057 Y54.518 E2.20204
G1 X122.615 Y54.126 E2.22449
G1 X122.279 Y53.639 E2.24694
G1 X122.070 Y53.087 E2.26939
G1 X121.999 Y52.500 E2.29184
G1 X122.070 Y51.913 E2.31429
G1 X122.279 Y51.361 E2.33674
G1 X122.615 Y50.874 E2.35919
G1 X123.057 Y50.482 E2.38164
G1 X123.581 Y50.208 E2.40409
G1 X124.155 Y50.066 E2.42654
G1 X124.745 Y50.066 E2.44899 F450.000
G1 X125.319 Y50.208 E2.47144
G1 X125.843 Y50.482 E2.49389
G1 X126.285 Y50.874 E2.51634
G1 X126.621 Y51.361 E2.53879
G1 X126.830 Y51.913 E2.56123
G1 X126.894 Y52.440 E2.58141
G1 X127.240 Y52.714 F7200.000
G1 X127.286 Y52.393 F7200.000
G1 X127.299 Y52.500 E2.58682 F450.000
G1 X127.216 Y53.182 E2.62126
G1 X126.972 Y53.824 E2.65570
G1 X126.582 Y54.389 E2.69015
G1 X126.068 Y54.844 E2.72459
G1 X125.460 Y55.164 E2.75904
G1 X124.793 Y55.328 E2.79348
G1 X124.107 Y55.328 E2.82792
G1 X123.440 Y55.164 E2.86237
G1 X122.832 Y54.844 E2.89681
G1 X122.318 Y54.389 E2.93126
G1 X121.928 Y53.824 E2.96570
G1 X121.684 Y53.182 E3.00014
G1 X121.601 Y52.500 E3.03459
G1 X121.684 Y51.818 E3.06903
G1 X121.928 Y51.176 E3.10348
G1 X122.318 Y50.611 E3.13792
G1 X122.832 Y50.156 E3.17237
G1 X123.440 Y49.836 E3.20681
G1 X124.107 Y49.672 E3.24125
G1 X124.793 Y49.672 E3.27570 F450.000
G1 X125.460 Y49.836 E3.31014
G1 X126.068 Y50.156 E3.34459
G1 X126.582 Y50.611 E3.37903
G1 X126.972 Y51.176 E3.41347
G1 X127.216 Y51.818 E3.44792
G1 X127.278 Y52.333 E3.47394
G1 X127.724 Y52.279 F7200.000
G1 X127.751 Y52.500 E3.48509 F450.000
G1 X127.655 Y53.290 E3.52500
G1 X127.373 Y54.034 E3.56492
G1 X126.921 Y54.689 E3.60483
G1 X126.325 Y55.217 E3.64474
G1 X125.620 Y55.586 E3.68465
G1 X124.848 Y55.777 E3.72456
G1 X124.052 Y55.777 E3.76447
G1 X123.280 Y55.586 E3.80438
G1 X122.575 Y55.217 E3.84429
G1 X121.979 Y54.689 E3.88420
G1 X121.527 Y54.034 E3.92411
G1 X121.245 Y53.290 E3.96402
G1 X121.149 Y52.500 E4.00393
G1 X121.245 Y51.710 E4.04384
G1 X121.527 Y50.966 E4.08375
G1 X121.979 Y50.311 E4.12366
G1 X122.575 Y49.783 E4.16357
G1 X123.280 Y49.414 E4.20348
G1 X124.052 Y49.223 E4.24339
G1 X124.848 Y49.223 E4.28330 F450.000
G1 X125.620 Y49.414 E4.32321
G1 X126.325 Y49.783 E4.36312
G1 X126.921 Y50.311 E4.40303
G1 X127.373 Y50.966 E4.44294
G1 X127.655 Y51.710 E4.48285
G1 X127.717 Y52.220 E4.50860
G1 F5760
G1 X127.751 Y52.500 E4.34094
G1 F5760
G1 X127.655 Y53.290 E3.86847
G1 F5760
G1 X127.373 Y54.034 E3.39600
G1 F5760
G1 X126.921 Y54.689 E2.92353
G1 F5760
G1 X126.524 Y55.041 E2.60860
