; generated by Slic3r 1.2.9 on 2018-04-26 at 22:08:16

; external perimeters extrusion width = 0.40mm
; perimeters extrusion width = 0.58mm
; infill extrusion width = 0.58mm
; solid infill extrusion width = 0.58mm
; top infill extrusion width = 0.58mm

M104 S215 ; set temperature
;G28 ; home all axes
G1 Z10 F5000 ; lift nozzle

M104 S215 ; set temperature
M116 ; wait for temperature to be reached
G21 ; set units to millimeters
G90 ; use absolute coordinates
M82 ; use absolute distances for extrusion
G92 E0
G1 E-2.00000 F3600.00000
G92 E0
G1 Z0.280 F7200.000
G1 X78.119 Y33.649 F7200.000
G1 E2.00000 F3600.00000
G1 E3.05138 F3600.000 ; pressure advance
G92 E2.00000 ; restore E
G1 X78.366 Y33.076 E2.03199 F1200.000
G1 X79.993 Y30.995 E2.16723
G1 X80.994 Y29.994 E2.23970
G1 X83.340 Y28.212 E2.39052
G1 X86.077 Y27.123 E2.54135
G1 X88.700 Y26.802 E2.67665
G1 X161.300 Y26.802 E6.39378
G1 X164.219 Y27.201 E6.54460
G1 X166.924 Y28.366 E6.69543 F1200.000
G1 X169.006 Y29.994 E6.83073
G1 X169.146 Y30.134 E6.84087
G1 X170.928 Y32.480 E6.99170
G1 X172.017 Y35.217 E7.14253
G1 X172.338 Y37.840 E7.27783
G1 X172.338 Y67.160 E8.77901
G1 X171.939 Y70.079 E8.92984
G1 X170.774 Y72.784 E9.08067
G1 X169.146 Y74.866 E9.21597
G1 X124.866 Y119.146 E12.42219
G1 X122.520 Y120.928 E12.57301
G1 X119.783 Y122.017 E12.72384
G1 X117.160 Y122.338 E12.85915
G1 X87.840 Y122.338 E14.36033
G1 X84.921 Y121.939 E14.51116
G1 X82.216 Y120.774 E14.66199
G1 X80.134 Y119.146 E14.79729
G1 X79.994 Y119.006 E14.80742
G1 X78.212 Y116.660 E14.95825
G1 X77.123 Y113.923 E15.10908
G1 X76.802 Y111.300 E15.24438
G1 X76.802 Y38.700 E18.96150
G1 X77.201 Y35.781 E19.11233
G1 X78.095 Y33.704 E19.22810
G1 X78.512 Y33.888 F7200.000
G1 X78.813 Y33.204 E19.26637 F1200.000
G1 X80.311 Y31.312 E19.38991
G1 X81.312 Y30.312 E19.46238
G1 X83.613 Y28.573 E19.61005
G1 X86.302 Y27.530 E19.75773
G1 X88.700 Y27.251 E19.88133
G1 X161.300 Y27.251 E23.59845
G1 X164.157 Y27.649 E23.74612
G1 X166.796 Y28.813 E23.89380 F1200.000
G1 X168.688 Y30.312 E24.01739
G1 X168.828 Y30.452 E24.02753
G1 X170.567 Y32.753 E24.17521
G1 X171.610 Y35.442 E24.32288
G1 X171.889 Y37.840 E24.44648
G1 X171.889 Y67.160 E25.94766
G1 X171.491 Y70.017 E26.09534
G1 X170.327 Y72.656 E26.24301
G1 X168.828 Y74.548 E26.36661
G1 X124.548 Y118.828 E29.57283
G1 X122.247 Y120.567 E29.72050
G1 X119.558 Y121.610 E29.86818
G1 X117.160 Y121.889 E29.99178
G1 X87.840 Y121.889 E31.49296
G1 X84.983 Y121.491 E31.64064
G1 X82.344 Y120.327 E31.78831
G1 X80.452 Y118.828 E31.91191
G1 X80.312 Y118.688 E31.92205
G1 X78.573 Y116.387 E32.06972
G1 X77.530 Y113.698 E32.21740
G1 X77.251 Y111.300 E32.34100
G1 X77.251 Y38.700 E36.05812
G1 X77.649 Y35.843 E36.20579
G1 X78.487 Y33.943 E36.31213
G1 F5760
G1 E35.26075 F3600.000 ; pressure discharge
G92 E36.31213 ; restore E
G1 X78.813 Y33.204 E35.83272
G1 F5760
G1 X80.298 Y31.328 E34.41213
G1 E34.31213 F3600.00000
G92 E0
G1 X84.085 Y36.285 F7200.000
G1 E2.00000 F3600.00000
G1 X86.285 Y34.086 E2.15927 F1200.000
G1 X87.852 Y33.436 E2.24611
G1 X162.148 Y33.436 E6.05008
G1 X163.715 Y34.086 E6.13692
G1 X165.054 Y35.425 E6.23390 F1200.000
G1 X165.704 Y36.992 E6.32074
G1 X165.704 Y68.008 E7.90877
G1 X165.054 Y69.575 E7.99561
G1 X163.715 Y70.914 E8.09259
G1 X162.148 Y71.564 E8.17944
G1 X121.826 Y71.564 E10.24390
G1 X121.564 Y71.826 E10.26294
G1 X121.564 Y112.148 E12.32740
G1 X120.914 Y113.715 E12.41425
G1 X119.575 Y115.054 E12.51123
G1 X118.008 Y115.704 E12.59807
G1 X86.992 Y115.704 E14.18610
G1 X85.425 Y115.054 E14.27294
G1 X84.086 Y113.715 E14.36992
G1 X83.436 Y112.148 E14.45677
G1 X83.436 Y37.852 E18.26072
G1 X84.062 Y36.341 E18.34448
G1 X84.466 Y36.539 F7200.000
G1 X86.539 Y34.466 E18.49461 F1200.000
G1 X87.941 Y33.885 E18.57231
G1 X162.059 Y33.885 E22.36713
G1 X163.461 Y34.466 E22.44483 F1200.000
G1 X164.674 Y35.679 E22.53267
G1 X165.255 Y37.081 E22.61037
G1 X165.255 Y67.919 E24.18926
G1 X164.674 Y69.321 E24.26696
G1 X163.461 Y70.534 E24.35480
G1 X162.059 Y71.115 E24.43250
G1 X121.378 Y71.115 E26.51538
G1 X121.115 Y71.378 E26.53441
G1 X121.115 Y112.059 E28.61729
G1 X120.534 Y113.461 E28.69499
G1 X119.321 Y114.674 E28.78283
G1 X117.919 Y115.255 E28.86053
G1 X87.081 Y115.255 E30.43941
G1 X85.679 Y114.674 E30.51712
G1 X84.466 Y113.461 E30.60496
G1 X83.885 Y112.059 E30.68266
G1 X83.885 Y37.941 E34.47747
G1 X84.443 Y36.595 E34.55209
G1 X84.846 Y36.794 F7200.000
G1 X86.793 Y34.846 E34.69307 F1200.000
G1 X88.030 Y34.334 E34.76164
G1 X161.970 Y34.334 E38.54732
G1 X163.207 Y34.846 E38.61588
G1 X164.294 Y35.933 E38.69457 F1200.000
G1 X164.806 Y37.170 E38.76313
G1 X164.806 Y67.830 E40.33288
G1 X164.294 Y69.067 E40.40144
G1 X163.207 Y70.154 E40.48014
G1 X161.970 Y70.666 E40.54870
G1 X120.929 Y70.666 E42.64998
G1 X120.666 Y70.929 E42.66901
G1 X120.666 Y111.970 E44.77030
G1 X120.154 Y113.207 E44.83886
G1 X119.067 Y114.294 E44.91755
G1 X117.830 Y114.806 E44.98611
G1 X87.170 Y114.806 E46.55586
G1 X85.933 Y114.294 E46.62442
G1 X84.846 Y113.207 E46.70312
G1 X84.334 Y111.970 E46.77168
G1 X84.334 Y38.031 E50.55735
G1 X84.823 Y36.849 E50.62283
G1 X85.227 Y37.048 F7200.000
G1 X87.048 Y35.227 E50.75467 F1200.000
G1 X88.120 Y34.783 E50.81409
G1 X161.880 Y34.783 E54.59063
G1 X162.952 Y35.227 E54.65005 F1200.000
G1 X163.913 Y36.188 E54.71960
G1 X164.357 Y37.260 E54.77902
G1 X164.357 Y67.740 E56.33963
G1 X163.913 Y68.812 E56.39905
G1 X162.952 Y69.773 E56.46860
G1 X161.880 Y70.217 E56.52802
G1 X120.480 Y70.217 E58.64771
G1 X120.217 Y70.480 E58.66675
G1 X120.217 Y111.880 E60.78644
G1 X119.773 Y112.952 E60.84585
G1 X118.812 Y113.913 E60.91541
G1 X117.740 Y114.357 E60.97483
G1 X87.260 Y114.357 E62.53543
G1 X86.188 Y113.913 E62.59485
G1 X85.227 Y112.952 E62.66441
G1 X84.783 Y111.880 E62.72383
G1 X84.783 Y38.120 E66.50036
G1 X85.204 Y37.103 E66.55670
G1 X85.607 Y37.302 F7200.000
G1 X87.302 Y35.607 E66.67940 F1200.000
G1 X88.209 Y35.232 E66.72967
G1 X161.791 Y35.232 E70.49707
G1 X162.698 Y35.607 E70.54735
G1 X163.533 Y36.442 E70.60776 F1200.000
G1 X163.908 Y37.349 E70.65804
G1 X163.908 Y67.651 E72.20950
G1 X163.533 Y68.558 E72.25978
G1 X162.698 Y69.393 E72.32020
G1 X161.791 Y69.768 E72.37047
G1 X120.031 Y69.768 E74.50857
G1 X119.768 Y70.031 E74.52761
G1 X119.768 Y111.791 E76.66570
G1 X119.393 Y112.698 E76.71598
G1 X118.558 Y113.533 E76.77640
G1 X117.651 Y113.908 E76.82667
G1 X87.349 Y113.908 E78.37814
G1 X86.442 Y113.533 E78.42841
G1 X85.607 Y112.698 E78.48883
G1 X85.232 Y111.791 E78.53911
G1 X85.232 Y38.209 E82.30650
G1 X85.584 Y37.357 E82.35370
G1 X85.988 Y37.556 F7200.000
G1 X87.556 Y35.988 E82.46725 F1200.000
G1 X88.298 Y35.680 E82.50839
G1 X161.702 Y35.680 E86.26664
G1 X162.444 Y35.988 E86.30778 F1200.000
G1 X163.152 Y36.696 E86.35905
G1 X163.460 Y37.438 E86.40019
G1 X163.460 Y67.562 E87.94251
G1 X163.152 Y68.304 E87.98365
G1 X162.444 Y69.012 E88.03492
G1 X161.702 Y69.320 E88.07606
G1 X119.582 Y69.320 E90.23256
G1 X119.320 Y69.582 E90.25160
G1 X119.320 Y111.702 E92.40810
G1 X119.012 Y112.444 E92.44924
G1 X118.304 Y113.152 E92.50051
G1 X117.562 Y113.460 E92.54165
G1 X87.438 Y113.460 E94.08397
G1 X86.696 Y113.152 E94.12510
G1 X85.988 Y112.444 E94.17638
G1 X85.680 Y111.702 E94.21751
G1 X85.680 Y38.298 E97.97577
G1 X85.965 Y37.612 E98.01383
G1 X86.368 Y37.810 F7200.000
G1 X87.810 Y36.368 E98.11824 F1200.000
G1 X88.388 Y36.129 E98.15023
G1 X161.612 Y36.129 E101.89935
G1 X162.190 Y36.368 E101.93134
G1 X162.772 Y36.950 E101.97347 F1200.000
G1 X163.011 Y37.528 E102.00547
G1 X163.011 Y67.472 E103.53865
G1 X162.772 Y68.050 E103.57064
G1 X162.190 Y68.632 E103.61277
G1 X161.612 Y68.871 E103.64477
G1 X119.134 Y68.871 E105.81968
G1 X118.871 Y69.134 E105.83872
G1 X118.871 Y111.612 E108.01363
G1 X118.632 Y112.190 E108.04562
G1 X118.050 Y112.772 E108.08776
G1 X117.472 Y113.011 E108.11975
G1 X87.528 Y113.011 E109.65293
G1 X86.950 Y112.772 E109.68492
G1 X86.368 Y112.190 E109.72706
G1 X86.129 Y111.612 E109.75905
G1 X86.129 Y38.388 E113.50816
G1 X86.345 Y37.866 E113.53708
G1 X86.749 Y38.065 F7200.000
G1 X88.064 Y36.749 E113.63235 F1200.000
G1 X88.477 Y36.578 E113.65520
G1 X161.523 Y36.578 E117.39518
G1 X161.936 Y36.749 E117.41803 F1200.000
G1 X162.391 Y37.204 E117.45102
G1 X162.562 Y37.617 E117.47387
G1 X162.562 Y67.383 E118.99791
G1 X162.391 Y67.796 E119.02076
G1 X161.936 Y68.251 E119.05375
G1 X161.523 Y68.422 E119.07661
G1 X118.861 Y68.422 E121.26089
G1 X118.696 Y68.490 E121.27003
G1 X118.490 Y68.696 E121.28496
G1 X118.422 Y68.861 E121.29410
G1 X118.422 Y111.523 E123.47838
G1 X118.251 Y111.936 E123.50124
G1 X117.796 Y112.391 E123.53423
G1 X117.383 Y112.562 E123.55708
G1 X87.617 Y112.562 E125.08112
G1 X87.204 Y112.391 E125.10397
G1 X86.749 Y111.936 E125.13696
G1 X86.578 Y111.523 E125.15982
G1 X86.578 Y38.477 E128.89979
G1 X86.726 Y38.120 E128.91957
G1 X87.129 Y38.319 F7200.000
G1 X88.319 Y37.129 E129.00569 F1200.000
G1 X88.566 Y37.027 E129.01940
G1 X161.434 Y37.027 E132.75023
G1 X161.681 Y37.129 E132.76394
G1 X162.011 Y37.459 E132.78779 F1200.000
G1 X162.113 Y37.706 E132.80151
G1 X162.113 Y67.294 E134.31640
G1 X162.011 Y67.541 E134.33011
G1 X161.681 Y67.871 E134.35396
G1 X161.434 Y67.973 E134.36768
G1 X118.675 Y67.973 E136.55691
G1 X118.511 Y68.042 E136.56605
G1 X118.042 Y68.511 E136.60001
G1 X117.973 Y68.675 E136.60915
G1 X117.973 Y111.434 E138.79838
G1 X117.871 Y111.681 E138.81209
G1 X117.541 Y112.011 E138.83594
G1 X117.294 Y112.113 E138.84965
G1 X87.706 Y112.113 E140.36455
G1 X87.459 Y112.011 E140.37826
G1 X87.129 Y111.681 E140.40211
G1 X87.027 Y111.434 E140.41582
G1 X87.027 Y38.566 E144.14666
G1 X87.106 Y38.374 E144.15729
G1 X87.510 Y38.573 F7200.000
G1 X88.573 Y37.510 E144.23427 F1200.000
G1 X88.655 Y37.476 E144.23884
G1 X161.345 Y37.476 E147.96053
G1 X161.427 Y37.510 E147.96511 F1200.000
G1 X161.630 Y37.713 E147.97981
G1 X161.664 Y37.795 E147.98438
G1 X161.664 Y67.205 E149.49014
G1 X161.630 Y67.287 E149.49471
G1 X161.427 Y67.490 E149.50942
G1 X161.345 Y67.524 E149.51399
G1 X118.490 Y67.524 E151.70817
G1 X118.325 Y67.593 E151.71731
G1 X117.593 Y68.325 E151.77030
G1 X117.524 Y68.490 E151.77944
G1 X117.524 Y111.345 E153.97362
G1 X117.490 Y111.427 E153.97819
G1 X117.287 Y111.630 E153.99290
G1 X117.205 Y111.664 E153.99747
G1 X87.795 Y111.664 E155.50323
G1 X87.713 Y111.630 E155.50780
G1 X87.510 Y111.427 E155.52251
G1 X87.476 Y111.345 E155.52708
G1 X87.487 Y38.628 E159.25015
G1 X87.900 Y38.783 F7200.000
G1 E159.40050 F3600.000 ; pressure advance
G92 E159.25015 ; restore E
G1 X88.783 Y37.900 E159.29857 F600.000
G1 X161.217 Y37.900 E162.10742
G1 X161.240 Y37.923 E162.10867
G1 X161.240 Y67.077 E163.23921 F600.000
G1 X161.217 Y67.100 E163.24046
G1 X118.217 Y67.100 E164.90791
G1 X117.100 Y68.217 E164.96918
G1 X117.100 Y111.217 E166.63663
G1 X117.077 Y111.240 E166.63788
G1 X87.923 Y111.240 E167.76842
G1 X87.900 Y111.217 E167.76967
G1 X87.900 Y38.843 E170.57620
G1 X88.300 Y38.783 F7200.000
G1 F5760
G1 E170.42585 F3600.000 ; pressure discharge
G92 E170.57620 ; restore E
G1 X88.783 Y37.900 E169.80928
G1 F5760
G1 X90.691 Y37.900 E168.67620
G1 E168.57620 F3600.00000
G92 E0
G1 X131.377 Y38.294 F7200.000
G1 E2.00000 F3600.00000
G1 E3.04853 F3600.000 ; pressure advance
G92 E2.00000 ; restore E
G1 X160.846 Y38.294 E3.50878 F1200.000
G1 X160.846 Y66.706 E4.96344
G1 X118.054 Y66.706 E7.15438 F1200.000
G1 X116.706 Y68.054 E7.25200
G1 X116.706 Y110.846 E9.44294
G1 X88.294 Y110.846 E10.89760
G1 X88.294 Y38.946 E14.57885
G1 X88.946 Y38.294 E14.62605
G1 X131.317 Y38.294 E16.79545
G1 F5760
G1 E15.74692 F3600.000 ; pressure discharge
G92 E16.79545 ; restore E
G1 X134.517 Y38.294 E14.89545
G1 E14.79545 F3600.00000
G92 E0
G1 X145.407 Y48.901 F7200.000
G1 E2.00000 F3600.00000
G1 E2.08466 F3600.000 ; pressure advance
G92 E2.00000 ; restore E
G1 X146.011 Y48.322 E2.03246 F450.000
G1 X146.700 Y47.846 E2.06491
G1 X147.456 Y47.487 E2.09737
G1 X148.260 Y47.254 E2.12982
G1 X148.851 Y47.183 E2.15291
G1 X149.091 Y47.154 E2.16228 F450.000
G1 X149.927 Y47.187 E2.19473
G1 X150.747 Y47.355 E2.22719
G1 X151.529 Y47.651 E2.25964
G1 X152.254 Y48.070 E2.29210
G1 X152.903 Y48.599 E2.32455
G1 X153.458 Y49.226 E2.35701
G1 X153.905 Y49.933 E2.38947
G1 X154.233 Y50.703 E2.42192
G1 X154.433 Y51.516 E2.45438
G1 X154.501 Y52.350 E2.48683
G1 X154.433 Y53.184 E2.51929
G1 X154.233 Y53.997 E2.55174
G1 X153.905 Y54.767 E2.58420
G1 X153.458 Y55.474 E2.61665
G1 X152.903 Y56.101 E2.64911
G1 X152.254 Y56.630 E2.68156
G1 X151.529 Y57.049 E2.71402
G1 X150.747 Y57.345 E2.74647
G1 X149.927 Y57.513 E2.77893
G1 X149.091 Y57.546 E2.81139
G1 X148.260 Y57.446 E2.84384
G1 X147.456 Y57.213 E2.87630
G1 X146.700 Y56.854 E2.90875
G1 X146.011 Y56.378 E2.94121
G1 X145.407 Y55.799 E2.97366
G1 X144.904 Y55.130 E3.00612
G1 X144.516 Y54.388 E3.03857
G1 X144.250 Y53.595 E3.07103
G1 X144.116 Y52.768 E3.10348
G1 X144.116 Y51.932 E3.13594
G1 X144.250 Y51.105 E3.16839
G1 X144.516 Y50.312 E3.20085
G1 X144.904 Y49.570 E3.23331
G1 X145.371 Y48.949 E3.26343
G1 X145.291 Y48.519 F7200.000
G1 X145.056 Y48.712 F7200.000
G1 X145.111 Y48.639 E3.26814 F450.000
G1 X145.761 Y48.015 E3.31425
G1 X146.502 Y47.503 E3.36036
G1 X147.316 Y47.117 E3.40647
G1 X148.181 Y46.867 E3.45259
G1 X148.803 Y46.791 E3.48471
G1 X149.075 Y46.758 E3.49870 F450.000
G1 X149.975 Y46.795 E3.54481
G1 X150.857 Y46.975 E3.59092
G1 X151.699 Y47.294 E3.63703
G1 X152.479 Y47.744 E3.68315
G1 X153.177 Y48.314 E3.72926
G1 X153.774 Y48.988 E3.77537
G1 X154.255 Y49.749 E3.82148
G1 X154.608 Y50.578 E3.86759
G1 X154.824 Y51.452 E3.91371
G1 X154.896 Y52.350 E3.95982
G1 X154.824 Y53.248 E4.00593
G1 X154.608 Y54.122 E4.05204
G1 X154.255 Y54.951 E4.09816
G1 X153.774 Y55.712 E4.14427
G1 X153.177 Y56.386 E4.19038
G1 X152.479 Y56.956 E4.23649
G1 X151.699 Y57.406 E4.28260
G1 X150.857 Y57.725 E4.32872
G1 X149.975 Y57.905 E4.37483
G1 X149.075 Y57.942 E4.42094
G1 X148.181 Y57.833 E4.46705
G1 X147.316 Y57.583 E4.51317
G1 X146.502 Y57.197 E4.55928
G1 X145.761 Y56.685 E4.60539
G1 X145.111 Y56.061 E4.65150
G1 X144.570 Y55.341 E4.69761
G1 X144.152 Y54.544 E4.74373
G1 X143.866 Y53.689 E4.78984
G1 X143.722 Y52.800 E4.83595
G1 X143.722 Y51.900 E4.88206
G1 X143.866 Y51.011 E4.92817
G1 X144.152 Y50.156 E4.97429
G1 X144.570 Y49.359 E5.02040
G1 X145.020 Y48.760 E5.05874
G1 F5760
G1 E4.97408 F3600.000 ; pressure discharge
G92 E5.05874 ; restore E
G1 X145.111 Y48.639 E4.96858
G1 F5760
G1 X145.761 Y48.015 E4.43384
G1 F5760
G1 X146.502 Y47.503 E3.89909
G1 F5760
G1 X147.316 Y47.117 E3.36434
G1 F5760
G1 X147.648 Y47.021 E3.15874
G1 E3.05874 F3600.00000
G92 E0
G1 X129.433 Y51.516 F7200.000
G1 E2.00000 F3600.00000
G1 X129.501 Y52.350 E2.03246 F450.000
G1 X129.433 Y53.184 E2.06491
G1 X129.233 Y53.997 E2.09737
G1 X128.905 Y54.767 E2.12982
G1 X128.458 Y55.474 E2.16228
G1 X127.903 Y56.101 E2.19473
G1 X127.254 Y56.630 E2.22719
G1 X126.529 Y57.049 E2.25964
G1 X125.747 Y57.345 E2.29210
G1 X124.927 Y57.513 E2.32455
G1 X124.091 Y57.546 E2.35701
G1 X123.260 Y57.446 E2.38947
G1 X122.456 Y57.213 E2.42192
G1 X121.700 Y56.854 E2.45438
G1 X121.011 Y56.378 E2.48683
G1 X120.407 Y55.799 E2.51929
G1 X119.904 Y55.130 E2.55174
G1 X119.516 Y54.388 E2.58420
G1 X119.250 Y53.595 E2.61665
G1 X119.116 Y52.768 E2.64911
G1 X119.116 Y51.932 E2.68156
G1 X119.250 Y51.105 E2.71402
G1 X119.516 Y50.312 E2.74647
G1 X119.904 Y49.570 E2.77893
G1 X120.407 Y48.901 E2.81139
G1 X121.011 Y48.322 E2.84384
G1 X121.700 Y47.846 E2.87630
G1 X122.456 Y47.487 E2.90875
G1 X123.260 Y47.254 E2.94121
G1 X123.851 Y47.183 E2.96430
G1 X124.091 Y47.154 E2.97366 F450.000
G1 X124.927 Y47.187 E3.00612
G1 X125.747 Y47.355 E3.03857
G1 X126.529 Y47.651 E3.07103
G1 X127.254 Y48.070 E3.10348
G1 X127.903 Y48.599 E3.13594
G1 X128.458 Y49.226 E3.16839
G1 X128.905 Y49.933 E3.20085
G1 X129.233 Y50.703 E3.23331
G1 X129.419 Y51.457 E3.26343
G1 X129.803 Y51.668 F7200.000
G1 X129.802 Y51.363 F7200.000
G1 X129.824 Y51.452 E3.26814 F450.000
G1 X129.896 Y52.350 E3.31425
G1 X129.824 Y53.248 E3.36036
G1 X129.608 Y54.122 E3.40647
G1 X129.255 Y54.951 E3.45259
G1 X128.774 Y55.712 E3.49870
G1 X128.177 Y56.386 E3.54481
G1 X127.479 Y56.956 E3.59092
G1 X126.699 Y57.406 E3.63703
G1 X125.857 Y57.725 E3.68315
G1 X124.975 Y57.905 E3.72926
G1 X124.075 Y57.942 E3.77537
