; generated by Slic3r 1.2.9 on 2018-04-25 at 21:54:34

; external perimeters extrusion width = 0.40mm
; perimeters extrusion width = 0.58mm
; infill extrusion width = 0.58mm
; solid infill extrusion width = 0.58mm
; top infill extrusion width = 0.58mm

M104 S215 ; set temperature
;G28 ; home all axes
G1 Z10 F5000 ; lift nozzle

M104 S215 ; set temperature
M116 ; wait for temperature to be reached
G21 ; set units to millimeters
G90 ; use absolute coordinates
M82 ; use absolute distances for extrusion
G92 E0
G1 E-2.00000 F3600.00000
G92 E0
G1 Z0.280 F7200.000
G1 X78.781 Y33.935 F7200.000
G1 E2.00000 F3600.00000
G1 E4.09736 F3600.000 ; pressure advance
G92 E2.00000 ; restore E
G1 X79.216 Y32.926 E2.05626 F1200.000
G1 X81.063 Y30.631 E2.20708
G1 X83.458 Y28.915 E2.35791
G1 X86.225 Y27.903 E2.50874
G1 X88.550 Y27.652 E2.62849
G1 X160.450 Y27.652 E6.30977
G1 X163.369 Y28.051 E6.46060
G1 X166.074 Y29.216 E6.61143 F1200.000
G1 X168.156 Y30.844 E6.74673
G1 X168.296 Y30.984 E6.75687
G1 X170.078 Y33.330 E6.90769
G1 X171.167 Y36.067 E7.05852
G1 X171.488 Y38.690 E7.19382
G1 X171.488 Y66.310 E8.60797
G1 X171.089 Y69.229 E8.75880
G1 X169.924 Y71.934 E8.90962
G1 X168.296 Y74.016 E9.04493
G1 X124.016 Y118.296 E12.25114
G1 X121.670 Y120.078 E12.40197
G1 X118.933 Y121.167 E12.55280
G1 X116.310 Y121.488 E12.68810
G1 X88.690 Y121.488 E14.10224
G1 X85.771 Y121.089 E14.25307
G1 X83.066 Y119.924 E14.40390
G1 X80.984 Y118.296 E14.53920
G1 X80.844 Y118.156 E14.54934
G1 X79.062 Y115.810 E14.70017
G1 X77.973 Y113.073 E14.85100
G1 X77.652 Y110.450 E14.98630
G1 X77.652 Y38.550 E18.66758
G1 X78.051 Y35.631 E18.81841
G1 X78.758 Y33.990 E18.90991
G1 X79.170 Y34.172 F7200.000
G1 X79.663 Y33.054 E18.97244 F1200.000
G1 X81.504 Y30.834 E19.12012
G1 X83.882 Y29.202 E19.26779
G1 X86.616 Y28.282 E19.41547
G1 X88.550 Y28.101 E19.51493
G1 X160.450 Y28.101 E23.19621
G1 X163.307 Y28.499 E23.34388
G1 X165.946 Y29.663 E23.49156 F1200.000
G1 X167.838 Y31.162 E23.61516
G1 X167.978 Y31.302 E23.62529
G1 X169.717 Y33.603 E23.77297
G1 X170.760 Y36.292 E23.92064
G1 X171.039 Y38.690 E24.04424
G1 X171.039 Y66.310 E25.45839
G1 X170.641 Y69.167 E25.60606
G1 X169.477 Y71.806 E25.75374
G1 X167.978 Y73.698 E25.87734
G1 X123.698 Y117.978 E29.08355
G1 X121.397 Y119.717 E29.23123
G1 X118.708 Y120.760 E29.37890
G1 X116.310 Y121.039 E29.50250
G1 X88.690 Y121.039 E30.91664
G1 X85.833 Y120.641 E31.06432
G1 X83.194 Y119.477 E31.21199
G1 X81.302 Y117.978 E31.33559
G1 X81.162 Y117.838 E31.34573
G1 X79.423 Y115.537 E31.49340
G1 X78.380 Y112.848 E31.64108
G1 X78.101 Y110.450 E31.76468
G1 X78.101 Y38.550 E35.44596
G1 X78.499 Y35.693 E35.59363
G1 X79.146 Y34.227 E35.67570
G1 F5760
G1 E33.57834 F3600.000 ; pressure discharge
G92 E35.67570 ; restore E
G1 X79.663 Y33.054 E34.91485
G1 F5760
G1 X80.888 Y31.577 E33.77570
G1 E33.67570 F3600.00000
G92 E0
G1 X84.286 Y36.784 F7200.000
G1 E2.00000 F3600.00000
G1 X86.784 Y34.286 E2.18084 F1200.000
G1 X161.298 Y34.286 E5.99596
G1 X162.865 Y34.936 E6.08281
G1 X164.204 Y36.275 E6.17979 F1200.000
G1 X164.854 Y37.842 E6.26663
G1 X164.854 Y67.158 E7.76762
G1 X164.204 Y68.725 E7.85446
G1 X162.865 Y70.064 E7.95144
G1 X161.298 Y70.714 E8.03829
G1 X120.976 Y70.714 E10.10275
G1 X120.714 Y70.976 E10.12179
G1 X120.714 Y111.298 E12.18625
G1 X120.064 Y112.865 E12.27310
G1 X118.725 Y114.204 E12.37008
G1 X117.158 Y114.854 E12.45692
G1 X87.842 Y114.854 E13.95791
G1 X86.275 Y114.204 E14.04475
G1 X84.936 Y112.865 E14.14173
G1 X84.286 Y111.298 E14.22857
G1 X84.286 Y36.844 E18.04063
G1 X84.735 Y36.970 F7200.000
G1 X86.970 Y34.735 E18.20243 F1200.000
G1 X161.209 Y34.735 E22.00347
G1 X162.611 Y35.316 E22.08117 F1200.000
G1 X163.824 Y36.529 E22.16901
G1 X164.405 Y37.931 E22.24671
G1 X164.405 Y67.069 E23.73855
G1 X163.824 Y68.471 E23.81626
G1 X162.611 Y69.684 E23.90409
G1 X161.209 Y70.265 E23.98180
G1 X120.528 Y70.265 E26.06467
G1 X120.265 Y70.528 E26.08371
G1 X120.265 Y111.209 E28.16658
G1 X119.684 Y112.611 E28.24428
G1 X118.471 Y113.824 E28.33212
G1 X117.069 Y114.405 E28.40982
G1 X87.931 Y114.405 E29.90167
G1 X86.529 Y113.824 E29.97937
G1 X85.316 Y112.611 E30.06721
G1 X84.735 Y111.209 E30.14491
G1 X84.735 Y37.030 E33.94287
G1 X85.184 Y37.156 F7200.000
G1 X87.156 Y35.184 E34.08564 F1200.000
G1 X161.120 Y35.184 E37.87259
G1 X162.357 Y35.696 E37.94115
G1 X163.444 Y36.783 E38.01985 F1200.000
G1 X163.956 Y38.020 E38.08841
G1 X163.956 Y66.980 E39.57111
G1 X163.444 Y68.217 E39.63967
G1 X162.357 Y69.304 E39.71837
G1 X161.120 Y69.816 E39.78693
G1 X120.079 Y69.816 E41.88821
G1 X119.816 Y70.079 E41.90725
G1 X119.816 Y111.120 E44.00853
G1 X119.304 Y112.357 E44.07709
G1 X118.217 Y113.444 E44.15579
G1 X116.980 Y113.956 E44.22435
G1 X88.020 Y113.956 E45.70705
G1 X86.783 Y113.444 E45.77561
G1 X85.696 Y112.357 E45.85431
G1 X85.184 Y111.120 E45.92287
G1 X85.184 Y37.216 E49.70674
G1 X85.633 Y37.342 F7200.000
G1 X87.342 Y35.633 E49.83048 F1200.000
G1 X161.030 Y35.633 E53.60333
G1 X162.102 Y36.077 E53.66275 F1200.000
G1 X163.063 Y37.038 E53.73231
G1 X163.507 Y38.110 E53.79173
G1 X163.507 Y66.890 E55.26529
G1 X163.063 Y67.962 E55.32471
G1 X162.102 Y68.923 E55.39427
G1 X161.030 Y69.367 E55.45369
G1 X119.630 Y69.367 E57.57338
G1 X119.367 Y69.630 E57.59241
G1 X119.367 Y111.030 E59.71210
G1 X118.923 Y112.102 E59.77152
G1 X117.962 Y113.063 E59.84108
G1 X116.890 Y113.507 E59.90049
G1 X88.110 Y113.507 E61.37406
G1 X87.038 Y113.063 E61.43348
G1 X86.077 Y112.102 E61.50303
G1 X85.633 Y111.030 E61.56245
G1 X85.633 Y37.402 E65.33224
G1 X86.082 Y37.528 F7200.000
G1 X87.528 Y36.082 E65.43693 F1200.000
G1 X160.941 Y36.082 E69.19570
G1 X161.848 Y36.457 E69.24598
G1 X162.683 Y37.292 E69.30640 F1200.000
G1 X163.058 Y38.199 E69.35667
G1 X163.058 Y66.801 E70.82109
G1 X162.683 Y67.708 E70.87137
G1 X161.848 Y68.543 E70.93179
G1 X160.941 Y68.918 E70.98206
G1 X119.181 Y68.918 E73.12016
G1 X118.918 Y69.181 E73.13920
G1 X118.918 Y110.941 E75.27729
G1 X118.543 Y111.848 E75.32757
G1 X117.708 Y112.683 E75.38799
G1 X116.801 Y113.058 E75.43826
G1 X88.199 Y113.058 E76.90269
G1 X87.292 Y112.683 E76.95296
G1 X86.457 Y111.848 E77.01338
G1 X86.082 Y110.941 E77.06366
G1 X86.082 Y37.588 E80.81935
G1 X86.530 Y37.713 F7200.000
G1 X87.713 Y36.530 E80.90501 F1200.000
G1 X160.852 Y36.530 E84.64969
G1 X161.594 Y36.838 E84.69083 F1200.000
G1 X162.302 Y37.546 E84.74210
G1 X162.610 Y38.288 E84.78324
G1 X162.610 Y66.712 E86.23852
G1 X162.302 Y67.454 E86.27966
G1 X161.594 Y68.162 E86.33093
G1 X160.852 Y68.470 E86.37207
G1 X118.732 Y68.470 E88.52857
G1 X118.470 Y68.732 E88.54761
G1 X118.470 Y110.852 E90.70411
G1 X118.162 Y111.594 E90.74525
G1 X117.454 Y112.302 E90.79652
G1 X116.712 Y112.610 E90.83766
G1 X88.288 Y112.610 E92.29294
G1 X87.546 Y112.302 E92.33407
G1 X86.838 Y111.594 E92.38535
G1 X86.530 Y110.852 E92.42648
G1 X86.530 Y37.773 E96.16809
G1 X86.979 Y37.899 F7200.000
G1 X87.899 Y36.979 E96.23472 F1200.000
G1 X160.762 Y36.979 E99.96531
G1 X161.340 Y37.218 E99.99730
G1 X161.922 Y37.800 E100.03943 F1200.000
G1 X162.161 Y38.378 E100.07143
G1 X162.161 Y66.622 E101.51757
G1 X161.922 Y67.200 E101.54956
G1 X161.340 Y67.782 E101.59169
G1 X160.762 Y68.021 E101.62369
G1 X118.284 Y68.021 E103.79860
G1 X118.021 Y68.284 E103.81764
G1 X118.021 Y110.762 E105.99255
G1 X117.782 Y111.340 E106.02455
G1 X117.200 Y111.922 E106.06668
G1 X116.622 Y112.161 E106.09867
G1 X88.378 Y112.161 E107.54481
G1 X87.800 Y111.922 E107.57681
G1 X87.218 Y111.340 E107.61894
G1 X86.979 Y110.762 E107.65093
G1 X86.979 Y37.959 E111.37845
G1 X87.428 Y38.085 F7200.000
G1 X88.085 Y37.428 E111.42604 F1200.000
G1 X160.673 Y37.428 E115.14254
G1 X161.086 Y37.599 E115.16540 F1200.000
G1 X161.541 Y38.054 E115.19839
G1 X161.712 Y38.467 E115.22124
G1 X161.712 Y66.533 E116.65824
G1 X161.541 Y66.946 E116.68109
G1 X161.086 Y67.401 E116.71408
G1 X160.673 Y67.572 E116.73694
G1 X117.835 Y67.572 E118.93026
G1 X117.572 Y67.835 E118.94929
G1 X117.572 Y110.673 E121.14261
G1 X117.401 Y111.086 E121.16547
G1 X116.946 Y111.541 E121.19846
G1 X116.533 Y111.712 E121.22131
G1 X88.467 Y111.712 E122.65831
G1 X88.054 Y111.541 E122.68116
G1 X87.599 Y111.086 E122.71415
G1 X87.428 Y110.673 E122.73701
G1 X87.428 Y38.145 E126.45044
G1 X87.877 Y38.271 F7200.000
G1 X88.271 Y37.877 E126.47899 F1200.000
G1 X160.584 Y37.877 E130.18140
G1 X160.831 Y37.979 E130.19511
G1 X161.161 Y38.309 E130.21896 F1200.000
G1 X161.263 Y38.556 E130.23268
G1 X161.263 Y66.444 E131.66053
G1 X161.161 Y66.691 E131.67424
G1 X160.831 Y67.021 E131.69809
G1 X160.584 Y67.123 E131.71181
G1 X117.386 Y67.123 E133.92353
G1 X117.123 Y67.386 E133.94257
G1 X117.123 Y110.584 E136.15430
G1 X117.021 Y110.831 E136.16801
G1 X116.691 Y111.161 E136.19186
G1 X116.444 Y111.263 E136.20557
G1 X88.556 Y111.263 E137.63343
G1 X88.309 Y111.161 E137.64714
G1 X87.979 Y110.831 E137.67099
G1 X87.877 Y110.584 E137.68470
G1 X87.877 Y38.331 E141.38404
G1 X88.326 Y38.457 F7200.000
G1 X88.457 Y38.326 E141.39356 F1200.000
G1 X160.495 Y38.326 E145.08188
G1 X160.577 Y38.360 E145.08645 F1200.000
G1 X160.780 Y38.563 E145.10116
G1 X160.814 Y38.645 E145.10573
G1 X160.814 Y66.355 E146.52445
G1 X160.780 Y66.437 E146.52902
G1 X160.577 Y66.640 E146.54373
G1 X160.495 Y66.674 E146.54830
G1 X116.937 Y66.674 E148.77843
G1 X116.674 Y66.937 E148.79747
G1 X116.674 Y110.495 E151.02760
G1 X116.640 Y110.577 E151.03217
G1 X116.437 Y110.780 E151.04688
G1 X116.355 Y110.814 E151.05145
G1 X88.645 Y110.814 E152.47017
G1 X88.563 Y110.780 E152.47474
G1 X88.360 Y110.577 E152.48945
G1 X88.326 Y110.495 E152.49402
G1 X88.326 Y38.517 E156.17927
G1 X88.750 Y38.750 F7200.000
G1 E156.40953 F3600.000 ; pressure advance
G92 E156.17927 ; restore E
G1 X160.367 Y38.750 E158.95643 F525.000
G1 X160.390 Y38.773 E158.95768
G1 X160.390 Y66.227 E160.02230 F525.000
G1 X160.367 Y66.250 E160.02356
G1 X116.250 Y66.250 E161.73433
G1 X116.250 Y110.367 E163.44510
G1 X116.227 Y110.390 E163.44635
G1 X88.773 Y110.390 E164.51097
G1 X88.750 Y110.367 E164.51222
G1 X88.750 Y38.810 E167.28706
G1 X89.096 Y38.950 F7200.000
G1 X89.144 Y39.144 F7200.000
G1 E168.66240 F3600.000 ; pressure advance
G92 E167.28706 ; restore E
G1 X159.996 Y39.144 E170.91464 F1050.000
G1 X159.996 Y65.856 E172.28226
G1 X115.856 Y65.856 E174.54223 F1050.000
G1 X115.856 Y109.996 E176.80220
G1 X89.144 Y109.996 E178.16982
G1 X89.144 Y39.204 E181.79433
G1 F5760
G1 E180.18874 F3600.000 ; pressure discharge
G92 E181.79433 ; restore E
G1 X92.344 Y39.202 E179.89433
G1 E179.79433 F3600.00000
G92 E0
G1 X89.550 Y39.550 F7200.000
G1 X130.980 Y59.279 F7200.000
G1 X147.092 Y60.425 F7200.000
G1 X153.832 Y60.003 F7200.000
G1 X155.365 Y57.060 F7200.000
G1 X155.840 Y55.343 F7200.000
G1 X155.984 Y54.558 F7200.000
G1 X159.547 Y55.175 F7200.000
G1 E2.00000 F3600.00000
G1 X159.547 Y65.407 E2.52386 F1050.000
G1 X115.407 Y65.407 E4.78382 F1050.000
G1 X115.407 Y109.547 E7.04379
G1 X89.593 Y109.547 E8.36545
G1 X89.593 Y39.593 E11.94708
G1 X159.547 Y39.593 E15.52871
G1 X159.547 Y55.115 E16.32345
G1 F5760
G1 X159.547 Y58.315 E14.42345
G1 E14.32345 F3600.00000
G92 E0
G1 X151.830 Y53.087 F7200.000
G1 E2.00000 F3600.00000
G1 E2.16964 F3600.000 ; pressure advance
G92 E2.00000 ; restore E
G1 X151.621 Y53.639 E2.02292 F450.000
G1 X151.285 Y54.126 E2.04583
G1 X150.843 Y54.518 E2.06875
G1 X150.319 Y54.792 E2.09167
G1 X149.745 Y54.934 E2.11459
G1 X149.155 Y54.934 E2.13750
G1 X148.581 Y54.792 E2.16042
G1 X148.057 Y54.518 E2.18334
G1 X147.615 Y54.126 E2.20625
G1 X147.279 Y53.639 E2.22917
G1 X147.070 Y53.087 E2.25209
G1 X147.001 Y52.520 E2.27424
G1 X147.069 Y51.914 E2.29787
G1 X147.279 Y51.361 E2.32082
G1 X147.615 Y50.874 E2.34373
G1 X148.057 Y50.482 E2.36665
G1 X148.581 Y50.208 E2.38957
G1 X149.155 Y50.066 E2.41249
G1 X149.745 Y50.066 E2.43540 F450.000
G1 X150.319 Y50.208 E2.45832
G1 X150.843 Y50.482 E2.48124
G1 X151.285 Y50.874 E2.50415
G1 X151.621 Y51.361 E2.52707
G1 X151.830 Y51.913 E2.54999
G1 X151.901 Y52.500 E2.57290
G1 X151.837 Y53.027 E2.59349
G1 X152.107 Y53.375 F7200.000
G1 X152.229 Y53.075 F7200.000
G1 X152.216 Y53.182 E2.59902 F450.000
G1 X151.972 Y53.824 E2.63418
G1 X151.582 Y54.389 E2.66934
G1 X151.068 Y54.844 E2.70450
G1 X150.460 Y55.164 E2.73966
G1 X149.793 Y55.328 E2.77483
G1 X149.107 Y55.328 E2.80999
G1 X148.440 Y55.164 E2.84515
G1 X147.832 Y54.844 E2.88031
G1 X147.318 Y54.389 E2.91547
G1 X146.928 Y53.824 E2.95063
G1 X146.684 Y53.182 E2.98579
G1 X146.604 Y52.521 E3.01986
G1 X146.683 Y51.821 E3.05597
G1 X146.928 Y51.176 E3.09125
G1 X147.318 Y50.611 E3.12641
G1 X147.832 Y50.156 E3.16158
G1 X148.440 Y49.836 E3.19674
G1 X149.107 Y49.672 E3.23190
G1 X149.793 Y49.672 E3.26706 F450.000
G1 X150.460 Y49.836 E3.30222
G1 X151.068 Y50.156 E3.33738
G1 X151.582 Y50.611 E3.37254
G1 X151.972 Y51.176 E3.40771
G1 X152.216 Y51.818 E3.44287
G1 X152.299 Y52.500 E3.47803
G1 X152.236 Y53.015 E3.50459
G1 X152.682 Y53.069 F7200.000
G1 X152.655 Y53.290 E3.51598 F450.000
G1 X152.373 Y54.034 E3.55672
G1 X151.921 Y54.689 E3.59746
G1 X151.325 Y55.217 E3.63821
G1 X150.620 Y55.586 E3.67895
G1 X149.848 Y55.777 E3.71969
G1 X149.052 Y55.777 E3.76043
G1 X148.280 Y55.586 E3.80117
G1 X147.575 Y55.217 E3.84191
G1 X146.979 Y54.689 E3.88266
G1 X146.527 Y54.034 E3.92340
G1 X146.245 Y53.290 E3.96414
G1 X146.152 Y52.523 E4.00369
G1 X146.244 Y51.714 E4.04538
G1 X146.527 Y50.966 E4.08634
G1 X146.979 Y50.311 E4.12708
G1 X147.575 Y49.783 E4.16782
G1 X148.280 Y49.414 E4.20856
G1 X149.052 Y49.223 E4.24930
G1 X149.848 Y49.223 E4.29005 F450.000
G1 X150.620 Y49.414 E4.33079
G1 X151.325 Y49.783 E4.37153
G1 X151.921 Y50.311 E4.41227
G1 X152.373 Y50.966 E4.45301
G1 X152.655 Y51.710 E4.49375
G1 X152.751 Y52.500 E4.53450
G1 X152.689 Y53.010 E4.56078
G1 F5760
G1 E4.39114 F3600.000 ; pressure discharge
G92 E4.56078 ; restore E
G1 X152.655 Y53.290 E4.39312
G1 F5760
G1 X152.373 Y54.034 E3.92065
G1 F5760
G1 X151.921 Y54.689 E3.44818
G1 F5760
G1 X151.325 Y55.217 E2.97571
G1 F5760
G1 X150.855 Y55.463 E2.66078
G1 E2.56078 F3600.00000
G92 E0
G1 X154.606 Y58.912 F7200.000
G1 X143.705 Y59.577 F7200.000
G1 X136.950 Y55.783 F7200.000
G1 X136.950 Y53.764 F7200.000
G1 X136.950 Y53.622 F7200.000
G1 X127.707 Y52.500 F7200.000
G1 X126.899 Y52.480 F7200.000
G1 E2.00000 F3600.00000
G1 X126.831 Y53.086 E2.02363 F450.000
G1 X126.621 Y53.639 E2.04658
G1 X126.285 Y54.126 E2.06950
G1 X125.843 Y54.518 E2.09242
G1 X125.337 Y54.783 E2.11456
G1 X124.746 Y54.934 E2.13820
G1 X124.155 Y54.934 E2.16115
G1 X123.581 Y54.792 E2.18406
G1 X123.057 Y54.518 E2.20698
G1 X122.615 Y54.126 E2.22990
G1 X122.279 Y53.639 E2.25281
G1 X122.070 Y53.087 E2.27573
G1 X122.001 Y52.520 E2.29788
G1 X122.069 Y51.914 E2.32151
G1 X122.279 Y51.361 E2.34446
G1 X122.615 Y50.874 E2.36738
G1 X123.057 Y50.482 E2.39030
G1 X123.581 Y50.208 E2.41321
G1 X124.155 Y50.066 E2.43613
G1 X124.745 Y50.066 E2.45905 F450.000
G1 X125.319 Y50.208 E2.48196
G1 X125.843 Y50.482 E2.50488
G1 X126.285 Y50.874 E2.52780
G1 X126.621 Y51.361 E2.55071
G1 X126.830 Y51.913 E2.57363
G1 X126.892 Y52.421 E2.59345
G1 X127.238 Y52.692 F7200.000
G1 X127.283 Y52.373 F7200.000
G1 X127.296 Y52.479 E2.59889 F450.000
G1 X127.217 Y53.179 E2.63500
G1 X126.972 Y53.824 E2.67029
G1 X126.582 Y54.389 E2.70545
G1 X126.068 Y54.844 E2.74061
G1 X125.479 Y55.154 E2.77467
G1 X124.796 Y55.328 E2.81078
G1 X124.107 Y55.328 E2.84607
G1 X123.440 Y55.164 E2.88123
G1 X122.832 Y54.844 E2.91639
G1 X122.318 Y54.389 E2.95155
G1 X121.928 Y53.824 E2.98671
G1 X121.684 Y53.182 E3.02188
G1 X121.604 Y52.521 E3.05594
G1 X121.683 Y51.821 E3.09205
G1 X121.928 Y51.176 E3.12733
G1 X122.318 Y50.611 E3.16249
G1 X122.832 Y50.156 E3.19766
G1 X123.440 Y49.836 E3.23282
G1 X124.107 Y49.672 E3.26798
G1 X124.793 Y49.672 E3.30314 F450.000
G1 X125.460 Y49.836 E3.33830
G1 X126.068 Y50.156 E3.37346
G1 X126.582 Y50.611 E3.40862
G1 X126.972 Y51.176 E3.44379
G1 X127.216 Y51.818 E3.47895
G1 X127.276 Y52.314 E3.50450
G1 X127.722 Y52.260 F7200.000
G1 X127.748 Y52.477 E3.51571 F450.000
G1 X127.656 Y53.286 E3.55739
G1 X127.373 Y54.034 E3.59836
G1 X126.921 Y54.689 E3.63910
G1 X126.325 Y55.217 E3.67984
G1 X125.641 Y55.575 E3.71939
G1 X124.852 Y55.777 E3.76108
G1 X124.052 Y55.777 E3.80204
G1 X123.280 Y55.586 E3.84278
G1 X122.575 Y55.217 E3.88352
G1 X121.979 Y54.689 E3.92426
