; generated by Slic3r 1.2.9 on 2018-05-13 at 18:50:45

; external perimeters extrusion width = 0.40mm
; perimeters extrusion width = 0.58mm
; infill extrusion width = 0.58mm
; solid infill extrusion width = 0.58mm
; top infill extrusion width = 0.58mm
; support material extrusion width = 0.40mm

M104 S220 ; set temperature
;G28 ; home all axes
G1 Z10 F5000 ; lift nozzle

M104 S220 ; set temperature
M116 ; wait for temperature to be reached
G21 ; set units to millimeters
G90 ; use absolute coordinates
M82 ; use absolute distances for extrusion
G92 E0
G1 E-2.00000 F3600.00000
G92 E0
G1 Z0.280 F7200.000
G1 X90.666 Y66.376 F7200.000
G1 E2.00000 F3600.00000
G1 X92.513 Y64.081 E2.15391 F1200.000
G1 X94.908 Y62.365 E2.30781
G1 X97.675 Y61.353 E2.46172
G1 X100.000 Y61.102 E2.58391
G1 X150.000 Y61.102 E5.19616
G1 X152.919 Y61.501 E5.35006
G1 X155.624 Y62.666 E5.50397 F1200.000
G1 X157.919 Y64.513 E5.65788
G1 X159.635 Y66.908 E5.81178
G1 X160.647 Y69.675 E5.96569
G1 X160.898 Y72.000 E6.08788
G1 X160.898 Y78.000 E6.40135
G1 X160.499 Y80.919 E6.55526
G1 X159.334 Y83.624 E6.70916
G1 X157.487 Y85.919 E6.86307
G1 X155.092 Y87.635 E7.01698
G1 X152.325 Y88.647 E7.17088
G1 X150.000 Y88.898 E7.29308
G1 X100.000 Y88.898 E9.90532
G1 X97.081 Y88.499 E10.05923
G1 X94.376 Y87.334 E10.21313
G1 X92.081 Y85.487 E10.36704
G1 X90.365 Y83.092 E10.52095
G1 X89.353 Y80.325 E10.67485
G1 X89.102 Y78.000 E10.79705
G1 X89.102 Y72.000 E11.11052
G1 X89.501 Y69.081 E11.26442
G1 X90.642 Y66.431 E11.41519
G1 X91.088 Y66.562 F7200.000
G1 X91.113 Y66.504 E11.41847 F1200.000
G1 X92.954 Y64.284 E11.56916
G1 X95.332 Y62.652 E11.71985
G1 X98.066 Y61.732 E11.87054
G1 X100.000 Y61.551 E11.97203
G1 X150.000 Y61.551 E14.58427
G1 X152.857 Y61.949 E14.73496
G1 X155.496 Y63.113 E14.88565 F1200.000
G1 X157.716 Y64.954 E15.03634
G1 X159.348 Y67.332 E15.18703
G1 X160.268 Y70.066 E15.33772
G1 X160.449 Y72.000 E15.43920
G1 X160.449 Y78.000 E15.75267
G1 X160.051 Y80.857 E15.90336
G1 X158.887 Y83.496 E16.05405
G1 X157.046 Y85.716 E16.20474
G1 X154.668 Y87.348 E16.35543
G1 X151.934 Y88.268 E16.50612
G1 X150.000 Y88.449 E16.60761
G1 X100.000 Y88.449 E19.21985
G1 X97.143 Y88.051 E19.37054
G1 X94.504 Y86.887 E19.52123
G1 X92.284 Y85.046 E19.67192
G1 X90.652 Y82.668 E19.82261
G1 X89.732 Y79.934 E19.97329
G1 X89.551 Y78.000 E20.07478
G1 X89.551 Y72.000 E20.38825
G1 X89.949 Y69.143 E20.53894
G1 X91.064 Y66.617 E20.68322
G1 F5760
G1 X91.113 Y66.504 E20.61035
G1 F5760
G1 X92.954 Y64.284 E18.89781
G1 F5760
G1 X93.113 Y64.175 E18.78322
G1 E18.68322 F3600.00000
G92 E0
G1 X96.634 Y70.606 F7200.000
G1 E2.00000 F3600.00000
G1 X98.606 Y68.634 E2.14568 F1200.000
G1 X151.394 Y68.634 E4.90361
G1 X153.366 Y70.606 E5.04930
G1 X153.366 Y79.394 E5.50845 F1200.000
G1 X151.394 Y81.366 E5.65413
G1 X98.606 Y81.366 E8.41206
G1 X96.634 Y79.394 E8.55774
G1 X96.634 Y70.666 E9.01376
G1 X97.083 Y70.792 F7200.000
G1 X98.792 Y69.083 E9.14002 F1200.000
G1 X151.208 Y69.083 E11.87853
G1 X152.917 Y70.792 E12.00478 F1200.000
G1 X152.917 Y79.208 E12.44451
G1 X151.208 Y80.917 E12.57077
G1 X98.792 Y80.917 E15.30928
G1 X97.083 Y79.208 E15.43553
G1 X97.083 Y70.852 E15.87213
G1 X97.532 Y70.978 F7200.000
G1 X98.978 Y69.532 E15.97896 F1200.000
G1 X151.022 Y69.532 E18.69804
G1 X152.468 Y70.978 E18.80488
G1 X152.468 Y79.022 E19.22518 F1200.000
G1 X151.022 Y80.468 E19.33202
G1 X98.978 Y80.468 E22.05110
G1 X97.532 Y79.022 E22.15793
G1 X97.532 Y71.038 E22.57510
G1 X97.980 Y71.163 F7200.000
G1 X99.163 Y69.980 E22.66251 F1200.000
G1 X150.837 Y69.980 E25.36216
G1 X152.020 Y71.163 E25.44957 F1200.000
G1 X152.020 Y78.837 E25.85045
G1 X150.837 Y80.020 E25.93786
G1 X99.163 Y80.020 E28.63752
G1 X97.980 Y78.837 E28.72493
G1 X97.980 Y71.223 E29.12267
G1 X98.429 Y71.349 F7200.000
G1 X99.349 Y70.429 E29.19066 F1200.000
G1 X150.651 Y70.429 E31.87089
G1 X151.571 Y71.349 E31.93888
G1 X151.571 Y78.651 E32.32033 F1200.000
G1 X150.651 Y79.571 E32.38832
G1 X99.349 Y79.571 E35.06855
G1 X98.429 Y78.651 E35.13653
G1 X98.429 Y71.409 E35.51485
G1 X98.878 Y71.535 F7200.000
G1 X99.535 Y70.878 E35.56341 F1200.000
G1 X150.465 Y70.878 E38.22422
G1 X151.122 Y71.535 E38.27278 F1200.000
G1 X151.122 Y78.465 E38.63481
G1 X150.465 Y79.122 E38.68337
G1 X99.535 Y79.122 E41.34418
G1 X98.878 Y78.465 E41.39274
G1 X98.878 Y71.595 E41.75164
G1 X99.327 Y71.721 F7200.000
G1 X99.721 Y71.327 E41.78077 F1200.000
G1 X150.279 Y71.327 E44.42215
G1 X150.673 Y71.721 E44.45129
G1 X150.673 Y78.279 E44.79390 F1200.000
G1 X150.279 Y78.673 E44.82303
G1 X99.721 Y78.673 E47.46442
G1 X99.327 Y78.279 E47.49355
G1 X99.327 Y71.781 E47.83302
G1 X99.907 Y71.776 F7200.000
G1 X150.093 Y71.776 E50.45498 F1200.000
G1 X150.224 Y71.907 E50.46469
G1 X150.224 Y78.093 E50.78788
G1 X150.093 Y78.224 E50.79759
G1 X99.907 Y78.224 E53.41954
G1 X99.776 Y78.093 E53.42926
G1 X99.776 Y71.907 E53.75244
G1 X99.865 Y71.818 E53.75902
G1 F5760
G1 X103.065 Y71.815 E51.85902
G1 E51.75902 F3600.00000
G92 E0
G1 X149.800 Y77.800 F7200.000
G1 E2.00000 F3600.00000
G1 X100.200 Y77.800 E3.96264 F525.000
G1 X100.200 Y72.200 E4.18422
G1 X149.800 Y72.200 E6.14686
G1 X149.800 Y77.740 E6.36607
G1 X149.454 Y77.600 F7200.000
G1 X149.406 Y77.406 F7200.000
G1 X100.594 Y77.406 E8.91621 F1050.000
G1 X100.594 Y72.594 E9.16758
G1 X149.406 Y72.594 E11.71772
G1 X149.406 Y77.346 E11.96595
G1 X149.139 Y73.091 F7200.000
G1 X148.909 Y72.861 E11.98299 F600.000
G1 X148.274 Y72.861 E12.01622
G1 X149.139 Y73.726 E12.08024
G1 X149.139 Y74.362 E12.11347
G1 X147.638 Y72.861 E12.22449
G1 X147.003 Y72.861 E12.25771
G1 X149.139 Y74.997 E12.41572
G1 X149.139 Y75.632 E12.44894
G1 X146.368 Y72.861 E12.65394
G1 X145.732 Y72.861 E12.68716
G1 X149.139 Y76.268 E12.93914
G1 X149.139 Y76.903 E12.97237
G1 X145.097 Y72.861 E13.27134
G1 X144.462 Y72.861 E13.30456
G1 X148.740 Y77.139 E13.62102
G1 X148.105 Y77.139 E13.65424
G1 X143.826 Y72.861 E13.97070
G1 X143.191 Y72.861 E14.00392
G1 X147.470 Y77.139 E14.32037
G1 X146.834 Y77.139 E14.35360
G1 X142.556 Y72.861 E14.67005
G1 X141.920 Y72.861 E14.70328
G1 X146.199 Y77.139 E15.01973
G1 X145.564 Y77.139 E15.05296
G1 X141.285 Y72.861 E15.36941
G1 X140.650 Y72.861 E15.40264
G1 X144.929 Y77.139 E15.71909
G1 X144.293 Y77.139 E15.75232
G1 X140.014 Y72.861 E16.06877
G1 X139.379 Y72.861 E16.10200
G1 X143.658 Y77.139 E16.41845
G1 X143.023 Y77.139 E16.45167
G1 X138.744 Y72.861 E16.76813
G1 X138.108 Y72.861 E16.80135
G1 X142.387 Y77.139 E17.11781
G1 X141.752 Y77.139 E17.15103
G1 X137.473 Y72.861 E17.46749
G1 X136.838 Y72.861 E17.50071
G1 X141.117 Y77.139 E17.81716
G1 X140.481 Y77.139 E17.85039
G1 X136.202 Y72.861 E18.16684
G1 X135.567 Y72.861 E18.20007
G1 X139.846 Y77.139 E18.51652
G1 X139.211 Y77.139 E18.54975
G1 X134.932 Y72.861 E18.86620
G1 X134.296 Y72.861 E18.89943
G1 X138.575 Y77.139 E19.21588
G1 X137.940 Y77.139 E19.24911
G1 X133.661 Y72.861 E19.56556
G1 X133.026 Y72.861 E19.59878
G1 X137.305 Y77.139 E19.91524
G1 X136.669 Y77.139 E19.94846
G1 X132.390 Y72.861 E20.26492
G1 X131.755 Y72.861 E20.29814
G1 X136.034 Y77.139 E20.61460
G1 X135.399 Y77.139 E20.64782
G1 X131.120 Y72.861 E20.96427
G1 X130.484 Y72.861 E20.99750
G1 X134.763 Y77.139 E21.31395
G1 X134.128 Y77.139 E21.34718
G1 X129.849 Y72.861 E21.66363
G1 X129.214 Y72.861 E21.69686
G1 X133.493 Y77.139 E22.01331
G1 X132.857 Y77.139 E22.04654
G1 X128.578 Y72.861 E22.36299
G1 X127.943 Y72.861 E22.39622
G1 X132.222 Y77.139 E22.71267
G1 X131.587 Y77.139 E22.74589
G1 X127.308 Y72.861 E23.06235
G1 X126.673 Y72.861 E23.09557
G1 X130.951 Y77.139 E23.41203
G1 X130.316 Y77.139 E23.44525
G1 X126.037 Y72.861 E23.76171
G1 X125.402 Y72.861 E23.79493
G1 X129.681 Y77.139 E24.11138
G1 X129.045 Y77.139 E24.14461
G1 X124.767 Y72.861 E24.46106
G1 X124.131 Y72.861 E24.49429
G1 X128.410 Y77.139 E24.81074
G1 X127.775 Y77.139 E24.84397
G1 X123.496 Y72.861 E25.16042
G1 X122.861 Y72.861 E25.19365
G1 X127.139 Y77.139 E25.51010
G1 X126.504 Y77.139 E25.54333
G1 X122.225 Y72.861 E25.85978
G1 X121.590 Y72.861 E25.89301
G1 X125.869 Y77.139 E26.20946
G1 X125.233 Y77.139 E26.24268
G1 X120.955 Y72.861 E26.55914
G1 X120.319 Y72.861 E26.59236
G1 X124.598 Y77.139 E26.90882
G1 X123.963 Y77.139 E26.94204
G1 X119.684 Y72.861 E27.25850
G1 X119.049 Y72.861 E27.29172
G1 X123.327 Y77.139 E27.60817
G1 X122.692 Y77.139 E27.64140
G1 X118.413 Y72.861 E27.95785
G1 X117.778 Y72.861 E27.99108
G1 X122.057 Y77.139 E28.30753
G1 X121.421 Y77.139 E28.34076
G1 X117.143 Y72.861 E28.65721
G1 X116.507 Y72.861 E28.69044
G1 X120.786 Y77.139 E29.00689
G1 X120.151 Y77.139 E29.04012
G1 X115.872 Y72.861 E29.35657
G1 X115.237 Y72.861 E29.38979
G1 X119.515 Y77.139 E29.70625
G1 X118.880 Y77.139 E29.73947
G1 X114.601 Y72.861 E30.05593
G1 X113.966 Y72.861 E30.08915
G1 X118.245 Y77.139 E30.40561
G1 X117.609 Y77.139 E30.43883
G1 X113.331 Y72.861 E30.75528
G1 X112.695 Y72.861 E30.78851
G1 X116.974 Y77.139 E31.10496
G1 X116.339 Y77.139 E31.13819
G1 X112.060 Y72.861 E31.45464
G1 X111.425 Y72.861 E31.48787
G1 X115.703 Y77.139 E31.80432
G1 X115.068 Y77.139 E31.83755
G1 X110.789 Y72.861 E32.15400
G1 X110.154 Y72.861 E32.18723
G1 X114.433 Y77.139 E32.50368
G1 X113.797 Y77.139 E32.53690
G1 X109.519 Y72.861 E32.85336
G1 X108.883 Y72.861 E32.88658
G1 X113.162 Y77.139 E33.20304
G1 X112.527 Y77.139 E33.23626
G1 X108.248 Y72.861 E33.55272
G1 X107.613 Y72.861 E33.58594
G1 X111.891 Y77.139 E33.90239
G1 X111.256 Y77.139 E33.93562
G1 X106.977 Y72.861 E34.25207
G1 X106.342 Y72.861 E34.28530
G1 X110.621 Y77.139 E34.60175
G1 X109.985 Y77.139 E34.63498
G1 X105.707 Y72.861 E34.95143
G1 X105.071 Y72.861 E34.98466
G1 X109.350 Y77.139 E35.30111
G1 X108.715 Y77.139 E35.33434
G1 X104.436 Y72.861 E35.65079
G1 X103.801 Y72.861 E35.68401
G1 X108.080 Y77.139 E36.00047
G1 X107.444 Y77.139 E36.03369
G1 X103.165 Y72.861 E36.35015
G1 X102.530 Y72.861 E36.38337
G1 X106.809 Y77.139 E36.69983
G1 X106.174 Y77.139 E36.73305
G1 X101.895 Y72.861 E37.04950
G1 X101.259 Y72.861 E37.08273
G1 X105.538 Y77.139 E37.39918
G1 X104.903 Y77.139 E37.43241
G1 X100.861 Y73.097 E37.73137
G1 X100.861 Y73.732 E37.76460
G1 X104.268 Y77.139 E38.01657
G1 X103.632 Y77.139 E38.04979
G1 X100.861 Y74.368 E38.25478
G1 X100.861 Y75.003 E38.28800
G1 X102.997 Y77.139 E38.44600
G1 X102.362 Y77.139 E38.47923
G1 X100.861 Y75.638 E38.59024
G1 X100.861 Y76.274 E38.62346
G1 X101.726 Y77.139 E38.68748
G1 X101.091 Y77.139 E38.72071
G1 X100.861 Y76.909 E38.73774
G1 F5760
G1 X101.091 Y77.139 E38.54436
G1 F5760
G1 X101.726 Y77.139 E38.16714
G1 F5760
G1 X100.861 Y76.274 E37.44028
G1 F5760
G1 X100.861 Y75.638 E37.06305
G1 F5760
G1 X101.129 Y75.907 E36.83774
G1 E36.73774 F3600.00000
G92 E0
G1 Z0.280 F7200.000
M104 S215 ; set temperature
G1 Z0.520 F7200.000
G1 X149.364 Y77.364 F7200.000
G1 E2.00000 F3600.00000
G1 X100.636 Y77.364 E4.54578 F2100.000
G1 X100.636 Y72.636 E4.79279
G1 X149.364 Y72.636 E7.33858
G1 X149.364 Y77.304 E7.58245
G1 X149.800 Y77.800 F7200.000
G1 X100.200 Y77.800 E9.30720 F1050.000
G1 X100.200 Y72.200 E9.50192
G1 X149.800 Y72.200 E11.22667
G1 X149.800 Y77.740 E11.41931
G1 X149.454 Y77.600 F7200.000
G1 X148.788 Y77.050 F7200.000
G1 X149.050 Y76.788 E11.43890 F1200.000
G1 X149.050 Y76.039 E11.47847
G1 X148.039 Y77.050 E11.55403
G1 X147.290 Y77.050 E11.59360
G1 X149.050 Y75.290 E11.72512
G1 X149.050 Y74.541 E11.76470
G1 X146.541 Y77.050 E11.95218
G1 X145.792 Y77.050 E11.99176
G1 X149.050 Y73.792 E12.23521
G1 X149.050 Y73.043 E12.27478
G1 X145.043 Y77.050 E12.57420
G1 X144.294 Y77.050 E12.61377
G1 X148.394 Y72.950 E12.92015
G1 X147.645 Y72.950 E12.95973
G1 X143.545 Y77.050 E13.26611
G1 X142.796 Y77.050 E13.30568
G1 X146.896 Y72.950 E13.61207
G1 X146.148 Y72.950 E13.65164
G1 X142.048 Y77.050 E13.95802
G1 X141.299 Y77.050 E13.99760
G1 X145.399 Y72.950 E14.30398
G1 X144.650 Y72.950 E14.34355
G1 X140.550 Y77.050 E14.64994
G1 X139.801 Y77.050 E14.68951
G1 X143.901 Y72.950 E14.99589
G1 X143.152 Y72.950 E15.03546
G1 X139.052 Y77.050 E15.34185
G1 X138.303 Y77.050 E15.38142
G1 X142.403 Y72.950 E15.68780
G1 X141.654 Y72.950 E15.72738
G1 X137.554 Y77.050 E16.03376
G1 X136.805 Y77.050 E16.07333
G1 X140.905 Y72.950 E16.37972
G1 X140.156 Y72.950 E16.41929
G1 X136.056 Y77.050 E16.72567
G1 X135.307 Y77.050 E16.76525
G1 X139.407 Y72.950 E17.07163
G1 X138.658 Y72.950 E17.11120
G1 X134.558 Y77.050 E17.41759
G1 X133.809 Y77.050 E17.45716
G1 X137.909 Y72.950 E17.76354
G1 X137.160 Y72.950 E17.80311
G1 X133.060 Y77.050 E18.10950
G1 X132.312 Y77.050 E18.14907
G1 X136.411 Y72.950 E18.45545
G1 X135.663 Y72.950 E18.49503
G1 X131.563 Y77.050 E18.80141
G1 X130.814 Y77.050 E18.84098
G1 X134.914 Y72.950 E19.14737
G1 X134.165 Y72.950 E19.18694
G1 X130.065 Y77.050 E19.49332
G1 X129.316 Y77.050 E19.53290
G1 X133.416 Y72.950 E19.83928
G1 X132.667 Y72.950 E19.87885
G1 X128.567 Y77.050 E20.18523
G1 X127.818 Y77.050 E20.22481
G1 X131.918 Y72.950 E20.53119
G1 X131.169 Y72.950 E20.57076
G1 X127.069 Y77.050 E20.87715
G1 X126.320 Y77.050 E20.91672
G1 X130.420 Y72.950 E21.22310
G1 X129.671 Y72.950 E21.26268
G1 X125.571 Y77.050 E21.56906
G1 X124.822 Y77.050 E21.60863
G1 X128.922 Y72.950 E21.91502
G1 X128.173 Y72.950 E21.95459
G1 X124.073 Y77.050 E22.26097
G1 X123.324 Y77.050 E22.30054
G1 X127.424 Y72.950 E22.60693
G1 X126.675 Y72.950 E22.64650
G1 X122.576 Y77.050 E22.95288
G1 X121.827 Y77.050 E22.99246
G1 X125.927 Y72.950 E23.29884
G1 X125.178 Y72.950 E23.33841
G1 X121.078 Y77.050 E23.64480
G1 X120.329 Y77.050 E23.68437
G1 X124.429 Y72.950 E23.99075
G1 X123.680 Y72.950 E24.03032
G1 X119.580 Y77.050 E24.33671
G1 X118.831 Y77.050 E24.37628
G1 X122.931 Y72.950 E24.68266
G1 X122.182 Y72.950 E24.72224
G1 X118.082 Y77.050 E25.02862
G1 X117.333 Y77.050 E25.06819
G1 X121.433 Y72.950 E25.37458
G1 X120.684 Y72.950 E25.41415
G1 X116.584 Y77.050 E25.72053
G1 X115.835 Y77.050 E25.76011
G1 X119.935 Y72.950 E26.06649
G1 X119.186 Y72.950 E26.10606
G1 X115.086 Y77.050 E26.41244
G1 X114.337 Y77.050 E26.45202
G1 X118.437 Y72.950 E26.75840
G1 X117.688 Y72.950 E26.79797
G1 X113.588 Y77.050 E27.10436
G1 X112.839 Y77.050 E27.14393
G1 X116.939 Y72.950 E27.45031
G1 X116.191 Y72.950 E27.48989
G1 X112.091 Y77.050 E27.79627
G1 X111.342 Y77.050 E27.83584
G1 X115.442 Y72.950 E28.14223
G1 X114.693 Y72.950 E28.18180
G1 X110.593 Y77.050 E28.48818
G1 X109.844 Y77.050 E28.52776
G1 X113.944 Y72.950 E28.83414
G1 X113.195 Y72.950 E28.87371
G1 X109.095 Y77.050 E29.18009
G1 X108.346 Y77.050 E29.21967
G1 X112.446 Y72.950 E29.52605
G1 X111.697 Y72.950 E29.56562
G1 X107.597 Y77.050 E29.87201
G1 X106.848 Y77.050 E29.91158
G1 X110.948 Y72.950 E30.21796
G1 X110.199 Y72.950 E30.25754
G1 X106.099 Y77.050 E30.56392
G1 X105.350 Y77.050 E30.60349
G1 X109.450 Y72.950 E30.90988
G1 X108.701 Y72.950 E30.94945
G1 X104.601 Y77.050 E31.25583
G1 X103.852 Y77.050 E31.29540
G1 X107.952 Y72.950 E31.60179
G1 X107.203 Y72.950 E31.64136
G1 X103.103 Y77.050 E31.94774
G1 X102.355 Y77.050 E31.98732
G1 X106.455 Y72.950 E32.29370
G1 X105.706 Y72.950 E32.33327
G1 X101.606 Y77.050 E32.63966
G1 X100.950 Y76.957 E32.67465
G1 X104.957 Y72.950 E32.97406
G1 X104.208 Y72.950 E33.01363
G1 X100.950 Y76.208 E33.25708
G1 X100.950 Y75.459 E33.29665
G1 X103.459 Y72.950 E33.48413
G1 X102.710 Y72.950 E33.52371
G1 X100.950 Y74.710 E33.65522
G1 X100.950 Y73.961 E33.69479
G1 X101.961 Y72.950 E33.77034
G1 X101.212 Y72.950 E33.80992
G1 X100.950 Y73.212 E33.82950
G1 F5760
G1 X101.212 Y72.950 E33.60945
G1 F5760
G1 X101.961 Y72.950 E33.16477
G1 F5760
G1 X100.950 Y73.961 E32.31585
G1 F5760
G1 X100.950 Y74.612 E31.92950
G1 E31.82950 F3600.00000
G92 E0
G1 Z0.760 F7200.000
G1 X149.364 Y77.364 F7200.000
G1 E2.00000 F3600.00000
G1 X100.636 Y77.364 E4.54578 F2100.000
G1 X100.636 Y72.636 E4.79279
G1 X149.364 Y72.636 E7.33858
G1 X149.364 Y77.304 E7.58245
G1 X149.800 Y77.800 F7200.000
G1 X100.200 Y77.800 E9.30720 F1050.000
G1 X100.200 Y72.200 E9.50192
G1 X149.800 Y72.200 E11.22667
G1 X149.800 Y77.740 E11.41931
G1 X149.454 Y77.600 F7200.000
G1 F5760
G1 X146.600 Y77.744 E9.51931
G1 E9.41931 F3600.00000
G92 E0
G1 X149.050 Y73.212 F7200.000
G1 E2.00000 F3600.00000
G1 X148.788 Y72.950 E2.01959 F1200.000
G1 X148.039 Y72.950 E2.05916
G1 X149.050 Y73.961 E2.13472
G1 X149.050 Y74.710 E2.17429
G1 X147.290 Y72.950 E2.30581
