; generated by Slic3r 1.2.9 on 2018-05-13 at 19:40:47

; external perimeters extrusion width = 0.40mm
; perimeters extrusion width = 0.58mm
; infill extrusion width = 0.58mm
; solid infill extrusion width = 0.58mm
; top infill extrusion width = 0.58mm
; support material extrusion width = 0.40mm

M104 S220 ; set temperature
;G28 ; home all axes
G1 Z10 F5000 ; lift nozzle

M104 S220 ; set temperature
M116 ; wait for temperature to be reached
G21 ; set units to millimeters
G90 ; use absolute coordinates
M82 ; use absolute distances for extrusion
G92 E0
G1 E-2.00000 F3600.00000
G92 E0
G1 Z0.280 F7200.000
G1 X90.199 Y61.706 F7200.000
G1 E2.00000 F3600.00000
G1 X90.660 Y61.067 E2.04116 F1200.000
G1 X91.529 Y59.959 E2.11472
G1 X92.047 Y59.366 E2.15588
G1 X93.016 Y58.344 E2.22944
G1 X93.588 Y57.803 E2.27060
G1 X94.648 Y56.876 E2.34416
G1 X95.268 Y56.390 E2.38532
G1 X95.991 Y55.859 E2.43219
G1 X96.634 Y55.418 E2.47294
G1 X97.843 Y54.680 E2.54691
G1 X98.533 Y54.296 E2.58817
G1 X99.797 Y53.680 E2.66163
G1 X100.519 Y53.363 E2.70284
G1 X101.836 Y52.867 E2.77635
G1 X102.584 Y52.619 E2.81755
G1 X103.942 Y52.249 E2.89107
G1 X104.710 Y52.072 E2.93223
G1 X106.097 Y51.830 E3.00579
G1 X106.879 Y51.726 E3.04700
G1 X108.281 Y51.615 E3.12051
G1 X109.071 Y51.585 E3.16179
G1 X140.614 Y51.585 E4.80976
G1 X141.511 Y51.606 E4.85663 F1200.000
G1 X142.298 Y51.649 E4.89780
G1 X143.697 Y51.802 E4.97135
G1 X144.478 Y51.919 E5.01259
G1 X145.856 Y52.202 E5.08607
G1 X146.621 Y52.391 E5.12725
G1 X147.967 Y52.802 E5.20079
G1 X148.712 Y53.063 E5.24203
G1 X150.013 Y53.598 E5.31551
G1 X150.730 Y53.927 E5.35672
G1 X151.975 Y54.581 E5.43023
G1 X152.658 Y54.976 E5.47142
G1 X153.837 Y55.744 E5.54495
G1 X154.480 Y56.201 E5.58618
G1 X155.581 Y57.077 E5.65967
G1 X156.178 Y57.591 E5.70084
G1 X157.194 Y58.566 E5.77439
G1 X157.739 Y59.134 E5.81555
G1 X158.659 Y60.200 E5.88911
G1 X159.149 Y60.817 E5.93027
G1 X159.965 Y61.965 E6.00383
G1 X160.396 Y62.625 E6.04499
G1 X161.101 Y63.843 E6.11855
G1 X161.467 Y64.541 E6.15971
G1 X162.055 Y65.820 E6.23327
G1 X162.355 Y66.549 E6.27447
G1 X162.820 Y67.878 E6.34799
G1 X163.050 Y68.632 E6.38918
G1 X163.389 Y69.998 E6.46271
G1 X163.547 Y70.770 E6.50391
G1 X163.757 Y72.162 E6.57743
G1 X163.842 Y72.937 E6.61818
G1 X163.932 Y74.862 E6.71883
G1 X163.920 Y75.649 E6.75999
G1 X163.842 Y77.055 E6.83355
G1 X163.757 Y77.838 E6.87471
G1 X163.547 Y79.231 E6.94827
G1 X163.389 Y80.002 E6.98943
G1 X163.050 Y81.369 E7.06299
G1 X162.820 Y82.122 E7.10415
G1 X162.355 Y83.451 E7.17771
G1 X162.055 Y84.180 E7.21887
G1 X161.467 Y85.459 E7.29243
G1 X161.101 Y86.157 E7.33359
G1 X160.396 Y87.375 E7.40715
G1 X159.965 Y88.035 E7.44831
G1 X159.149 Y89.183 E7.52187
G1 X158.659 Y89.800 E7.56303
G1 X157.740 Y90.866 E7.63658
G1 X157.194 Y91.434 E7.67775
G1 X156.178 Y92.409 E7.75131
G1 X155.581 Y92.923 E7.79246
G1 X154.479 Y93.799 E7.86603
G1 X153.837 Y94.256 E7.90718
G1 X152.657 Y95.025 E7.98075
G1 X151.975 Y95.419 E8.02191
G1 X150.729 Y96.074 E8.09547
G1 X150.013 Y96.402 E8.13662
G1 X148.710 Y96.938 E8.21019
G1 X147.967 Y97.198 E8.25134
G1 X146.620 Y97.609 E8.32490
G1 X145.856 Y97.798 E8.36607
G1 X144.978 Y97.986 E8.41294
G1 X143.697 Y98.198 E8.48078
G1 X142.298 Y98.351 E8.55434
G1 X141.511 Y98.394 E8.59550
G1 X140.359 Y98.418 E8.65572
G1 X109.324 Y98.418 E10.27712
G1 X108.281 Y98.385 E10.33162
G1 X106.878 Y98.274 E10.40518
G1 X106.097 Y98.170 E10.44634
G1 X105.212 Y98.023 E10.49321
G1 X103.942 Y97.751 E10.56105
G1 X103.074 Y97.523 E10.60792
G1 X102.319 Y97.298 E10.64908
G1 X100.994 Y96.824 E10.72264
G1 X99.797 Y96.320 E10.79048
G1 X98.987 Y95.933 E10.83735
G1 X98.287 Y95.572 E10.87851
G1 X96.641 Y94.586 E10.97876
G1 X95.991 Y94.141 E11.01992
G1 X94.863 Y93.298 E11.09348
G1 X94.258 Y92.794 E11.13464
G1 X93.588 Y92.197 E11.18151
G1 X93.021 Y91.661 E11.22229
G1 X92.047 Y90.634 E11.29623
G1 X91.528 Y90.040 E11.33745
G1 X90.660 Y88.933 E11.41095
G1 X90.199 Y88.294 E11.45211
G1 X89.438 Y87.109 E11.52567
G1 X89.039 Y86.430 E11.56683
G1 X88.392 Y85.179 E11.64039
G1 X88.058 Y84.466 E11.68155
G1 X87.531 Y83.160 E11.75511
G1 X87.266 Y82.418 E11.79628
G1 X86.864 Y81.069 E11.86983
G1 X86.562 Y79.806 E11.93766
G1 X86.311 Y78.420 E12.01123
G1 X86.213 Y77.639 E12.05238
G1 X86.093 Y76.236 E12.12595
G1 X86.068 Y75.449 E12.16711
G1 X86.080 Y74.041 E12.24066
G1 X86.129 Y73.254 E12.28183
G1 X86.213 Y72.361 E12.32870
G1 X86.311 Y71.580 E12.36985
G1 X86.562 Y70.194 E12.44342
G1 X86.864 Y68.931 E12.51126
G1 X87.266 Y67.582 E12.58482
G1 X87.531 Y66.840 E12.62598
G1 X88.058 Y65.534 E12.69954
G1 X88.392 Y64.821 E12.74070
G1 X89.039 Y63.570 E12.81426
G1 X89.438 Y62.891 E12.85541
G1 X90.166 Y61.756 E12.92584
G1 X90.567 Y61.963 F7200.000
G1 X91.015 Y61.341 E12.96590 F1200.000
G1 X91.871 Y60.249 E13.03836
G1 X92.375 Y59.672 E13.07842
G1 X93.329 Y58.665 E13.15089
G1 X93.886 Y58.138 E13.19094
G1 X94.930 Y57.225 E13.26341
G1 X95.533 Y56.752 E13.30346
G1 X96.257 Y56.221 E13.35034
G1 X96.883 Y55.791 E13.39002
G1 X98.073 Y55.065 E13.46286
G1 X98.745 Y54.692 E13.50302
G1 X99.990 Y54.085 E13.57538
G1 X100.693 Y53.777 E13.61549
G1 X101.990 Y53.288 E13.68790
G1 X102.719 Y53.047 E13.72800
G1 X104.056 Y52.682 E13.80042
G1 X104.804 Y52.511 E13.84048
G1 X106.170 Y52.273 E13.91294
G1 X106.931 Y52.172 E13.95306
G1 X108.313 Y52.063 E14.02547
G1 X109.081 Y52.033 E14.06565
G1 X140.603 Y52.033 E15.71252
G1 X141.500 Y52.054 E15.75939 F1200.000
G1 X142.266 Y52.097 E15.79946
G1 X143.645 Y52.248 E15.87191
G1 X144.404 Y52.362 E15.91205
G1 X145.762 Y52.641 E15.98443
G1 X146.506 Y52.825 E16.02451
G1 X147.832 Y53.230 E16.09695
G1 X148.557 Y53.484 E16.13709
G1 X149.839 Y54.011 E16.20948
G1 X150.536 Y54.332 E16.24958
G1 X151.763 Y54.977 E16.32200
G1 X152.427 Y55.361 E16.36209
G1 X153.589 Y56.118 E16.43452
G1 X154.215 Y56.563 E16.47464
G1 X155.299 Y57.426 E16.54704
G1 X155.880 Y57.927 E16.58711
G1 X156.880 Y58.887 E16.65956
G1 X157.411 Y59.440 E16.69962
G1 X158.317 Y60.491 E16.77208
G1 X158.794 Y61.091 E16.81214
G1 X159.597 Y62.222 E16.88460
G1 X160.016 Y62.864 E16.92466
G1 X160.710 Y64.065 E16.99712
G1 X161.067 Y64.743 E17.03718
G1 X161.645 Y66.004 E17.10965
G1 X161.937 Y66.714 E17.14974
G1 X162.395 Y68.022 E17.22217
G1 X162.619 Y68.756 E17.26226
G1 X162.952 Y70.102 E17.33469
G1 X163.107 Y70.854 E17.37479
G1 X163.312 Y72.225 E17.44721
G1 X163.395 Y72.979 E17.48686
G1 X163.483 Y74.862 E17.58531
G1 X163.472 Y75.628 E17.62537
G1 X163.395 Y77.013 E17.69784
G1 X163.312 Y77.775 E17.73789
G1 X163.106 Y79.147 E17.81036
G1 X162.952 Y79.898 E17.85042
G1 X162.619 Y81.244 E17.92288
G1 X162.395 Y81.978 E17.96294
G1 X161.937 Y83.287 E18.03540
G1 X161.645 Y83.996 E18.07546
G1 X161.067 Y85.256 E18.14792
G1 X160.710 Y85.935 E18.18798
G1 X160.016 Y87.136 E18.26044
G1 X159.597 Y87.778 E18.30050
G1 X158.794 Y88.909 E18.37296
G1 X158.317 Y89.509 E18.41302
G1 X157.411 Y90.560 E18.48548
G1 X156.880 Y91.113 E18.52554
G1 X155.880 Y92.074 E18.59801
G1 X155.299 Y92.574 E18.63806
G1 X154.214 Y93.438 E18.71053
G1 X153.589 Y93.882 E18.75058
G1 X152.427 Y94.639 E18.82305
G1 X151.763 Y95.023 E18.86311
G1 X150.535 Y95.669 E18.93557
G1 X149.839 Y95.989 E18.97562
G1 X148.556 Y96.516 E19.04809
G1 X147.832 Y96.770 E19.08815
G1 X146.506 Y97.175 E19.16061
G1 X145.762 Y97.359 E19.20067
G1 X144.884 Y97.547 E19.24754
G1 X143.645 Y97.752 E19.31318
G1 X142.266 Y97.903 E19.38565
G1 X141.500 Y97.946 E19.42570
G1 X140.359 Y97.970 E19.48537
G1 X109.324 Y97.970 E21.10677
G1 X108.313 Y97.937 E21.15963
G1 X106.930 Y97.828 E21.23209
G1 X106.170 Y97.727 E21.27215
G1 X105.285 Y97.581 E21.31902
G1 X104.056 Y97.318 E21.38466
G1 X103.189 Y97.089 E21.43154
G1 X102.454 Y96.870 E21.47160
G1 X101.148 Y96.403 E21.54406
G1 X99.990 Y95.915 E21.60970
G1 X99.181 Y95.528 E21.65657
G1 X98.500 Y95.176 E21.69663
G1 X96.889 Y94.213 E21.79468
G1 X96.257 Y93.779 E21.83473
G1 X95.145 Y92.949 E21.90720
G1 X94.556 Y92.458 E21.94726
G1 X93.886 Y91.862 E21.99413
G1 X93.335 Y91.340 E22.03381
G1 X92.375 Y90.328 E22.10665
G1 X91.870 Y89.750 E22.14677
G1 X91.015 Y88.659 E22.21917
G1 X90.567 Y88.037 E22.25923
G1 X89.817 Y86.870 E22.33169
G1 X89.429 Y86.209 E22.37176
G1 X88.792 Y84.977 E22.44421
G1 X88.468 Y84.282 E22.48427
G1 X87.949 Y82.996 E22.55674
G1 X87.691 Y82.273 E22.59681
G1 X87.295 Y80.944 E22.66926
G1 X87.003 Y79.722 E22.73490
G1 X86.756 Y78.357 E22.80736
G1 X86.659 Y77.597 E22.84742
G1 X86.541 Y76.215 E22.91988
G1 X86.517 Y75.449 E22.95994
G1 X86.528 Y74.062 E23.03240
G1 X86.575 Y73.296 E23.07246
G1 X86.659 Y72.403 E23.11934
G1 X86.756 Y71.643 E23.15939
G1 X87.003 Y70.278 E23.23186
G1 X87.295 Y69.056 E23.29750
G1 X87.691 Y67.726 E23.36996
G1 X87.949 Y67.004 E23.41002
G1 X88.468 Y65.718 E23.48248
G1 X88.792 Y65.023 E23.52254
G1 X89.429 Y63.791 E23.59500
G1 X89.817 Y63.130 E23.63506
G1 X90.534 Y62.013 E23.70439
G1 F5760
G1 X91.015 Y61.341 E23.21353
G1 F5760
G1 X91.871 Y60.249 E22.39001
G1 F5760
G1 X92.375 Y59.672 E21.93476
G1 F5760
G1 X92.526 Y59.513 E21.80439
G1 E21.70439 F3600.00000
G92 E0
G1 X125.092 Y70.284 F7200.000
G1 E2.00000 F3600.00000
G1 X125.380 Y70.049 E2.01943 F1200.000
G1 X125.452 Y69.946 E2.02602
G1 X125.499 Y69.809 E2.03358
G1 X125.499 Y69.655 E2.04159
G1 X125.711 Y69.182 E2.06871
G1 X125.887 Y68.669 E2.09701
G1 X125.992 Y68.557 E2.10502
G1 X126.051 Y68.425 E2.11259
G1 X126.065 Y68.273 E2.12059
G1 X126.330 Y67.803 E2.14875
G1 X126.544 Y67.328 E2.17599
G1 X126.659 Y67.226 E2.18401
G1 X126.730 Y67.100 E2.19158
G1 X126.758 Y66.949 E2.19958
G1 X127.067 Y66.506 E2.22779
G1 X127.324 Y66.053 E2.25500
G1 X127.448 Y65.963 E2.26302
G1 X127.530 Y65.844 E2.27058
G1 X127.573 Y65.697 E2.27858
G1 X127.922 Y65.284 E2.30682
G1 X128.220 Y64.857 E2.33401
G1 X128.351 Y64.779 E2.34202
G1 X128.445 Y64.668 E2.34958
G1 X128.501 Y64.526 E2.35758
G1 X128.886 Y64.148 E2.38577
G1 X129.223 Y63.751 E2.41299
G1 X129.362 Y63.685 E2.42101
G1 X129.465 Y63.584 E2.42858
G1 X129.534 Y63.447 E2.43658
G1 X129.954 Y63.107 E2.46479
G1 X130.326 Y62.743 E2.49200
G1 X130.470 Y62.690 E2.50001
G1 X130.583 Y62.599 E2.50758
G1 X130.665 Y62.469 E2.51558
G1 X131.114 Y62.170 E2.54379
G1 X131.519 Y61.843 E2.57100
G1 X131.667 Y61.804 E2.57901
G1 X131.788 Y61.724 E2.58657
G1 X131.881 Y61.602 E2.59457
G1 X132.356 Y61.346 E2.62276
G1 X132.790 Y61.058 E2.64998
G1 X132.942 Y61.033 E2.65800
G1 X133.070 Y60.965 E2.66557
G1 X133.174 Y60.853 E2.67357
G1 X133.652 Y60.651 E2.70071
G1 X134.130 Y60.396 E2.72900
G1 X134.283 Y60.386 E2.73700
G1 X134.416 Y60.329 E2.74456
G1 X134.531 Y60.228 E2.75256
G1 X135.045 Y60.065 E2.78076
G1 X135.525 Y59.863 E2.80798
G1 X135.679 Y59.866 E2.81600
G1 X135.817 Y59.823 E2.82356
G1 X135.940 Y59.732 E2.83156
G1 X136.468 Y59.618 E2.85976
G1 X136.965 Y59.462 E2.88698
G1 X137.117 Y59.480 E2.89499
G1 X137.259 Y59.450 E2.90255
G1 X137.390 Y59.371 E2.91056
G1 X137.925 Y59.307 E2.93872
G1 X138.435 Y59.198 E2.96596
G1 X138.585 Y59.230 E2.97399
G1 X138.729 Y59.213 E2.98155
G1 X138.867 Y59.147 E2.98955
G1 X139.407 Y59.134 E3.01776
G1 X139.924 Y59.073 E3.04498
G1 X140.071 Y59.119 E3.05299
G1 X140.215 Y59.116 E3.06056
G1 X140.359 Y59.063 E3.06856
G1 X140.899 Y59.100 E3.09680
G1 X141.419 Y59.088 E3.12399
G1 X141.560 Y59.147 E3.13199
G1 X141.704 Y59.158 E3.13955
G1 X141.852 Y59.118 E3.14755
G1 X142.384 Y59.206 E3.17573
G1 X142.904 Y59.242 E3.20296
G1 X143.039 Y59.315 E3.21098
G1 X143.182 Y59.339 E3.21855
G1 X143.333 Y59.313 E3.22655
G1 X143.856 Y59.450 E3.25477
G1 X144.370 Y59.535 E3.28197
G1 X144.497 Y59.620 E3.28998
G1 X144.637 Y59.657 E3.29755
G1 X144.790 Y59.646 E3.30555
G1 X145.297 Y59.831 E3.33373
G1 X145.801 Y59.964 E3.36095
G1 X145.920 Y60.061 E3.36898
G1 X146.056 Y60.111 E3.37655
G1 X146.209 Y60.114 E3.38455
G1 X146.697 Y60.346 E3.41276
G1 X147.186 Y60.526 E3.43997
G1 X147.295 Y60.633 E3.44798
G1 X147.426 Y60.695 E3.45554
G1 X147.578 Y60.713 E3.46354
G1 X148.041 Y60.989 E3.49174
G1 X148.512 Y61.214 E3.51896
G1 X148.611 Y61.331 E3.52697
G1 X148.735 Y61.405 E3.53454
G1 X148.885 Y61.437 E3.54254
G1 X149.320 Y61.756 E3.57073
G1 X149.767 Y62.023 E3.59795
G1 X149.855 Y62.149 E3.60597
G1 X149.972 Y62.235 E3.61354
G1 X150.118 Y62.281 E3.62154
G1 X150.522 Y62.639 E3.64975
G1 X150.942 Y62.947 E3.67696
G1 X151.017 Y63.081 E3.68497
G1 X151.126 Y63.177 E3.69254
G1 X151.267 Y63.236 E3.70054
G1 X151.635 Y63.630 E3.72872
G1 X152.025 Y63.976 E3.75594
G1 X152.087 Y64.116 E3.76396
G1 X152.186 Y64.222 E3.77153
G1 X152.321 Y64.295 E3.77953
G1 X152.651 Y64.721 E3.80769
G1 X153.006 Y65.102 E3.83493
G1 X153.055 Y65.248 E3.84296
G1 X153.144 Y65.363 E3.85053
G1 X153.272 Y65.447 E3.85853
G1 X153.560 Y65.903 E3.88670
G1 X153.878 Y66.316 E3.91393
G1 X153.914 Y66.465 E3.92196
G1 X153.991 Y66.588 E3.92953
G1 X154.110 Y66.684 E3.93753
G1 X154.355 Y67.164 E3.96569
G1 X154.633 Y67.605 E3.99293
G1 X154.654 Y67.758 E4.00096
G1 X154.719 Y67.887 E4.00853
G1 X154.829 Y67.994 E4.01653
G1 X155.027 Y68.495 E4.04468
G1 X155.263 Y68.960 E4.07193
G1 X155.270 Y69.113 E4.07996
G1 X155.323 Y69.248 E4.08753
G1 X155.422 Y69.365 E4.09553
G1 X155.573 Y69.883 E4.12372
G1 X155.764 Y70.368 E4.15094
G1 X155.756 Y70.521 E4.15896
G1 X155.797 Y70.660 E4.16653
G1 X155.884 Y70.786 E4.17453
G1 X155.986 Y71.316 E4.20272
G1 X156.131 Y71.816 E4.22994
G1 X156.109 Y71.968 E4.23796
G1 X156.136 Y72.111 E4.24553
G1 X156.211 Y72.244 E4.25353
G1 X156.263 Y72.781 E4.28172
G1 X156.360 Y73.293 E4.30894
G1 X156.324 Y73.442 E4.31696
G1 X156.338 Y73.586 E4.32453
G1 X156.401 Y73.726 E4.33253
G1 X156.402 Y74.265 E4.36069
G1 X156.450 Y74.784 E4.38793
G1 X156.401 Y74.929 E4.39595
G1 X156.401 Y75.074 E4.40352
G1 X156.450 Y75.219 E4.41152
G1 X156.401 Y75.756 E4.43970
G1 X156.401 Y76.277 E4.46692
G1 X156.337 Y76.417 E4.47495
G1 X156.324 Y76.562 E4.48252
G1 X156.360 Y76.710 E4.49052
G1 X156.260 Y77.240 E4.51865
G1 X156.211 Y77.759 E4.54591
G1 X156.135 Y77.893 E4.55394
G1 X156.108 Y78.035 E4.56151
G1 X156.130 Y78.187 E4.56952
G1 X155.981 Y78.705 E4.59767
G1 X155.884 Y79.217 E4.62491
G1 X155.796 Y79.343 E4.63295
G1 X155.755 Y79.482 E4.64052
G1 X155.763 Y79.635 E4.64852
G1 X155.566 Y80.136 E4.67664
G1 X155.422 Y80.638 E4.70391
G1 X155.322 Y80.755 E4.71194
G1 X155.269 Y80.890 E4.71952
G1 X155.262 Y81.043 E4.72752
G1 X155.019 Y81.524 E4.75567
G1 X154.828 Y82.009 E4.78292
G1 X154.718 Y82.116 E4.79095
G1 X154.652 Y82.245 E4.79852
G1 X154.631 Y82.397 E4.80652
G1 X154.344 Y82.853 E4.83467
G1 X154.109 Y83.319 E4.86192
G1 X153.989 Y83.415 E4.86995
G1 X153.912 Y83.538 E4.87752
G1 X153.876 Y83.687 E4.88552
G1 X153.548 Y84.114 E4.91367
G1 X153.270 Y84.555 E4.94092
G1 X153.142 Y84.640 E4.94895
G1 X153.053 Y84.755 E4.95652
G1 X153.004 Y84.900 E4.96452
G1 X152.637 Y85.295 E4.99269
G1 X152.319 Y85.708 E5.01992
G1 X152.184 Y85.780 E5.02795
G1 X152.085 Y85.886 E5.03552
G1 X152.022 Y86.026 E5.04352
G1 X151.621 Y86.384 E5.07165
G1 X151.265 Y86.766 E5.09891
G1 X151.123 Y86.825 E5.10694
G1 X151.015 Y86.922 E5.11452
G1 X150.939 Y87.055 E5.12252
G1 X150.505 Y87.375 E5.15068
G1 X150.116 Y87.721 E5.17792
G1 X149.969 Y87.767 E5.18595
G1 X149.852 Y87.853 E5.19351
G1 X149.765 Y87.978 E5.20152
G1 X149.303 Y88.256 E5.22966
G1 X148.882 Y88.564 E5.25691
G1 X148.732 Y88.596 E5.26494
G1 X148.608 Y88.671 E5.27252
G1 X148.509 Y88.788 E5.28052
G1 X148.023 Y89.021 E5.30869
G1 X147.575 Y89.288 E5.33592
G1 X147.423 Y89.306 E5.34395
G1 X147.292 Y89.369 E5.35152
G1 X147.182 Y89.476 E5.35952
G1 X146.677 Y89.662 E5.38769
G1 X146.206 Y89.887 E5.41492
G1 X146.053 Y89.890 E5.42295
G1 X145.917 Y89.940 E5.43052
G1 X145.798 Y90.037 E5.43852
G1 X145.276 Y90.175 E5.46671
G1 X144.787 Y90.355 E5.49393
G1 X144.634 Y90.344 E5.50195
G1 X144.494 Y90.380 E5.50951
G1 X144.366 Y90.465 E5.51751
G1 X143.836 Y90.554 E5.54562
G1 X143.331 Y90.687 E5.57290
G1 X143.179 Y90.662 E5.58094
G1 X143.036 Y90.686 E5.58851
G1 X142.901 Y90.758 E5.59651
G1 X142.363 Y90.797 E5.62471
G1 X141.849 Y90.882 E5.65193
G1 X141.701 Y90.843 E5.65995
G1 X141.556 Y90.853 E5.66751
G1 X141.415 Y90.912 E5.67551
G1 X140.875 Y90.901 E5.70372
G1 X140.356 Y90.937 E5.73093
G1 X140.212 Y90.884 E5.73895
G1 X140.067 Y90.881 E5.74651
G1 X139.921 Y90.927 E5.75451
G1 X139.384 Y90.865 E5.78274
G1 X138.864 Y90.852 E5.80994
G1 X138.726 Y90.786 E5.81795
G1 X138.582 Y90.769 E5.82551
