; generated by Slic3r 1.2.9 on 2018-05-13 at 19:19:03

; external perimeters extrusion width = 0.40mm
; perimeters extrusion width = 0.58mm
; infill extrusion width = 0.58mm
; solid infill extrusion width = 0.58mm
; top infill extrusion width = 0.58mm
; support material extrusion width = 0.40mm

M104 S220 ; set temperature
;G28 ; home all axes
G1 Z10 F5000 ; lift nozzle

M104 S220 ; set temperature
M116 ; wait for temperature to be reached
G21 ; set units to millimeters
G90 ; use absolute coordinates
M82 ; use absolute distances for extrusion
G92 E0
G1 E-2.00000 F3600.00000
G92 E0
G1 Z0.280 F7200.000
G1 X104.172 Y50.229 F7200.000
G1 E2.00000 F3600.00000
G1 X104.949 Y48.708 E2.08919 F1200.000
G1 X105.344 Y48.037 E2.12988
G1 X105.800 Y47.313 E2.17456
G1 X106.135 Y46.812 E2.20608
G1 X106.543 Y46.249 E2.24241
G1 X107.065 Y45.571 E2.28710
G1 X107.620 Y44.899 E2.33262
G1 X108.784 Y43.650 E2.42183
G1 X109.417 Y43.048 E2.46748
G1 X110.056 Y42.480 E2.51217
G1 X110.517 Y42.091 E2.54365
G1 X111.066 Y41.663 E2.58002
G1 X111.756 Y41.157 E2.62470
G1 X112.475 Y40.666 E2.67021
G1 X113.939 Y39.789 E2.75937
G1 X114.716 Y39.386 E2.80508
G1 X115.487 Y39.018 E2.84977
G1 X116.038 Y38.772 E2.88129
G1 X116.684 Y38.514 E2.91762
G1 X117.487 Y38.219 E2.96230
G1 X118.314 Y37.947 E3.00782
G1 X119.967 Y37.511 E3.09709
G1 X120.822 Y37.339 E3.14268
G1 X121.666 Y37.200 E3.18737
G1 X122.530 Y37.086 E3.23288
G1 X123.809 Y36.988 E3.29990
G1 X124.414 Y36.961 E3.33155
G1 X125.107 Y36.957 E3.36775
G1 X125.962 Y36.977 E3.41244 F1200.000
G1 X126.832 Y37.027 E3.45794
G1 X128.107 Y37.168 E3.52497
G1 X128.968 Y37.299 E3.57049
G1 X130.224 Y37.560 E3.63751
G1 X131.069 Y37.771 E3.68302
G1 X132.296 Y38.148 E3.75004
G1 X133.117 Y38.437 E3.79556
G1 X134.303 Y38.927 E3.86258
G1 X135.011 Y39.251 E3.90327
G1 X136.228 Y39.891 E3.97511
G1 X136.902 Y40.279 E4.01575
G1 X138.055 Y41.030 E4.08764
G1 X138.623 Y41.432 E4.12397
G1 X139.102 Y41.799 E4.15549
G1 X140.226 Y42.728 E4.23168
G1 X140.738 Y43.199 E4.26802
G1 X141.713 Y44.168 E4.33986
G1 X142.235 Y44.747 E4.38056
G1 X143.115 Y45.803 E4.45240
G1 X143.580 Y46.428 E4.49309
G1 X144.308 Y47.484 E4.56010
G1 X144.763 Y48.227 E4.60562
G1 X145.387 Y49.345 E4.67250
G1 X145.771 Y50.129 E4.71816
G1 X146.288 Y51.300 E4.78499
G1 X146.597 Y52.118 E4.83069
G1 X147.002 Y53.333 E4.89759
G1 X147.234 Y54.175 E4.94322
G1 X147.523 Y55.422 E5.01008
G1 X147.674 Y56.283 E5.05576
G1 X147.794 Y57.129 E5.10044
G1 X147.864 Y57.729 E5.13196
G1 X147.916 Y58.422 E5.16829
G1 X147.968 Y59.796 E5.24014
G1 X147.968 Y90.296 E6.83358
G1 X147.916 Y91.578 E6.90061
G1 X147.846 Y92.446 E6.94611
G1 X147.606 Y94.140 E7.03549
G1 X147.432 Y94.993 E7.08099
G1 X147.127 Y96.237 E7.14791
G1 X146.873 Y97.072 E7.19352
G1 X146.387 Y98.451 E7.26987
G1 X145.771 Y99.871 E7.35073
G1 X145.388 Y100.653 E7.39624
G1 X144.545 Y102.141 E7.48559
G1 X144.070 Y102.871 E7.53111
G1 X143.166 Y104.131 E7.61212
G1 X142.235 Y105.253 E7.68832
G1 X141.649 Y105.899 E7.73384
G1 X140.426 Y107.094 E7.82319
G1 X139.767 Y107.664 E7.86869
G1 X138.623 Y108.569 E7.94490
G1 X137.343 Y109.443 E8.02590
G1 X136.601 Y109.900 E8.07142
G1 X135.475 Y110.514 E8.13844
G1 X134.694 Y110.900 E8.18396
G1 X133.117 Y111.563 E8.27331
G1 X132.296 Y111.852 E8.31882
G1 X131.069 Y112.229 E8.38585
G1 X130.224 Y112.440 E8.43135
G1 X128.968 Y112.701 E8.49837
G1 X128.107 Y112.832 E8.54388
G1 X126.832 Y112.973 E8.61091
G1 X125.962 Y113.023 E8.65642
G1 X124.680 Y113.045 E8.72340
G1 X123.809 Y113.012 E8.76895
G1 X122.438 Y112.904 E8.84079
G1 X121.666 Y112.800 E8.88148
G1 X120.230 Y112.547 E8.95768
G1 X119.553 Y112.389 E8.99401
G1 X118.059 Y111.974 E9.07502
G1 X116.684 Y111.486 E9.15122
G1 X116.038 Y111.228 E9.18757
G1 X114.716 Y110.614 E9.26375
G1 X114.023 Y110.257 E9.30444
G1 X112.837 Y109.561 E9.37629
G1 X112.105 Y109.089 E9.42179
G1 X111.066 Y108.337 E9.48882
G1 X110.381 Y107.798 E9.53433
G1 X109.417 Y106.952 E9.60135
G1 X108.786 Y106.352 E9.64686
G1 X107.905 Y105.419 E9.71389
G1 X107.333 Y104.762 E9.75941
G1 X106.543 Y103.751 E9.82642
G1 X106.035 Y103.043 E9.87195
G1 X105.124 Y101.600 E9.96114
G1 X104.703 Y100.834 E10.00680
G1 X104.058 Y99.526 E10.08299
G1 X103.471 Y98.090 E10.16401
G1 X103.180 Y97.269 E10.20952
G1 X102.705 Y95.626 E10.29888
G1 X102.514 Y94.776 E10.34439
G1 X102.354 Y93.936 E10.38908
G1 X102.221 Y93.075 E10.43459
G1 X102.061 Y91.377 E10.52371
G1 X102.031 Y90.502 E10.56945
G1 X102.031 Y59.498 E12.18923
G1 X102.055 Y58.720 E12.22993
G1 X102.172 Y57.350 E12.30177
G1 X102.270 Y56.574 E12.34260
G1 X102.514 Y55.224 E12.41430
G1 X102.705 Y54.374 E12.45981
G1 X103.053 Y53.139 E12.52683
G1 X103.323 Y52.311 E12.57234
G1 X103.785 Y51.114 E12.63937
G1 X104.146 Y50.283 E12.68673
G1 X104.577 Y50.423 F7200.000
G1 X105.341 Y48.927 E12.77454 F1200.000
G1 X106.179 Y47.553 E12.85863
G1 X106.899 Y46.523 E12.92427
G1 X107.421 Y45.845 E12.96895
G1 X107.960 Y45.192 E13.01319
G1 X109.100 Y43.969 E13.10057
G1 X109.715 Y43.383 E13.14493
G1 X110.354 Y42.815 E13.18962
G1 X111.331 Y42.025 E13.25526
G1 X112.021 Y41.519 E13.29995
G1 X112.720 Y41.042 E13.34417
G1 X114.154 Y40.183 E13.43151
G1 X114.909 Y39.791 E13.47593
G1 X115.681 Y39.423 E13.52061
G1 X116.839 Y38.935 E13.58625
G1 X117.642 Y38.640 E13.63094
G1 X118.446 Y38.376 E13.67518
G1 X120.064 Y37.949 E13.76261
G1 X120.896 Y37.782 E13.80692
G1 X121.740 Y37.642 E13.85161
G1 X122.579 Y37.532 E13.89584
G1 X123.840 Y37.435 E13.96194
G1 X125.097 Y37.406 E14.02758
G1 X125.952 Y37.426 E14.07227 F1200.000
G1 X126.797 Y37.474 E14.11649
G1 X128.054 Y37.614 E14.18260
G1 X128.891 Y37.741 E14.22684
G1 X130.130 Y37.999 E14.29294
G1 X130.952 Y38.204 E14.33717
G1 X132.161 Y38.576 E14.40327
G1 X132.960 Y38.857 E14.44751
G1 X134.129 Y39.340 E14.51361
G1 X134.815 Y39.655 E14.55302
G1 X136.016 Y40.286 E14.62394
G1 X136.669 Y40.663 E14.66331
G1 X137.807 Y41.404 E14.73428
G1 X138.358 Y41.793 E14.76951
G1 X139.485 Y42.685 E14.84461
G1 X139.997 Y43.124 E14.87984
G1 X140.424 Y43.520 E14.91026
G1 X141.442 Y44.535 E14.98536
G1 X141.892 Y45.037 E15.02060
G1 X142.809 Y46.141 E15.09558
G1 X143.212 Y46.684 E15.13093
G1 X143.980 Y47.804 E15.20185
G1 X144.372 Y48.448 E15.24126
G1 X144.988 Y49.551 E15.30723
G1 X145.362 Y50.313 E15.35160
G1 X145.872 Y51.468 E15.41752
G1 X146.173 Y52.263 E15.46193
G1 X146.572 Y53.461 E15.52792
G1 X146.797 Y54.279 E15.57227
G1 X147.083 Y55.509 E15.63821
G1 X147.230 Y56.346 E15.68260
G1 X147.350 Y57.192 E15.72729
G1 X147.468 Y58.443 E15.79293
G1 X147.520 Y59.800 E15.86385
G1 X147.519 Y90.293 E17.45694
G1 X147.468 Y91.557 E17.52304
G1 X147.400 Y92.400 E17.56727
G1 X147.165 Y94.059 E17.65481
G1 X146.996 Y94.889 E17.69903
G1 X146.647 Y96.283 E17.77413
G1 X146.173 Y97.737 E17.85404
G1 X145.873 Y98.529 E17.89825
G1 X145.362 Y99.687 E17.96437
G1 X144.989 Y100.447 E18.00860
G1 X144.163 Y101.904 E18.09612
G1 X143.702 Y102.614 E18.14035
G1 X143.212 Y103.316 E18.18504
G1 X142.705 Y103.993 E18.22928
G1 X141.892 Y104.963 E18.29537
G1 X141.323 Y105.590 E18.33962
G1 X140.125 Y106.761 E18.42713
G1 X139.485 Y107.315 E18.47136
G1 X138.358 Y108.207 E18.54647
G1 X137.094 Y109.069 E18.62637
G1 X136.374 Y109.513 E18.67060
G1 X134.901 Y110.303 E18.75793
G1 X134.129 Y110.660 E18.80235
G1 X132.959 Y111.143 E18.86846
G1 X132.161 Y111.424 E18.91268
G1 X130.862 Y111.821 E18.98361
G1 X130.130 Y112.001 E19.02302
G1 X128.800 Y112.274 E19.09394
G1 X128.054 Y112.386 E19.13335
G1 X126.625 Y112.539 E19.20846
G1 X125.952 Y112.574 E19.24369
G1 X124.422 Y112.591 E19.32359
G1 X122.987 Y112.505 E19.39870
G1 X122.316 Y112.438 E19.43394
G1 X120.896 Y112.218 E19.50903
G1 X120.158 Y112.072 E19.54831
G1 X118.840 Y111.737 E19.61936
G1 X118.029 Y111.493 E19.66359
G1 X116.839 Y111.065 E19.72970
G1 X116.054 Y110.747 E19.77392
G1 X114.909 Y110.209 E19.84003
G1 X114.158 Y109.819 E19.88426
G1 X113.068 Y109.176 E19.95037
G1 X112.356 Y108.717 E19.99459
G1 X111.331 Y107.975 E20.06070
G1 X110.666 Y107.451 E20.10494
G1 X109.715 Y106.617 E20.17104
G1 X109.102 Y106.033 E20.21526
G1 X108.233 Y105.113 E20.28137
G1 X107.677 Y104.474 E20.32562
G1 X106.899 Y103.477 E20.39171
G1 X106.405 Y102.789 E20.43595
G1 X105.513 Y101.375 E20.52331
G1 X105.103 Y100.631 E20.56769
G1 X104.467 Y99.342 E20.64278
G1 X103.889 Y97.926 E20.72270
G1 X103.606 Y97.128 E20.76693
G1 X103.140 Y95.519 E20.85445
G1 X102.955 Y94.693 E20.89868
G1 X102.795 Y93.852 E20.94337
G1 X102.665 Y93.016 E20.98761
G1 X102.509 Y91.352 E21.07490
G1 X102.480 Y90.502 E21.11935
G1 X102.480 Y59.498 E22.73913
G1 X102.504 Y58.744 E22.77854
G1 X102.619 Y57.392 E22.84946
G1 X102.713 Y56.644 E22.88885
G1 X102.955 Y55.307 E22.95980
G1 X103.140 Y54.481 E23.00403
G1 X103.484 Y53.264 E23.07013
G1 X103.746 Y52.459 E23.11436
G1 X104.202 Y51.278 E23.18047
G1 X104.551 Y50.478 E23.22609
G1 F5760
G1 X105.341 Y48.927 E22.19257
G1 F5760
G1 X106.101 Y47.681 E21.32609
G1 E21.22609 F3600.00000
G92 E0
G1 X120.320 Y74.700 F7200.000
G1 E2.00000 F3600.00000
G1 X119.681 Y74.436 E2.03610 F1200.000
G1 X119.237 Y74.292 E2.06051
G1 X119.136 Y74.212 E2.06724
G1 X118.868 Y74.099 E2.08246
G1 X118.740 Y74.083 E2.08917
G1 X118.330 Y73.867 E2.11339
G1 X117.917 Y73.690 E2.13687
G1 X117.824 Y73.600 E2.14360
G1 X117.567 Y73.462 E2.15883
G1 X117.442 Y73.434 E2.16556
G1 X117.052 Y73.181 E2.18986
G1 X116.659 Y72.966 E2.21323
G1 X116.575 Y72.868 E2.21997
G1 X116.333 Y72.707 E2.23519
G1 X116.210 Y72.668 E2.24191
G1 X115.861 Y72.389 E2.26526
G1 X115.475 Y72.128 E2.28960
G1 X115.400 Y72.023 E2.29633
G1 X115.174 Y71.840 E2.31155
G1 X115.056 Y71.789 E2.31824
G1 X114.722 Y71.469 E2.34245
G1 X114.374 Y71.183 E2.36596
G1 X114.310 Y71.071 E2.37269
G1 X114.101 Y70.868 E2.38791
G1 X113.989 Y70.806 E2.39462
G1 X113.686 Y70.455 E2.41885
G1 X113.367 Y70.139 E2.44232
G1 X113.313 Y70.022 E2.44905
G1 X113.125 Y69.800 E2.46426
G1 X113.019 Y69.728 E2.47096
G1 X112.750 Y69.350 E2.49517
G1 X112.461 Y69.005 E2.51868
G1 X112.419 Y68.883 E2.52541
G1 X112.252 Y68.645 E2.54062
G1 X112.154 Y68.563 E2.54730
G1 X111.922 Y68.163 E2.57145
G1 X111.666 Y67.791 E2.59504
G1 X111.635 Y67.666 E2.60177
G1 X111.492 Y67.413 E2.61698
G1 X111.401 Y67.323 E2.62368
G1 X111.207 Y66.902 E2.64787
G1 X110.988 Y66.509 E2.67140
G1 X110.969 Y66.381 E2.67813
G1 X110.850 Y66.116 E2.69333
G1 X110.768 Y66.017 E2.70001
G1 X110.615 Y65.581 E2.72415
G1 X110.433 Y65.168 E2.74776
G1 X110.427 Y65.039 E2.75449
G1 X110.333 Y64.763 E2.76972
G1 X110.260 Y64.657 E2.77644
G1 X110.148 Y64.206 E2.80071
G1 X110.007 Y63.781 E2.82412
G1 X110.012 Y63.652 E2.83085
G1 X109.944 Y63.369 E2.84605
G1 X109.882 Y63.258 E2.85273
G1 X109.813 Y62.801 E2.87685
G1 X109.711 Y62.360 E2.90048
G1 X109.729 Y62.233 E2.90721
G1 X109.688 Y61.945 E2.92240
G1 X109.637 Y61.828 E2.92907
G1 X109.611 Y61.367 E2.95319
G1 X109.551 Y60.918 E2.97683
G1 X109.580 Y60.793 E2.98357
G1 X109.566 Y60.503 E2.99876
G1 X109.526 Y60.382 E3.00542
G1 X109.543 Y59.921 E3.02950
G1 X109.525 Y59.468 E3.05319
G1 X109.566 Y59.346 E3.05992
G1 X109.580 Y59.055 E3.07514
G1 X109.551 Y58.930 E3.08184
G1 X109.612 Y58.470 E3.10607
G1 X109.636 Y58.021 E3.12955
G1 X109.688 Y57.903 E3.13628
G1 X109.729 Y57.615 E3.15148
G1 X109.712 Y57.489 E3.15815
G1 X109.815 Y57.039 E3.18227
G1 X109.882 Y56.591 E3.20591
G1 X109.945 Y56.479 E3.21264
G1 X110.013 Y56.195 E3.22786
G1 X110.008 Y56.067 E3.23459
G1 X110.153 Y55.626 E3.25885
G1 X110.261 Y55.190 E3.28227
G1 X110.334 Y55.084 E3.28900
G1 X110.428 Y54.809 E3.30421
G1 X110.435 Y54.681 E3.31089
G1 X110.620 Y54.258 E3.33505
G1 X110.769 Y53.831 E3.35863
G1 X110.852 Y53.733 E3.36536
G1 X110.971 Y53.467 E3.38055
G1 X110.990 Y53.341 E3.38721
G1 X111.213 Y52.938 E3.41130
G1 X111.402 Y52.526 E3.43499
G1 X111.494 Y52.435 E3.44172
G1 X111.638 Y52.182 E3.45693
G1 X111.668 Y52.058 E3.46363
G1 X111.930 Y51.675 E3.48783
G1 X112.155 Y51.286 E3.51134
G1 X112.255 Y51.204 E3.51808
G1 X112.421 Y50.965 E3.53329
G1 X112.464 Y50.844 E3.53997
G1 X112.759 Y50.489 E3.56413
G1 X113.020 Y50.121 E3.58770
G1 X113.127 Y50.049 E3.59443
G1 X113.316 Y49.827 E3.60965
G1 X113.369 Y49.711 E3.61633
G1 X113.697 Y49.385 E3.64048
G1 X113.991 Y49.043 E3.66406
G1 X114.104 Y48.981 E3.67079
G1 X114.312 Y48.778 E3.68598
G1 X114.376 Y48.668 E3.69264
G1 X114.732 Y48.374 E3.71671
G1 X115.059 Y48.060 E3.74042
G1 X115.177 Y48.009 E3.74715
G1 X115.403 Y47.826 E3.76235
G1 X115.477 Y47.722 E3.76902
G1 X115.860 Y47.463 E3.79315
G1 X116.214 Y47.182 E3.81677
G1 X116.336 Y47.142 E3.82351
G1 X116.579 Y46.981 E3.83871
G1 X116.662 Y46.884 E3.84538
G1 X117.067 Y46.662 E3.86950
G1 X117.445 Y46.415 E3.89313
G1 X117.571 Y46.387 E3.89986
G1 X117.828 Y46.250 E3.91507
G1 X117.920 Y46.161 E3.92177
G1 X118.345 Y45.977 E3.94596
G1 X118.744 Y45.767 E3.96949
G1 X118.872 Y45.752 E3.97622
G1 X119.140 Y45.638 E3.99145
G1 X119.241 Y45.558 E3.99816
G1 X119.682 Y45.415 E4.02240
G1 X120.097 Y45.244 E4.04585
G1 X120.226 Y45.240 E4.05258
G1 X120.504 Y45.153 E4.06780
G1 X120.611 Y45.083 E4.07449
G1 X121.063 Y44.982 E4.09867
G1 X121.493 Y44.850 E4.12221
G1 X121.622 Y44.858 E4.12894
G1 X121.907 Y44.797 E4.14416
G1 X122.020 Y44.737 E4.15086
G1 X122.479 Y44.679 E4.17504
G1 X122.921 Y44.588 E4.19857
G1 X123.048 Y44.608 E4.20530
G1 X123.338 Y44.574 E4.22055
G1 X123.457 Y44.525 E4.22730
G1 X123.905 Y44.511 E4.25072
G1 X124.366 Y44.461 E4.27494
G1 X124.491 Y44.493 E4.28167
G1 X124.782 Y44.486 E4.29688
G1 X124.904 Y44.449 E4.30355
G1 X125.365 Y44.477 E4.32768
G1 X125.817 Y44.470 E4.35130
G1 X125.938 Y44.514 E4.35803
G1 X126.229 Y44.534 E4.37324
G1 X126.354 Y44.508 E4.37992
G1 X126.811 Y44.580 E4.40407
G1 X127.261 Y44.615 E4.42765
G1 X127.377 Y44.670 E4.43438
G1 X127.665 Y44.717 E4.44960
G1 X127.792 Y44.703 E4.45629
G1 X128.241 Y44.817 E4.48049
G1 X128.684 Y44.894 E4.50401
G1 X128.795 Y44.960 E4.51075
G1 X129.077 Y45.034 E4.52596
G1 X129.205 Y45.032 E4.53265
G1 X129.641 Y45.187 E4.55684
G1 X130.076 Y45.306 E4.58037
G1 X130.180 Y45.381 E4.58711
G1 X130.453 Y45.481 E4.60231
G1 X130.581 Y45.491 E4.60899
G1 X131.000 Y45.687 E4.63312
G1 X131.423 Y45.845 E4.65673
G1 X131.519 Y45.930 E4.66346
G1 X131.782 Y46.056 E4.67866
G1 X131.908 Y46.078 E4.68533
G1 X132.306 Y46.311 E4.70945
G1 X132.713 Y46.509 E4.73309
G1 X132.801 Y46.603 E4.73982
G1 X133.051 Y46.752 E4.75504
G1 X133.175 Y46.786 E4.76173
G1 X133.550 Y47.056 E4.78591
G1 X133.935 Y47.291 E4.80945
G1 X134.015 Y47.392 E4.81618
G1 X134.250 Y47.565 E4.83141
G1 X134.370 Y47.610 E4.83814
G1 X134.706 Y47.904 E4.86148
G1 X135.079 Y48.183 E4.88581
G1 X135.149 Y48.292 E4.89254
G1 X135.366 Y48.485 E4.90777
G1 X135.482 Y48.542 E4.91448
G1 X135.802 Y48.878 E4.93874
G1 X136.134 Y49.179 E4.96218
G1 X136.193 Y49.294 E4.96891
G1 X136.392 Y49.507 E4.98414
G1 X136.502 Y49.574 E4.99086
G1 X136.789 Y49.939 E5.01514
G1 X137.092 Y50.269 E5.03854
G1 X137.140 Y50.389 E5.04527
G1 X137.318 Y50.620 E5.06049
G1 X137.421 Y50.696 E5.06719
G1 X137.671 Y51.086 E5.09141
G1 X137.943 Y51.444 E5.11490
G1 X137.980 Y51.568 E5.12163
G1 X138.135 Y51.814 E5.13683
G1 X138.230 Y51.900 E5.14352
G1 X138.442 Y52.310 E5.16767
G1 X138.680 Y52.694 E5.19126
G1 X138.705 Y52.820 E5.19799
G1 X138.837 Y53.080 E5.21320
G1 X138.923 Y53.174 E5.21987
G1 X139.096 Y53.602 E5.24400
G1 X139.297 Y54.007 E5.26761
G1 X139.310 Y54.135 E5.27435
G1 X139.417 Y54.406 E5.28956
G1 X139.494 Y54.508 E5.29625
G1 X139.627 Y54.951 E5.32039
G1 X139.789 Y55.372 E5.34397
G1 X139.790 Y55.501 E5.35070
G1 X139.870 Y55.781 E5.36591
G1 X139.938 Y55.889 E5.37259
G1 X140.028 Y56.342 E5.39673
G1 X140.150 Y56.777 E5.42033
G1 X140.139 Y56.906 E5.42706
G1 X140.193 Y57.192 E5.44228
G1 X140.250 Y57.307 E5.44897
G1 X140.298 Y57.767 E5.47314
G1 X140.378 Y58.210 E5.49669
G1 X140.355 Y58.337 E5.50342
G1 X140.382 Y58.627 E5.51864
G1 X140.428 Y58.747 E5.52533
G1 X140.433 Y59.210 E5.54952
G1 X140.472 Y59.658 E5.57305
G1 X140.437 Y59.782 E5.57978
G1 X140.436 Y60.073 E5.59499
G1 X140.471 Y60.197 E5.60168
G1 X140.432 Y60.658 E5.62587
G1 X140.429 Y61.109 E5.64941
G1 X140.382 Y61.229 E5.65614
G1 X140.355 Y61.519 E5.67137
G1 X140.378 Y61.646 E5.67809
G1 X140.295 Y62.102 E5.70235
G1 X140.250 Y62.548 E5.72577
G1 X140.192 Y62.664 E5.73251
G1 X140.138 Y62.950 E5.74771
G1 X140.149 Y63.077 E5.75440
G1 X140.025 Y63.523 E5.77857
G1 X139.937 Y63.965 E5.80213
