; generated by Slic3r 1.2.9 on 2018-05-13 at 20:58:35

; external perimeters extrusion width = 0.40mm
; perimeters extrusion width = 0.58mm
; infill extrusion width = 0.58mm
; solid infill extrusion width = 0.58mm
; top infill extrusion width = 0.58mm
; support material extrusion width = 0.40mm

M104 S220 ; set temperature
;G28 ; home all axes
G1 Z10 F5000 ; lift nozzle

M104 S220 ; set temperature
M116 ; wait for temperature to be reached
G21 ; set units to millimeters
G90 ; use absolute coordinates
M82 ; use absolute distances for extrusion
G92 E0
G1 E-2.00000 F3600.00000
G92 E0
G1 Z0.280 F7200.000
G1 X90.199 Y61.706 F7200.000
G1 E2.00000 F3600.00000
G1 X90.660 Y61.067 E2.03951 F1200.000
G1 X91.528 Y59.959 E2.11013
G1 X92.047 Y59.366 E2.14964
G1 X93.016 Y58.344 E2.22026
G1 X93.588 Y57.803 E2.25977
G1 X94.648 Y56.876 E2.33039
G1 X95.268 Y56.390 E2.36991
G1 X95.991 Y55.859 E2.41490
G1 X96.636 Y55.417 E2.45414
G1 X97.843 Y54.680 E2.52503
G1 X98.533 Y54.297 E2.56465
G1 X99.797 Y53.680 E2.63516
G1 X100.518 Y53.363 E2.67468
G1 X101.836 Y52.867 E2.74530
G1 X102.584 Y52.619 E2.78481
G1 X103.942 Y52.249 E2.85543
G1 X104.710 Y52.072 E2.89494
G1 X106.097 Y51.830 E2.96556
G1 X106.878 Y51.726 E3.00507
G1 X108.281 Y51.615 E3.07569
G1 X109.070 Y51.585 E3.11528
G1 X140.614 Y51.585 E4.69737
G1 X141.511 Y51.606 E4.74237 F1200.000
G1 X142.299 Y51.649 E4.78196
G1 X143.697 Y51.802 E4.85250
G1 X144.479 Y51.919 E4.89212
G1 X145.856 Y52.202 E4.96263
G1 X146.623 Y52.392 E5.00226
G1 X147.967 Y52.802 E5.07276
G1 X148.713 Y53.063 E5.11240
G1 X150.013 Y53.598 E5.18289
G1 X150.729 Y53.926 E5.22240
G1 X151.975 Y54.581 E5.29302
G1 X152.658 Y54.976 E5.33258
G1 X153.837 Y55.744 E5.40316
G1 X154.480 Y56.201 E5.44274
G1 X155.581 Y57.077 E5.51329
G1 X156.180 Y57.593 E5.55292
G1 X157.194 Y58.566 E5.62342
G1 X157.739 Y59.134 E5.66293
G1 X158.659 Y60.200 E5.73355
G1 X159.149 Y60.817 E5.77306
G1 X159.965 Y61.965 E5.84368
G1 X160.396 Y62.625 E5.88319
G1 X161.101 Y63.843 E5.95381
G1 X161.468 Y64.541 E5.99336
G1 X162.055 Y65.820 E6.06394
G1 X162.355 Y66.551 E6.10358
G1 X162.820 Y67.878 E6.17407
G1 X163.050 Y68.631 E6.21358
G1 X163.389 Y69.998 E6.28420
G1 X163.548 Y70.771 E6.32379
G1 X163.757 Y72.162 E6.39433
G1 X163.842 Y72.939 E6.43356
G1 X163.932 Y74.862 E6.53008
G1 X163.920 Y75.649 E6.56959
G1 X163.842 Y77.055 E6.64021
G1 X163.757 Y77.838 E6.67972
G1 X163.547 Y79.231 E6.75034
G1 X163.389 Y80.002 E6.78985
G1 X163.050 Y81.369 E6.86047
G1 X162.820 Y82.122 E6.89998
G1 X162.355 Y83.451 E6.97060
G1 X162.055 Y84.180 E7.01011
G1 X161.467 Y85.459 E7.08073
G1 X161.101 Y86.157 E7.12025
G1 X160.396 Y87.375 E7.19086
G1 X159.965 Y88.035 E7.23038
G1 X159.150 Y89.183 E7.30099
G1 X158.659 Y89.800 E7.34051
G1 X157.740 Y90.866 E7.41112
G1 X157.194 Y91.434 E7.45064
G1 X156.178 Y92.409 E7.52126
G1 X155.581 Y92.923 E7.56077
G1 X154.479 Y93.799 E7.63139
G1 X153.837 Y94.256 E7.67090
G1 X152.657 Y95.025 E7.74152
G1 X151.975 Y95.419 E7.78103
G1 X150.729 Y96.074 E7.85165
G1 X150.013 Y96.402 E7.89116
G1 X148.710 Y96.938 E7.96179
G1 X147.967 Y97.198 E8.00129
G1 X146.620 Y97.609 E8.07191
G1 X145.856 Y97.798 E8.11142
G1 X144.978 Y97.986 E8.15642
G1 X143.697 Y98.198 E8.22155
G1 X142.297 Y98.351 E8.29217
G1 X141.511 Y98.394 E8.33168
G1 X140.359 Y98.418 E8.38949
G1 X109.324 Y98.418 E9.94603
G1 X108.281 Y98.385 E9.99836
G1 X106.878 Y98.274 E10.06897
G1 X106.097 Y98.170 E10.10849
G1 X105.212 Y98.023 E10.15348
G1 X103.942 Y97.751 E10.21861
G1 X103.074 Y97.523 E10.26361
G1 X102.319 Y97.298 E10.30312
G1 X100.518 Y96.637 E10.39935
G1 X99.797 Y96.320 E10.43887
G1 X98.987 Y95.933 E10.48386
G1 X97.843 Y95.320 E10.54899
G1 X96.641 Y94.586 E10.61961
G1 X95.991 Y94.141 E10.65912
G1 X94.863 Y93.298 E10.72974
G1 X94.258 Y92.794 E10.76925
G1 X93.588 Y92.197 E10.81425
G1 X93.016 Y91.656 E10.85376
G1 X92.047 Y90.634 E10.92438
G1 X91.527 Y90.039 E10.96398
G1 X90.660 Y88.933 E11.03451
G1 X90.199 Y88.294 E11.07402
G1 X89.438 Y87.109 E11.14464
G1 X89.038 Y86.428 E11.18425
G1 X88.392 Y85.179 E11.25477
G1 X88.058 Y84.464 E11.29436
G1 X87.531 Y83.160 E11.36490
G1 X87.266 Y82.418 E11.40441
G1 X86.864 Y81.069 E11.47503
G1 X86.562 Y79.806 E11.54016
G1 X86.311 Y78.420 E11.61078
G1 X86.213 Y77.639 E11.65029
G1 X86.093 Y76.236 E11.72091
G1 X86.068 Y75.449 E11.76042
G1 X86.080 Y74.041 E11.83104
G1 X86.129 Y73.254 E11.87055
G1 X86.213 Y72.361 E11.91555
G1 X86.311 Y71.580 E11.95506
G1 X86.562 Y70.194 E12.02568
G1 X86.864 Y68.931 E12.09081
G1 X87.266 Y67.582 E12.16143
G1 X87.531 Y66.840 E12.20094
G1 X88.058 Y65.534 E12.27156
G1 X88.392 Y64.821 E12.31107
G1 X89.039 Y63.570 E12.38169
G1 X89.438 Y62.891 E12.42120
G1 X90.166 Y61.756 E12.48881
G1 X90.567 Y61.963 F7200.000
G1 X91.015 Y61.341 E12.52727 F1200.000
G1 X91.871 Y60.250 E12.59683
G1 X92.375 Y59.672 E12.63529
G1 X93.329 Y58.665 E12.70485
G1 X93.886 Y58.138 E12.74331
G1 X94.930 Y57.225 E12.81287
G1 X95.533 Y56.752 E12.85133
G1 X96.257 Y56.221 E12.89633
G1 X96.885 Y55.790 E12.93454
G1 X98.073 Y55.065 E13.00435
G1 X98.745 Y54.692 E13.04290
G1 X99.990 Y54.085 E13.11237
G1 X100.692 Y53.777 E13.15082
G1 X101.990 Y53.288 E13.22039
G1 X102.718 Y53.047 E13.25884
G1 X104.056 Y52.682 E13.32841
G1 X104.804 Y52.511 E13.36687
G1 X106.170 Y52.273 E13.43643
G1 X106.930 Y52.172 E13.47488
G1 X108.313 Y52.063 E13.54445
G1 X109.081 Y52.033 E13.58298
G1 X140.603 Y52.033 E15.16402
G1 X141.500 Y52.054 E15.20902 F1200.000
G1 X142.268 Y52.097 E15.24755
G1 X143.645 Y52.248 E15.31704
G1 X144.405 Y52.362 E15.35560
G1 X145.762 Y52.641 E15.42506
G1 X146.508 Y52.826 E15.46363
G1 X147.832 Y53.230 E15.53308
G1 X148.558 Y53.485 E15.57166
G1 X149.839 Y54.011 E15.64110
G1 X150.535 Y54.331 E15.67956
G1 X151.763 Y54.977 E15.74912
G1 X152.428 Y55.361 E15.78761
G1 X153.589 Y56.118 E15.85714
G1 X154.215 Y56.563 E15.89566
G1 X155.299 Y57.426 E15.96516
G1 X155.882 Y57.928 E16.00374
G1 X156.880 Y58.887 E16.07318
G1 X157.411 Y59.440 E16.11164
G1 X158.317 Y60.491 E16.18120
G1 X158.794 Y61.091 E16.21966
G1 X159.597 Y62.222 E16.28922
G1 X160.016 Y62.864 E16.32768
G1 X160.710 Y64.065 E16.39724
G1 X161.067 Y64.744 E16.43574
G1 X161.645 Y66.004 E16.50526
G1 X161.938 Y66.716 E16.54384
G1 X162.395 Y68.022 E16.61328
G1 X162.619 Y68.756 E16.65174
G1 X162.952 Y70.102 E16.72130
G1 X163.107 Y70.855 E16.75984
G1 X163.312 Y72.225 E16.82932
G1 X163.395 Y72.981 E16.86750
G1 X163.483 Y74.862 E16.96190
G1 X163.472 Y75.628 E17.00036
G1 X163.395 Y77.013 E17.06993
G1 X163.312 Y77.775 E17.10838
G1 X163.106 Y79.147 E17.17795
G1 X162.952 Y79.898 E17.21640
G1 X162.619 Y81.244 E17.28597
G1 X162.395 Y81.978 E17.32442
G1 X161.937 Y83.287 E17.39399
G1 X161.645 Y83.996 E17.43244
G1 X161.067 Y85.257 E17.50201
G1 X160.710 Y85.935 E17.54046
G1 X160.016 Y87.136 E17.61002
G1 X159.597 Y87.778 E17.64848
G1 X158.794 Y88.909 E17.71804
G1 X158.317 Y89.509 E17.75650
G1 X157.411 Y90.560 E17.82606
G1 X156.880 Y91.113 E17.86452
G1 X155.880 Y92.074 E17.93409
G1 X155.299 Y92.574 E17.97254
G1 X154.214 Y93.437 E18.04211
G1 X153.589 Y93.882 E18.08056
G1 X152.427 Y94.639 E18.15013
G1 X151.763 Y95.023 E18.18858
G1 X150.535 Y95.669 E18.25815
G1 X149.839 Y95.989 E18.29660
G1 X148.556 Y96.516 E18.36617
G1 X147.832 Y96.770 E18.40462
G1 X146.506 Y97.175 E18.47418
G1 X145.762 Y97.359 E18.51265
G1 X144.884 Y97.547 E18.55764
G1 X143.645 Y97.752 E18.62066
G1 X142.266 Y97.903 E18.69022
G1 X141.500 Y97.946 E18.72868
G1 X140.359 Y97.970 E18.78596
G1 X109.324 Y97.970 E20.34251
G1 X108.313 Y97.937 E20.39325
G1 X107.418 Y97.874 E20.43824
G1 X106.661 Y97.797 E20.47642
G1 X105.285 Y97.581 E20.54626
G1 X104.056 Y97.318 E20.60928
G1 X103.189 Y97.089 E20.65428
G1 X102.454 Y96.870 E20.69274
G1 X100.692 Y96.223 E20.78686
G1 X99.990 Y95.915 E20.82531
G1 X99.181 Y95.528 E20.87031
G1 X98.073 Y94.935 E20.93333
G1 X96.889 Y94.213 E21.00289
G1 X96.257 Y93.779 E21.04135
G1 X95.145 Y92.949 E21.11091
G1 X94.556 Y92.458 E21.14937
G1 X93.886 Y91.862 E21.19437
G1 X93.330 Y91.335 E21.23282
G1 X92.375 Y90.328 E21.30239
G1 X91.870 Y89.749 E21.34093
G1 X91.015 Y88.659 E21.41041
G1 X90.567 Y88.037 E21.44886
G1 X89.817 Y86.870 E21.51843
G1 X89.428 Y86.207 E21.55698
G1 X88.792 Y84.977 E21.62645
G1 X88.467 Y84.281 E21.66497
G1 X87.949 Y82.996 E21.73447
G1 X87.691 Y82.274 E21.77292
G1 X87.295 Y80.944 E21.84249
G1 X87.003 Y79.722 E21.90550
G1 X86.756 Y78.358 E21.97507
G1 X86.659 Y77.597 E22.01352
G1 X86.541 Y76.215 E22.08309
G1 X86.517 Y75.449 E22.12154
G1 X86.528 Y74.062 E22.19111
G1 X86.575 Y73.296 E22.22957
G1 X86.659 Y72.403 E22.27456
G1 X86.756 Y71.643 E22.31302
G1 X87.003 Y70.278 E22.38258
G1 X87.295 Y69.056 E22.44560
G1 X87.691 Y67.726 E22.51516
G1 X87.949 Y67.004 E22.55362
G1 X88.468 Y65.718 E22.62318
G1 X88.792 Y65.023 E22.66164
G1 X89.429 Y63.791 E22.73120
G1 X89.817 Y63.130 E22.76966
G1 X90.534 Y62.013 E22.83621
G1 F5760
G1 X91.015 Y61.341 E22.34533
G1 F5760
G1 X91.871 Y60.250 E21.52186
G1 F5760
G1 X92.375 Y59.672 E21.06657
G1 F5760
G1 X92.526 Y59.513 E20.93621
G1 E20.83621 F3600.00000
G92 E0
G1 X125.092 Y70.284 F7200.000
G1 E2.00000 F3600.00000
G1 X125.380 Y70.049 E2.01866 F1200.000
G1 X125.452 Y69.946 E2.02499
G1 X125.501 Y69.802 E2.03257
G1 X125.501 Y69.650 E2.04021
G1 X125.719 Y69.162 E2.06703
G1 X125.887 Y68.669 E2.09314
G1 X125.992 Y68.557 E2.10082
G1 X126.054 Y68.419 E2.10843
G1 X126.068 Y68.267 E2.11606
G1 X126.330 Y67.803 E2.14281
G1 X126.544 Y67.328 E2.16894
G1 X126.659 Y67.226 E2.17664
G1 X126.733 Y67.094 E2.18423
G1 X126.762 Y66.945 E2.19187
G1 X127.067 Y66.505 E2.21872
G1 X127.324 Y66.053 E2.24481
G1 X127.448 Y65.962 E2.25248
G1 X127.534 Y65.838 E2.26007
G1 X127.577 Y65.692 E2.26770
G1 X127.922 Y65.284 E2.29452
G1 X128.220 Y64.857 E2.32062
G1 X128.351 Y64.779 E2.32831
G1 X128.449 Y64.663 E2.33589
G1 X128.505 Y64.522 E2.34353
G1 X128.887 Y64.147 E2.37035
G1 X129.224 Y63.750 E2.39645
G1 X129.362 Y63.685 E2.40414
G1 X129.470 Y63.579 E2.41172
G1 X129.539 Y63.443 E2.41936
G1 X129.954 Y63.106 E2.44616
G1 X130.326 Y62.743 E2.47227
G1 X130.470 Y62.690 E2.47996
G1 X130.588 Y62.595 E2.48755
G1 X130.669 Y62.466 E2.49519
G1 X131.114 Y62.170 E2.52200
G1 X131.519 Y61.843 E2.54810
G1 X131.667 Y61.804 E2.55579
G1 X131.793 Y61.720 E2.56336
G1 X131.886 Y61.600 E2.57100
G1 X132.356 Y61.346 E2.59779
G1 X132.790 Y61.058 E2.62392
G1 X132.942 Y61.033 E2.63161
G1 X133.076 Y60.962 E2.63923
G1 X133.180 Y60.850 E2.64687
G1 X133.671 Y60.642 E2.67365
G1 X134.130 Y60.396 E2.69976
G1 X134.283 Y60.386 E2.70745
G1 X134.422 Y60.327 E2.71503
G1 X134.536 Y60.226 E2.72266
G1 X135.043 Y60.065 E2.74935
G1 X135.525 Y59.863 E2.77554
G1 X135.679 Y59.867 E2.78326
G1 X135.824 Y59.821 E2.79089
G1 X135.947 Y59.731 E2.79853
G1 X136.467 Y59.618 E2.82525
G1 X136.965 Y59.462 E2.85140
G1 X137.117 Y59.480 E2.85910
G1 X137.265 Y59.448 E2.86670
G1 X137.396 Y59.370 E2.87434
G1 X137.926 Y59.307 E2.90109
G1 X138.435 Y59.198 E2.92723
G1 X138.585 Y59.230 E2.93493
G1 X138.736 Y59.213 E2.94255
G1 X138.874 Y59.147 E2.95018
G1 X139.406 Y59.134 E2.97690
G1 X139.924 Y59.073 E3.00305
G1 X140.070 Y59.119 E3.01076
G1 X140.222 Y59.116 E3.01836
G1 X140.365 Y59.063 E3.02600
G1 X140.898 Y59.100 E3.05280
G1 X141.419 Y59.088 E3.07891
G1 X141.560 Y59.147 E3.08660
G1 X141.711 Y59.158 E3.09421
G1 X141.858 Y59.119 E3.10184
G1 X142.385 Y59.206 E3.12862
G1 X142.905 Y59.242 E3.15474
G1 X143.040 Y59.315 E3.16243
G1 X143.189 Y59.340 E3.17003
G1 X143.339 Y59.315 E3.17766
G1 X143.856 Y59.450 E3.20447
G1 X144.370 Y59.536 E3.23057
G1 X144.497 Y59.620 E3.23826
G1 X144.644 Y59.659 E3.24585
G1 X144.796 Y59.649 E3.25349
G1 X145.298 Y59.832 E3.28030
G1 X145.801 Y59.965 E3.30640
G1 X145.920 Y60.061 E3.31409
G1 X146.062 Y60.113 E3.32170
G1 X146.215 Y60.117 E3.32933
G1 X146.697 Y60.346 E3.35613
G1 X147.186 Y60.526 E3.38223
G1 X147.295 Y60.633 E3.38991
G1 X147.432 Y60.698 E3.39751
G1 X147.583 Y60.716 E3.40514
G1 X148.041 Y60.989 E3.43187
G1 X148.511 Y61.214 E3.45802
G1 X148.610 Y61.331 E3.46573
G1 X148.741 Y61.409 E3.47334
G1 X148.889 Y61.441 E3.48097
G1 X149.320 Y61.756 E3.50774
G1 X149.767 Y62.023 E3.53387
G1 X149.855 Y62.149 E3.54156
G1 X149.978 Y62.239 E3.54919
G1 X150.123 Y62.285 E3.55682
G1 X150.522 Y62.639 E3.58358
G1 X150.942 Y62.947 E3.60970
G1 X151.017 Y63.081 E3.61740
G1 X151.131 Y63.181 E3.62499
G1 X151.271 Y63.240 E3.63263
G1 X151.636 Y63.631 E3.65945
G1 X152.025 Y63.977 E3.68554
G1 X152.087 Y64.117 E3.69323
G1 X152.191 Y64.227 E3.70081
G1 X152.325 Y64.299 E3.70845
G1 X152.651 Y64.721 E3.73518
G1 X153.006 Y65.102 E3.76134
G1 X153.055 Y65.248 E3.76904
G1 X153.148 Y65.368 E3.77665
G1 X153.275 Y65.452 E3.78429
G1 X153.560 Y65.903 E3.81102
G1 X153.878 Y66.316 E3.83717
G1 X153.914 Y66.465 E3.84487
G1 X153.994 Y66.593 E3.85248
G1 X154.113 Y66.689 E3.86011
G1 X154.354 Y67.164 E3.88684
G1 X154.633 Y67.605 E3.91300
G1 X154.654 Y67.758 E3.92071
G1 X154.722 Y67.893 E3.92831
G1 X154.831 Y67.999 E3.93594
G1 X155.028 Y68.496 E3.96272
G1 X155.263 Y68.960 E3.98885
G1 X155.270 Y69.114 E3.99654
G1 X155.325 Y69.254 E4.00414
G1 X155.424 Y69.371 E4.01177
G1 X155.573 Y69.884 E4.03860
G1 X155.764 Y70.368 E4.06470
G1 X155.756 Y70.521 E4.07238
G1 X155.798 Y70.667 E4.07997
G1 X155.886 Y70.792 E4.08761
G1 X155.986 Y71.314 E4.11428
G1 X156.131 Y71.816 E4.14047
G1 X156.109 Y71.968 E4.14819
G1 X156.137 Y72.117 E4.15579
G1 X156.212 Y72.249 E4.16342
G1 X156.263 Y72.781 E4.19023
G1 X156.360 Y73.293 E4.21634
G1 X156.324 Y73.442 E4.22404
G1 X156.338 Y73.592 E4.23160
G1 X156.401 Y73.731 E4.23924
G1 X156.402 Y74.266 E4.26604
G1 X156.450 Y74.784 E4.29217
G1 X156.401 Y74.929 E4.29986
G1 X156.401 Y75.081 E4.30747
G1 X156.450 Y75.225 E4.31510
G1 X156.401 Y75.756 E4.34185
G1 X156.401 Y76.277 E4.36799
G1 X156.337 Y76.417 E4.37569
G1 X156.323 Y76.568 E4.38330
G1 X156.358 Y76.716 E4.39093
G1 X156.260 Y77.239 E4.41758
G1 X156.212 Y77.759 E4.44378
G1 X156.135 Y77.892 E4.45151
G1 X156.107 Y78.042 E4.45913
G1 X156.128 Y78.193 E4.46676
G1 X155.981 Y78.704 E4.49347
G1 X155.884 Y79.217 E4.51964
G1 X155.796 Y79.343 E4.52735
G1 X155.754 Y79.489 E4.53496
G1 X155.761 Y79.641 E4.54260
G1 X155.566 Y80.137 E4.56935
G1 X155.421 Y80.638 E4.59549
G1 X155.322 Y80.755 E4.60319
G1 X155.266 Y80.896 E4.61077
G1 X155.259 Y81.048 E4.61841
G1 X155.020 Y81.523 E4.64508
G1 X154.828 Y82.009 E4.67128
G1 X154.718 Y82.116 E4.67900
G1 X154.650 Y82.251 E4.68661
G1 X154.628 Y82.402 E4.69424
G1 X154.345 Y82.852 E4.72093
G1 X154.109 Y83.318 E4.74712
G1 X153.989 Y83.415 E4.75484
G1 X153.909 Y83.543 E4.76242
G1 X153.873 Y83.691 E4.77006
G1 X153.549 Y84.114 E4.79680
G1 X153.270 Y84.555 E4.82297
G1 X153.142 Y84.640 E4.83068
G1 X153.050 Y84.760 E4.83827
G1 X153.000 Y84.904 E4.84590
G1 X152.637 Y85.295 E4.87266
G1 X152.319 Y85.708 E4.89881
G1 X152.184 Y85.780 E4.90652
G1 X152.081 Y85.891 E4.91410
G1 X152.018 Y86.030 E4.92174
G1 X151.621 Y86.384 E4.94844
G1 X151.265 Y86.766 E4.97462
G1 X151.123 Y86.825 E4.98234
G1 X151.010 Y86.926 E4.98994
G1 X150.935 Y87.058 E4.99758
G1 X150.506 Y87.374 E5.02427
G1 X150.116 Y87.721 E5.05045
G1 X149.969 Y87.767 E5.05817
G1 X149.847 Y87.857 E5.06580
G1 X149.759 Y87.982 E5.07344
G1 X149.303 Y88.256 E5.10011
G1 X148.883 Y88.564 E5.12629
G1 X148.732 Y88.596 E5.13401
G1 X148.602 Y88.674 E5.14162
G1 X148.503 Y88.790 E5.14926
G1 X148.023 Y89.020 E5.17595
G1 X147.576 Y89.288 E5.20213
G1 X147.423 Y89.306 E5.20984
G1 X147.286 Y89.372 E5.21746
G1 X147.177 Y89.478 E5.22510
G1 X146.677 Y89.662 E5.25183
G1 X146.206 Y89.887 E5.27798
G1 X146.053 Y89.890 E5.28568
G1 X145.910 Y89.942 E5.29329
G1 X145.792 Y90.038 E5.30092
G1 X145.278 Y90.175 E5.32759
G1 X144.788 Y90.355 E5.35378
G1 X144.634 Y90.343 E5.36150
G1 X144.487 Y90.382 E5.36912
G1 X144.360 Y90.466 E5.37675
G1 X143.835 Y90.554 E5.40347
G1 X143.331 Y90.687 E5.42963
G1 X143.179 Y90.662 E5.43734
G1 X143.030 Y90.687 E5.44493
G1 X142.896 Y90.759 E5.45257
G1 X142.364 Y90.797 E5.47932
G1 X141.849 Y90.882 E5.50547
G1 X141.701 Y90.843 E5.51318
G1 X141.550 Y90.853 E5.52075
G1 X141.410 Y90.912 E5.52839
G1 X140.877 Y90.901 E5.55511
G1 X140.356 Y90.938 E5.58129
G1 X140.212 Y90.884 E5.58901
G1 X140.061 Y90.881 E5.59659
G1 X139.916 Y90.926 E5.60423
G1 X139.385 Y90.865 E5.63101
G1 X138.864 Y90.853 E5.65715
G1 X138.726 Y90.786 E5.66485
G1 X138.575 Y90.768 E5.67244
