; generated by Slic3r 1.2.9 on 2018-02-16 at 22:06:41

; external perimeters extrusion width = 0.40mm
; perimeters extrusion width = 0.67mm
; infill extrusion width = 0.67mm
; solid infill extrusion width = 0.67mm
; top infill extrusion width = 0.67mm

M104 S210 ; set temperature
;G28 ; home all axes
G1 Z10 F5000 ; lift nozzle

M104 S210 ; set temperature
M116 ; wait for temperature to be reached
G21 ; set units to millimeters
G90 ; use absolute coordinates
M82 ; use absolute distances for extrusion
G92 E0
G1 Z0.200 F7200.000
G1 E-3.00000 F2400.00000
G92 E0
G1 Z0.700 F7200.000
G1 X89.308 Y54.025 F7200.000
G1 Z0.200 F7200.000
G1 E3.00000 F2400.00000
G1 X91.160 Y51.672 E3.15643 F1200.000
G1 X93.567 Y49.891 E3.31286
G1 X96.359 Y48.808 E3.46930
G1 X99.000 Y48.493 E3.60827
G1 X151.000 Y48.493 E6.32501
G1 X153.968 Y48.892 E6.48144
G1 X156.725 Y50.058 E6.63787 F1200.000
G1 X159.078 Y51.910 E6.79431
G1 X160.859 Y54.317 E6.95074
G1 X161.942 Y57.109 E7.10717
G1 X162.257 Y59.750 E7.24615
G1 X162.257 Y62.750 E7.40288
G1 X162.226 Y63.605 E7.44758
G1 X162.047 Y65.081 E7.52525
G1 X161.704 Y66.527 E7.60290
G1 X161.289 Y67.716 E7.66870
G1 X160.987 Y68.411 E7.70828
G1 X148.987 Y93.911 E9.18067
G1 X148.546 Y94.759 E9.23063
G1 X147.874 Y95.828 E9.29658
G1 X146.957 Y96.998 E9.37423
G1 X145.915 Y98.058 E9.45189
G1 X144.761 Y98.994 E9.52951
G1 X143.509 Y99.795 E9.60719
G1 X142.175 Y100.452 E9.68485
G1 X140.777 Y100.954 E9.76250
G1 X139.332 Y101.297 E9.84009
G1 X137.855 Y101.476 E9.91780
G1 X137.000 Y101.507 E9.96250
G1 X113.000 Y101.507 E11.21638
G1 X112.145 Y101.476 E11.26108
G1 X110.890 Y101.335 E11.32704
G1 X109.441 Y101.017 E11.40459
G1 X109.223 Y100.954 E11.41640
G1 X107.824 Y100.452 E11.49406
G1 X106.688 Y99.904 E11.55996
G1 X105.423 Y99.125 E11.63760
G1 X105.239 Y98.994 E11.64938
G1 X104.085 Y98.058 E11.72703
G1 X103.193 Y97.166 E11.79294
G1 X102.257 Y96.012 E11.87054
G1 X101.454 Y94.759 E11.94828
G1 X101.013 Y93.911 E11.99825
G1 X89.013 Y68.411 E13.47064
G1 X88.712 Y67.718 E13.51008
G1 X88.296 Y66.528 E13.57595
G1 X87.953 Y65.082 E13.65360
G1 X87.774 Y63.605 E13.73133
G1 X87.743 Y62.750 E13.77603
G1 X87.743 Y59.750 E13.93277
G1 X88.142 Y56.782 E14.08920
G1 X89.285 Y54.080 E14.24250
G1 X89.875 Y54.338 F7200.000
G1 X89.934 Y54.202 E14.25022 F1200.000
G1 X91.778 Y51.952 E14.40220
G1 X94.163 Y50.286 E14.55419
G1 X96.910 Y49.329 E14.70617
G1 X99.000 Y49.122 E14.81590
G1 X151.000 Y49.122 E17.53264
G1 X153.882 Y49.520 E17.68462
G1 X156.547 Y50.684 E17.83661 F1200.000
G1 X158.798 Y52.528 E17.98859
G1 X160.464 Y54.913 E18.14057
G1 X161.421 Y57.660 E18.29256
G1 X161.628 Y59.750 E18.40229
G1 X161.628 Y62.750 E18.55903
G1 X161.599 Y63.570 E18.60188
G1 X161.428 Y64.976 E18.67587
G1 X161.101 Y66.353 E18.74984
G1 X160.708 Y67.475 E18.81197
G1 X160.419 Y68.143 E18.84999
G1 X148.419 Y93.643 E20.32238
G1 X147.996 Y94.455 E20.37021
G1 X147.361 Y95.464 E20.43248
G1 X146.489 Y96.579 E20.50644
G1 X145.496 Y97.589 E20.58043
G1 X144.398 Y98.481 E20.65437
G1 X143.205 Y99.246 E20.72836
G1 X141.935 Y99.871 E20.80234
G1 X140.603 Y100.351 E20.87631
G1 X139.226 Y100.678 E20.95022
G1 X137.820 Y100.849 E21.02425
G1 X137.000 Y100.878 E21.06711
G1 X113.000 Y100.878 E22.32099
G1 X112.180 Y100.849 E22.36384
G1 X110.996 Y100.716 E22.42612
G1 X109.614 Y100.413 E22.50000
G1 X109.397 Y100.351 E22.51180
G1 X108.065 Y99.871 E22.58578
G1 X106.986 Y99.351 E22.64834
G1 X105.787 Y98.612 E22.72196
G1 X105.603 Y98.482 E22.73374
G1 X104.504 Y97.589 E22.80770
G1 X103.661 Y96.747 E22.86994
G1 X102.769 Y95.649 E22.94387
G1 X102.004 Y94.455 E23.01792
G1 X101.581 Y93.643 E23.06575
G1 X89.581 Y68.143 E24.53814
G1 X89.293 Y67.478 E24.57603
G1 X88.900 Y66.354 E24.63823
G1 X88.572 Y64.977 E24.71219
G1 X88.401 Y63.570 E24.78624
G1 X88.372 Y62.750 E24.82910
G1 X88.372 Y59.750 E24.98583
G1 X88.770 Y56.868 E25.13782
G1 X89.851 Y54.393 E25.27895
G1 E22.27895 F2400.00000
G92 E0
G1 Z0.700 F7200.000
G1 X144.896 Y61.071 F7200.000
G1 Z0.200 F7200.000
G1 E3.00000 F2400.00000
G1 X149.679 Y61.071 E3.24988 F1050.000
G1 X149.679 Y62.713 E3.33566
G1 X149.639 Y62.974 E3.34944 F1050.000
G1 X149.529 Y63.172 E3.36129
G1 X149.422 Y63.279 E3.36921
G1 X149.294 Y63.360 E3.37713
G1 X149.076 Y63.423 E3.38897
G1 X140.662 Y63.442 E3.82856
G1 X140.216 Y63.519 E3.85218
G1 X139.590 Y63.738 E3.88684
G1 X139.232 Y63.936 E3.90823
G1 X138.928 Y64.152 E3.92770
G1 X138.650 Y64.400 E3.94717
G1 X138.402 Y64.678 E3.96664
G1 X138.186 Y64.982 E3.98611
G1 X138.006 Y65.308 E4.00557
G1 X137.863 Y65.652 E4.02504
G1 X137.760 Y66.011 E4.04451
G1 X137.698 Y66.378 E4.06398
G1 X137.679 Y66.713 E4.08151
G1 X137.679 Y88.213 E5.20478
G1 X137.639 Y88.474 E5.21855
G1 X137.573 Y88.610 E5.22647
G1 X137.479 Y88.729 E5.23439
G1 X137.360 Y88.823 E5.24231
G1 X137.224 Y88.889 E5.25023
G1 X136.963 Y88.929 E5.26401
G1 X127.321 Y88.929 E5.76775
G1 X127.321 Y83.267 E6.06356
G1 X128.002 Y82.987 E6.10204
G1 X128.441 Y82.756 E6.12795
G1 X129.174 Y82.272 E6.17385
G1 X129.553 Y81.964 E6.19937
G1 X129.915 Y81.625 E6.22528
G1 X130.493 Y80.963 E6.27118
G1 X130.776 Y80.565 E6.29670
G1 X131.035 Y80.142 E6.32261
G1 X131.416 Y79.350 E6.36851
G1 X131.582 Y78.891 E6.39403
G1 X131.719 Y78.414 E6.41994
G1 X131.876 Y77.550 E6.46585
G1 X131.915 Y77.063 E6.49136
G1 X131.920 Y76.567 E6.51727
G1 X131.841 Y75.692 E6.56318
G1 X131.749 Y75.212 E6.58869
G1 X131.622 Y74.733 E6.61460
G1 X131.313 Y73.910 E6.66053
G1 X131.083 Y73.446 E6.68759
G1 X130.615 Y72.701 E6.73353
G1 X130.297 Y72.293 E6.76058
G1 X129.689 Y71.657 E6.80652
G1 X129.295 Y71.321 E6.83358
G1 X128.572 Y70.820 E6.87951
G1 X128.119 Y70.570 E6.90657
G1 X127.311 Y70.224 E6.95251
G1 X126.816 Y70.070 E6.97956
G1 X125.955 Y69.894 E7.02548
G1 X125.470 Y69.844 E7.05098
G1 X124.974 Y69.828 E7.07689
G1 X124.097 Y69.887 E7.12283
G1 X123.608 Y69.970 E7.14874
G1 X123.133 Y70.084 E7.17424
G1 X122.304 Y70.374 E7.22016
G1 X121.854 Y70.584 E7.24607
G1 X121.427 Y70.821 E7.27157
G1 X120.705 Y71.321 E7.31749
G1 X120.311 Y71.657 E7.34454
G1 X119.703 Y72.293 E7.39048
G1 X119.385 Y72.701 E7.41754
G1 X118.917 Y73.446 E7.46347
G1 X118.687 Y73.910 E7.49053
G1 X118.378 Y74.733 E7.53647
G1 X118.251 Y75.212 E7.56238
G1 X118.159 Y75.692 E7.58789
G1 X118.080 Y76.567 E7.63380
G1 X118.085 Y77.063 E7.65971
G1 X118.124 Y77.550 E7.68522
G1 X118.281 Y78.414 E7.73113
G1 X118.418 Y78.891 E7.75703
G1 X118.584 Y79.350 E7.78255
G1 X118.965 Y80.142 E7.82845
G1 X119.224 Y80.565 E7.85436
G1 X119.507 Y80.963 E7.87988
G1 X120.085 Y81.625 E7.92578
G1 X120.447 Y81.964 E7.95169
G1 X120.826 Y82.272 E7.97721
G1 X121.559 Y82.756 E8.02311
G1 X121.998 Y82.987 E8.04902
G1 X122.679 Y83.267 E8.08750
G1 X122.679 Y88.928 E8.38323
G1 X112.888 Y88.917 E8.89475
G1 X112.670 Y88.839 E8.90686
G1 X112.496 Y88.700 E8.91851
G1 X112.376 Y88.510 E8.93025
G1 X112.334 Y88.362 E8.93828
G1 X112.321 Y66.713 E10.06936
G1 X112.302 Y66.378 E10.08687
G1 X112.240 Y66.011 E10.10634
G1 X112.137 Y65.652 E10.12581
G1 X111.994 Y65.308 E10.14528
G1 X111.814 Y64.982 E10.16475
G1 X111.598 Y64.678 E10.18422
G1 X111.350 Y64.400 E10.20369
G1 X111.071 Y64.151 E10.22325
G1 X110.731 Y63.911 E10.24498
G1 X110.133 Y63.624 E10.27963
G1 X109.739 Y63.510 E10.30102
G1 X109.336 Y63.442 E10.32238
G1 X100.924 Y63.423 E10.76188
G1 X100.706 Y63.360 E10.77373
G1 X100.578 Y63.279 E10.78165
G1 X100.471 Y63.172 E10.78956
G1 X100.361 Y62.974 E10.80141
G1 X100.321 Y62.713 E10.81519
G1 X100.321 Y61.071 E10.90097
G1 X144.836 Y61.071 E13.22666
G1 X144.836 Y60.443 F7200.000
G1 X150.307 Y60.443 E13.51250 F1050.000
G1 X150.307 Y62.731 E13.63203
G1 X150.298 Y62.896 E13.64070 F1050.000
G1 X150.233 Y63.181 E13.65598
G1 X150.106 Y63.445 E13.67127
G1 X150.021 Y63.564 E13.67892
G1 X149.924 Y63.674 E13.68657
G1 X149.695 Y63.856 E13.70185
G1 X149.567 Y63.927 E13.70951
G1 X149.291 Y64.023 E13.72479
G1 X148.980 Y64.057 E13.74111
G1 X140.716 Y64.070 E14.17286
G1 X140.375 Y64.129 E14.19096
G1 X139.848 Y64.314 E14.22012
G1 X139.567 Y64.469 E14.23691
G1 X139.320 Y64.644 E14.25269
G1 X139.095 Y64.845 E14.26847
G1 X138.894 Y65.070 E14.28426
G1 X138.719 Y65.317 E14.30004
G1 X138.573 Y65.581 E14.31582
G1 X138.457 Y65.860 E14.33160
G1 X138.374 Y66.151 E14.34738
G1 X138.323 Y66.448 E14.36317
G1 X138.307 Y66.731 E14.37793
G1 X138.298 Y88.396 E15.50985
G1 X138.233 Y88.681 E15.52514
G1 X138.177 Y88.817 E15.53279
G1 X138.021 Y89.064 E15.54807
G1 X137.814 Y89.271 E15.56335
G1 X137.567 Y89.427 E15.57863
G1 X137.431 Y89.483 E15.58629
G1 X137.146 Y89.548 E15.60157
G1 X136.981 Y89.557 E15.61024
G1 X126.693 Y89.557 E16.14773
G1 X126.693 Y82.808 E16.50036
G1 X127.341 Y82.591 E16.53609
G1 X127.729 Y82.420 E16.55823
G1 X128.121 Y82.215 E16.58137
G1 X128.802 Y81.765 E16.62397
G1 X129.139 Y81.490 E16.64671
G1 X129.463 Y81.188 E16.66985
G1 X129.999 Y80.573 E16.71246
G1 X130.251 Y80.218 E16.73520
G1 X130.482 Y79.841 E16.75834
G1 X130.836 Y79.106 E16.80094
G1 X130.984 Y78.697 E16.82368
G1 X131.107 Y78.271 E16.84682
G1 X131.252 Y77.469 E16.88943
G1 X131.287 Y77.035 E16.91217
G1 X131.291 Y76.592 E16.93530
G1 X131.218 Y75.780 E16.97791
G1 X131.136 Y75.352 E17.00065
G1 X131.023 Y74.924 E17.02379
G1 X130.736 Y74.160 E17.06641
G1 X130.534 Y73.753 E17.09015
G1 X130.100 Y73.063 E17.13277
G1 X129.821 Y72.704 E17.15651
G1 X129.257 Y72.115 E17.19913
G1 X128.911 Y71.820 E17.22287
G1 X128.241 Y71.355 E17.26549
G1 X127.843 Y71.135 E17.28923
G1 X127.093 Y70.815 E17.33185
G1 X126.659 Y70.679 E17.35559
G1 X125.860 Y70.516 E17.39819
G1 X125.427 Y70.471 E17.42093
G1 X124.985 Y70.457 E17.44407
G1 X124.171 Y70.511 E17.48669
G1 X123.734 Y70.586 E17.50983
G1 X123.311 Y70.687 E17.53257
G1 X122.541 Y70.957 E17.57518
G1 X122.140 Y71.144 E17.59832
G1 X121.759 Y71.355 E17.62105
G1 X121.089 Y71.820 E17.66366
G1 X120.743 Y72.115 E17.68740
G1 X120.179 Y72.704 E17.73002
G1 X119.900 Y73.063 E17.75376
G1 X119.466 Y73.753 E17.79638
G1 X119.264 Y74.160 E17.82012
G1 X118.977 Y74.924 E17.86274
G1 X118.864 Y75.352 E17.88588
G1 X118.782 Y75.780 E17.90862
G1 X118.709 Y76.592 E17.95122
G1 X118.713 Y77.035 E17.97436
G1 X118.748 Y77.469 E17.99710
G1 X118.893 Y78.271 E18.03971
G1 X119.016 Y78.697 E18.06285
G1 X119.164 Y79.106 E18.08559
G1 X119.518 Y79.841 E18.12819
G1 X119.749 Y80.218 E18.15133
G1 X120.001 Y80.573 E18.17407
G1 X120.537 Y81.188 E18.21668
G1 X120.861 Y81.490 E18.23981
G1 X121.198 Y81.765 E18.26256
G1 X121.879 Y82.215 E18.30516
G1 X122.271 Y82.420 E18.32830
G1 X122.659 Y82.591 E18.35044
G1 X123.307 Y82.808 E18.38617
G1 X123.307 Y89.557 E18.73876
G1 X112.835 Y89.545 E19.28589
G1 X112.569 Y89.483 E19.30018
G1 X112.319 Y89.363 E19.31467
G1 X112.064 Y89.160 E19.33167
G1 X111.989 Y89.075 E19.33757
G1 X111.816 Y88.799 E19.35462
G1 X111.767 Y88.681 E19.36127
G1 X111.705 Y88.415 E19.37554
G1 X111.693 Y66.730 E20.50847
G1 X111.677 Y66.448 E20.52322
G1 X111.626 Y66.151 E20.53901
G1 X111.543 Y65.860 E20.55479
G1 X111.427 Y65.581 E20.57057
G1 X111.281 Y65.317 E20.58635
G1 X111.106 Y65.070 E20.60213
G1 X110.905 Y64.845 E20.61792
G1 X110.679 Y64.643 E20.63375
G1 X110.411 Y64.455 E20.65086
G1 X109.908 Y64.213 E20.68002
G1 X109.599 Y64.124 E20.69681
G1 X109.283 Y64.070 E20.71358
G1 X101.020 Y64.057 E21.14528
G1 X100.709 Y64.023 E21.16160
G1 X100.569 Y63.983 E21.16925
G1 X100.305 Y63.856 E21.18454
G1 X100.076 Y63.674 E21.19982
G1 X99.979 Y63.564 E21.20747
G1 X99.894 Y63.445 E21.21512
G1 X99.767 Y63.181 E21.23041
G1 X99.702 Y62.896 E21.24569
G1 X99.693 Y62.731 E21.25436
G1 X99.693 Y60.443 E21.37389
G1 X144.776 Y60.443 E23.72927
G1 X144.776 Y59.950 F7200.000
G1 X150.800 Y59.950 E23.90813 F525.000
G1 X150.800 Y62.744 E23.99110
G1 X150.788 Y62.952 E23.99725 F525.000
G1 X150.699 Y63.344 E24.00922
G1 X150.524 Y63.707 E24.02119
G1 X150.407 Y63.872 E24.02718
G1 X150.273 Y64.023 E24.03317
G1 X149.957 Y64.274 E24.04514
G1 X149.781 Y64.371 E24.05113
G1 X149.400 Y64.505 E24.06309
G1 X148.994 Y64.550 E24.07523
G1 X140.759 Y64.563 E24.31975
G1 X140.499 Y64.607 E24.32758
G1 X140.050 Y64.765 E24.34170
G1 X139.829 Y64.887 E24.34919
G1 X139.628 Y65.030 E24.35652
G1 X139.444 Y65.194 E24.36385
G1 X139.280 Y65.378 E24.37117
G1 X139.137 Y65.579 E24.37850
G1 X139.018 Y65.795 E24.38582
G1 X138.923 Y66.023 E24.39315
G1 X138.855 Y66.260 E24.40048
G1 X138.814 Y66.504 E24.40780
G1 X138.800 Y66.744 E24.41496
G1 X138.788 Y88.452 E25.05947
G1 X138.699 Y88.844 E25.07144
G1 X138.621 Y89.031 E25.07743
G1 X138.407 Y89.372 E25.08940
G1 X138.122 Y89.657 E25.10136
G1 X137.781 Y89.871 E25.11333
G1 X137.594 Y89.949 E25.11932
G1 X137.202 Y90.038 E25.13129
G1 X136.994 Y90.050 E25.13745
G1 X126.200 Y90.050 E25.45795
G1 X126.200 Y82.421 E25.68446
G1 X126.791 Y82.267 E25.70259
G1 X127.158 Y82.134 E25.71418
G1 X127.515 Y81.976 E25.72577
G1 X127.871 Y81.790 E25.73769
G1 X128.510 Y81.368 E25.76043
G1 X128.815 Y81.119 E25.77212
G1 X129.108 Y80.845 E25.78403
G1 X129.612 Y80.268 E25.80677
G1 X129.840 Y79.947 E25.81847
G1 X130.049 Y79.605 E25.83038
G1 X130.381 Y78.915 E25.85312
G1 X130.516 Y78.544 E25.86481
G1 X130.626 Y78.159 E25.87672
G1 X130.763 Y77.405 E25.89947
G1 X130.794 Y77.013 E25.91116
G1 X130.798 Y76.611 E25.92307
G1 X130.730 Y75.849 E25.94581
G1 X130.655 Y75.462 E25.95750
G1 X130.553 Y75.074 E25.96941
G1 X130.283 Y74.357 E25.99216
G1 X130.104 Y73.994 E26.00417
G1 X129.696 Y73.346 E26.02692
G1 X129.447 Y73.027 E26.03893
G1 X128.918 Y72.473 E26.06167
G1 X128.610 Y72.210 E26.07368
G1 X127.981 Y71.774 E26.09643
G1 X127.627 Y71.579 E26.10844
G1 X126.922 Y71.278 E26.13118
G1 X126.536 Y71.157 E26.14319
G1 X125.786 Y71.003 E26.16594
G1 X125.394 Y70.963 E26.17763
G1 X124.993 Y70.950 E26.18954
G1 X124.229 Y71.001 E26.21228
G1 X123.833 Y71.069 E26.22420
G1 X123.450 Y71.161 E26.23589
G1 X122.727 Y71.414 E26.25863
G1 X122.364 Y71.584 E26.27054
G1 X122.019 Y71.774 E26.28223
G1 X121.390 Y72.210 E26.30498
G1 X121.082 Y72.473 E26.31699
G1 X120.553 Y73.027 E26.33973
G1 X120.304 Y73.346 E26.35174
G1 X119.896 Y73.994 E26.37449
G1 X119.717 Y74.357 E26.38650
G1 X119.447 Y75.074 E26.40924
G1 X119.345 Y75.462 E26.42116
G1 X119.270 Y75.849 E26.43285
G1 X119.202 Y76.611 E26.45559
G1 X119.206 Y77.013 E26.46750
G1 X119.237 Y77.405 E26.47919
G1 X119.374 Y78.159 E26.50193
G1 X119.484 Y78.544 E26.51385
G1 X119.619 Y78.915 E26.52554
G1 X119.951 Y79.605 E26.54828
G1 X120.160 Y79.947 E26.56019
G1 X120.388 Y80.268 E26.57188
G1 X120.892 Y80.845 E26.59463
G1 X121.185 Y81.119 E26.60654
G1 X121.490 Y81.368 E26.61823
G1 X122.129 Y81.790 E26.64097
G1 X122.485 Y81.976 E26.65288
G1 X122.842 Y82.134 E26.66448
G1 X123.209 Y82.267 E26.67606
G1 X123.800 Y82.421 E26.69420
G1 X123.800 Y90.050 E26.92071
G1 X112.793 Y90.037 E27.24752
G1 X112.406 Y89.949 E27.25932
G1 X112.043 Y89.774 E27.27127
G1 X111.724 Y89.519 E27.28340
G1 X111.594 Y89.372 E27.28922
G1 X111.376 Y89.026 E27.30136
G1 X111.301 Y88.844 E27.30719
G1 X111.213 Y88.457 E27.31899
G1 X111.200 Y66.744 E27.96367
G1 X111.186 Y66.504 E27.97082
G1 X111.145 Y66.260 E27.97815
G1 X111.077 Y66.023 E27.98548
G1 X110.982 Y65.795 E27.99280
G1 X110.863 Y65.579 E28.00013
G1 X110.720 Y65.378 E28.00745
G1 X110.556 Y65.194 E28.01478
G1 X110.372 Y65.030 E28.02212
G1 X110.161 Y64.881 E28.02978
G1 X109.732 Y64.675 E28.04390
G1 X109.490 Y64.605 E28.05139
G1 X109.241 Y64.563 E28.05888
G1 X101.006 Y64.550 E28.30340
G1 X100.600 Y64.505 E28.31553
G1 X100.219 Y64.371 E28.32750
G1 X99.878 Y64.157 E28.33946
G1 X99.727 Y64.023 E28.34546
G1 X99.476 Y63.707 E28.35742
G1 X99.379 Y63.531 E28.36341
G1 X99.301 Y63.344 E28.36941
G1 X99.212 Y62.952 E28.38137
G1 X99.200 Y59.950 E28.47049
G1 X144.716 Y59.950 E29.82193
G1 X144.976 Y60.296 F7200.000
G1 E26.82193 F2400.00000
G92 E0
G1 Z0.700 F7200.000
G1 X149.298 Y61.758 F7200.000
G1 Z0.200 F7200.000
G1 E3.00000 F2400.00000
G1 X148.992 Y61.452 E3.02293 F600.000
G1 X148.092 Y61.452 E3.07053
G1 X149.298 Y62.658 E3.16076
G1 X148.783 Y63.043 E3.19476
G1 X147.192 Y61.452 E3.31379
G1 X146.293 Y61.452 E3.36138
G1 X147.886 Y63.045 E3.48056
G1 X146.988 Y63.047 E3.52805
G1 X145.393 Y61.452 E3.64738
G1 X144.493 Y61.452 E3.69497
G1 X146.090 Y63.049 E3.81445
G1 X145.193 Y63.051 E3.86194
G1 X143.594 Y61.452 E3.98157
G1 X142.694 Y61.452 E4.02917
G1 X144.295 Y63.053 E4.14896
G1 X143.398 Y63.055 E4.19644
