; generated by Slic3r 1.2.9 on 2018-02-22 at 19:25:30

; external perimeters extrusion width = 0.40mm
; perimeters extrusion width = 0.67mm
; infill extrusion width = 0.67mm
; solid infill extrusion width = 0.67mm
; top infill extrusion width = 0.67mm

M104 S210 ; set temperature
;G28 ; home all axes
G1 Z10 F5000 ; lift nozzle

M104 S210 ; set temperature
M116 ; wait for temperature to be reached
G21 ; set units to millimeters
G90 ; use absolute coordinates
M82 ; use absolute distances for extrusion
G92 E0
G1 E-3.00000 F3600.00000
G92 E0
G1 Z0.400 F7200.000
G1 X85.768 Y57.255 F7200.000
G1 Z0.200 F7200.000
G1 E3.00000 F3600.00000
G1 X86.632 Y56.101 E3.07536 F1200.000
G1 X87.334 Y55.332 E3.12974
G1 X93.333 Y49.333 E3.57297
G1 X94.102 Y48.631 E3.62734
G1 X95.531 Y47.593 E3.71962
G1 X97.238 Y46.709 E3.82008
G1 X99.216 Y46.067 E3.92871
G1 X100.960 Y45.790 E4.02099
G1 X102.000 Y45.743 E4.07536
G1 X148.000 Y45.743 E6.47863
G1 X148.881 Y45.778 E6.52470
G1 X150.784 Y46.067 E6.62526 F1200.000
G1 X152.763 Y46.710 E6.73399
G1 X154.470 Y47.593 E6.83437
G1 X155.898 Y48.631 E6.92663
G1 X156.667 Y49.333 E6.98101
G1 X162.668 Y55.334 E7.42439
G1 X163.264 Y55.979 E7.47026
G1 X163.691 Y56.497 E7.50535
G1 X164.483 Y57.655 E7.57862
G1 X164.792 Y58.190 E7.61093
G1 X165.288 Y59.232 E7.67121
G1 X165.599 Y60.041 E7.71649
G1 X165.895 Y61.056 E7.77176
G1 X166.091 Y61.992 E7.82172
G1 X166.209 Y62.952 E7.87225
G1 X166.257 Y63.999 E7.92699
G1 X166.257 Y93.000 E9.44214
G1 X165.858 Y95.968 E9.59857
G1 X164.692 Y98.725 E9.75501
G1 X162.840 Y101.078 E9.91144
G1 X160.433 Y102.859 E10.06787
G1 X157.641 Y103.942 E10.22430
G1 X155.000 Y104.257 E10.36328
G1 X95.000 Y104.257 E13.49798
G1 X92.032 Y103.858 E13.65441
G1 X89.275 Y102.692 E13.81084
G1 X86.922 Y100.840 E13.96727
G1 X85.141 Y98.433 E14.12370
G1 X84.058 Y95.641 E14.28014
G1 X83.743 Y93.000 E14.41911
G1 X83.743 Y64.000 E15.93422
G1 X83.778 Y63.121 E15.98017
G1 X84.067 Y61.216 E16.08086
G1 X84.137 Y60.926 E16.09644
G1 X84.649 Y59.383 E16.18138
G1 X84.801 Y59.024 E16.20174
G1 X85.512 Y57.663 E16.28193
G1 X85.735 Y57.306 E16.30397
G1 X86.266 Y57.642 F7200.000
G1 X87.110 Y56.509 E16.37778 F1200.000
G1 X87.779 Y55.776 E16.42958
G1 X93.778 Y49.778 E16.87281
G1 X94.510 Y49.109 E16.92461
G1 X95.859 Y48.129 E17.01174
G1 X97.479 Y47.290 E17.10704
G1 X99.362 Y46.678 E17.21053
G1 X101.010 Y46.417 E17.29766
G1 X102.000 Y46.372 E17.34945
G1 X148.000 Y46.372 E19.75272
G1 X148.832 Y46.404 E19.79621
G1 X150.637 Y46.678 E19.89162 F1200.000
G1 X152.523 Y47.290 E19.99519
G1 X154.141 Y48.129 E20.09042
G1 X155.490 Y49.109 E20.17754
G1 X156.222 Y49.778 E20.22934
G1 X162.223 Y55.778 E20.67271
G1 X162.786 Y56.387 E20.71603
G1 X163.195 Y56.883 E20.74961
G1 X163.947 Y57.983 E20.81924
G1 X164.239 Y58.489 E20.84976
G1 X164.708 Y59.473 E20.90668
G1 X165.005 Y60.245 E20.94989
G1 X165.284 Y61.204 E21.00207
G1 X165.471 Y62.096 E21.04970
G1 X165.583 Y63.002 E21.09741
G1 X165.628 Y63.999 E21.14954
G1 X165.628 Y93.000 E22.66469
G1 X165.230 Y95.882 E22.81668
G1 X164.066 Y98.547 E22.96866
G1 X162.222 Y100.798 E23.12065
G1 X159.837 Y102.464 E23.27263
G1 X157.090 Y103.421 E23.42461
G1 X155.000 Y103.628 E23.53435
G1 X95.000 Y103.628 E26.66904
G1 X92.118 Y103.230 E26.82103
G1 X89.453 Y102.066 E26.97301
G1 X87.202 Y100.222 E27.12499
G1 X85.536 Y97.837 E27.27698
G1 X84.579 Y95.090 E27.42896
G1 X84.372 Y93.000 E27.53869
G1 X84.372 Y64.000 E29.05380
G1 X84.404 Y63.170 E29.09719
G1 X84.678 Y61.362 E29.19271
G1 X84.746 Y61.080 E29.20789
G1 X85.230 Y59.623 E29.28808
G1 X85.376 Y59.276 E29.30776
G1 X86.047 Y57.992 E29.38348
G1 X86.234 Y57.692 E29.40191
G1 F5760
G1 X87.110 Y56.509 E28.52763
G1 F5760
G1 X87.779 Y55.776 E27.93887
G1 F5760
G1 X89.430 Y54.125 E26.55191
G1 E26.40191 F3600.00000
G92 E0
G1 Z0.600 F7200.000
G1 X99.589 Y74.087 F7200.000
G1 Z0.200 F7200.000
G1 E3.00000 F3600.00000
G1 X99.917 Y73.865 E3.02070 F450.000
G1 X100.253 Y73.687 E3.04056
G1 X100.632 Y73.534 E3.06192
G1 X101.017 Y73.427 E3.08280
G1 X101.408 Y73.363 E3.10350
G1 X101.767 Y73.343 E3.12232
G1 X106.036 Y73.343 E3.34532 F450.000
G1 X106.396 Y73.363 E3.36415
G1 X106.786 Y73.427 E3.38485
G1 X107.168 Y73.533 E3.40554
G1 X107.536 Y73.679 E3.42624
G1 X107.886 Y73.865 E3.44694
G1 X108.214 Y74.087 E3.46763
G1 X108.516 Y74.344 E3.48833
G1 X108.788 Y74.631 E3.50903
G1 X109.028 Y74.947 E3.52972
G1 X109.232 Y75.286 E3.55042
G1 X109.399 Y75.646 E3.57112
G1 X109.525 Y76.021 E3.59181
G1 X109.610 Y76.408 E3.61251
G1 X109.653 Y76.802 E3.63321
G1 X109.653 Y77.198 E3.65391
G1 X109.610 Y77.592 E3.67460
G1 X109.525 Y77.979 E3.69530
G1 X109.399 Y78.354 E3.71600
G1 X109.232 Y78.714 E3.73669
G1 X109.028 Y79.053 E3.75739
G1 X108.788 Y79.369 E3.77809
G1 X108.516 Y79.656 E3.79878
G1 X108.214 Y79.913 E3.81948
G1 X107.772 Y80.212 E3.84739
G1 X107.183 Y80.463 E3.88083
G1 X106.787 Y80.573 E3.90233
G1 X106.396 Y80.637 E3.92303
G1 X106.036 Y80.657 E3.94185
G1 X101.768 Y80.657 E4.16483
G1 X101.408 Y80.637 E4.18364
G1 X101.017 Y80.573 E4.20435
G1 X100.635 Y80.468 E4.22505
G1 X100.267 Y80.321 E4.24575
G1 X99.917 Y80.136 E4.26645
G1 X99.589 Y79.913 E4.28715
G1 X99.299 Y79.667 E4.30701
G1 X99.016 Y79.372 E4.32837
G1 X98.775 Y79.054 E4.34925
G1 X98.570 Y78.714 E4.36995
G1 X98.404 Y78.355 E4.39065
G1 X98.277 Y77.979 E4.41136
G1 X98.192 Y77.592 E4.43206
G1 X98.149 Y77.198 E4.45276
G1 X98.149 Y76.802 E4.47346
G1 X98.190 Y76.424 E4.49332
G1 X98.276 Y76.024 E4.51468
G1 X98.404 Y75.646 E4.53556
G1 X98.570 Y75.286 E4.55626
G1 X98.774 Y74.947 E4.57696
G1 X99.014 Y74.631 E4.59766
G1 X99.287 Y74.344 E4.61837
G1 X99.543 Y74.126 E4.63593
G1 X99.950 Y74.605 F7200.000
G1 X100.241 Y74.404 E4.65442 F450.000
G1 X100.518 Y74.257 E4.67081
G1 X100.834 Y74.129 E4.68861
G1 X101.152 Y74.041 E4.70584
G1 X101.476 Y73.988 E4.72298
G1 X101.784 Y73.972 E4.73914
G1 X106.019 Y73.972 E4.96036 F450.000
G1 X106.328 Y73.988 E4.97652
G1 X106.651 Y74.041 E4.99366
G1 X106.967 Y74.129 E5.01079
G1 X107.272 Y74.251 E5.02793
G1 X107.562 Y74.404 E5.04507
G1 X107.833 Y74.588 E5.06221
G1 X108.083 Y74.801 E5.07934
G1 X108.309 Y75.039 E5.09648
G1 X108.507 Y75.300 E5.11362
G1 X108.677 Y75.581 E5.13075
G1 X108.814 Y75.879 E5.14789
G1 X108.919 Y76.190 E5.16503
G1 X108.990 Y76.510 E5.18217
G1 X109.025 Y76.836 E5.19930
G1 X109.025 Y77.164 E5.21644
G1 X108.990 Y77.490 E5.23358
G1 X108.919 Y77.810 E5.25072
G1 X108.814 Y78.121 E5.26785
G1 X108.677 Y78.419 E5.28499
G1 X108.507 Y78.700 E5.30213
G1 X108.309 Y78.961 E5.31926
G1 X108.083 Y79.199 E5.33640
G1 X107.833 Y79.412 E5.35354
G1 X107.470 Y79.658 E5.37648
G1 X106.975 Y79.869 E5.40458
G1 X106.651 Y79.959 E5.42213
G1 X106.328 Y80.012 E5.43927
G1 X106.019 Y80.028 E5.45543
G1 X101.785 Y80.028 E5.67663
G1 X101.476 Y80.012 E5.69279
G1 X101.152 Y79.959 E5.70993
G1 X100.836 Y79.871 E5.72707
G1 X100.531 Y79.750 E5.74421
G1 X100.241 Y79.596 E5.76135
G1 X99.970 Y79.412 E5.77849
G1 X99.731 Y79.209 E5.79488
G1 X99.495 Y78.963 E5.81268
G1 X99.295 Y78.701 E5.82991
G1 X99.126 Y78.419 E5.84705
G1 X98.988 Y78.122 E5.86419
G1 X98.883 Y77.811 E5.88133
G1 X98.813 Y77.490 E5.89847
G1 X98.777 Y77.164 E5.91562
G1 X98.777 Y76.836 E5.93276
G1 X98.811 Y76.524 E5.94914
G1 X98.883 Y76.191 E5.96694
G1 X98.988 Y75.879 E5.98418
G1 X99.126 Y75.581 E6.00132
G1 X99.295 Y75.300 E6.01846
G1 X99.494 Y75.039 E6.03560
G1 X99.719 Y74.800 E6.05274
G1 X99.904 Y74.644 E6.06539
G1 X100.223 Y75.019 F7200.000
G1 X100.495 Y74.827 E6.07530 F450.000
G1 X100.726 Y74.704 E6.08306
G1 X100.993 Y74.597 E6.09159
G1 X101.258 Y74.523 E6.09976
G1 X101.529 Y74.479 E6.10791
G1 X101.798 Y74.464 E6.11591
G1 X106.005 Y74.464 E6.24084 F450.000
G1 X106.274 Y74.479 E6.24883
G1 X106.545 Y74.523 E6.25699
G1 X106.810 Y74.597 E6.26514
G1 X107.065 Y74.698 E6.27329
G1 X107.307 Y74.827 E6.28144
G1 X107.535 Y74.981 E6.28960
G1 X107.744 Y75.159 E6.29775
G1 X107.933 Y75.358 E6.30590
G1 X108.099 Y75.577 E6.31406
G1 X108.241 Y75.812 E6.32221
G1 X108.356 Y76.061 E6.33036
G1 X108.444 Y76.322 E6.33852
G1 X108.503 Y76.590 E6.34667
G1 X108.532 Y76.863 E6.35482
G1 X108.532 Y77.137 E6.36297
G1 X108.503 Y77.410 E6.37113
G1 X108.444 Y77.678 E6.37928
G1 X108.356 Y77.939 E6.38743
G1 X108.241 Y78.188 E6.39559
G1 X108.099 Y78.423 E6.40374
G1 X107.933 Y78.642 E6.41189
G1 X107.744 Y78.841 E6.42005
G1 X107.535 Y79.019 E6.42820
G1 X107.233 Y79.223 E6.43902
G1 X106.812 Y79.403 E6.45261
G1 X106.545 Y79.477 E6.46083
G1 X106.274 Y79.521 E6.46898
G1 X106.005 Y79.536 E6.47697
G1 X101.798 Y79.536 E6.60190
G1 X101.529 Y79.521 E6.60989
G1 X101.258 Y79.477 E6.61805
G1 X100.993 Y79.404 E6.62620
G1 X100.738 Y79.302 E6.63436
G1 X100.496 Y79.173 E6.64251
G1 X100.268 Y79.019 E6.65067
G1 X100.069 Y78.850 E6.65843
G1 X99.870 Y78.643 E6.66696
G1 X99.704 Y78.424 E6.67513
G1 X99.562 Y78.188 E6.68328
G1 X99.447 Y77.939 E6.69144
G1 X99.359 Y77.679 E6.69959
G1 X99.300 Y77.411 E6.70775
G1 X99.270 Y77.138 E6.71590
G1 X99.270 Y76.863 E6.72406
G1 X99.298 Y76.603 E6.73182
G1 X99.359 Y76.322 E6.74035
G1 X99.446 Y76.061 E6.74852
G1 X99.562 Y75.812 E6.75667
G1 X99.703 Y75.577 E6.76483
G1 X99.870 Y75.358 E6.77298
G1 X100.177 Y75.058 E6.78574
G1 X100.176 Y74.689 F7200.000
G1 F5760
G1 X100.495 Y74.827 E6.55218
G1 F5760
G1 X100.726 Y74.704 E6.39692
G1 F5760
G1 X100.993 Y74.597 E6.22637
G1 F5760
G1 X101.258 Y74.523 E6.06299
G1 F5760
G1 X101.529 Y74.479 E5.89992
G1 F5760
G1 X101.798 Y74.464 E5.74008
G1 E3.78574 F3600.00000
G92 E0
G1 Z0.600 F7200.000
G1 X109.332 Y76.819 F7200.000
G1 X125.000 Y75.115 F7200.000
G1 X125.000 Y75.115 F7200.000
G1 X140.668 Y76.819 F7200.000
G1 X140.347 Y76.802 F7200.000
G1 Z0.200 F7200.000
G1 E3.00000 F3600.00000
G1 X140.390 Y76.408 E3.02070 F450.000
G1 X140.475 Y76.021 E3.04139
G1 X140.601 Y75.646 E3.06209
G1 X140.768 Y75.286 E3.08279
G1 X140.972 Y74.947 E3.10348
G1 X141.212 Y74.631 E3.12418
G1 X141.484 Y74.344 E3.14488
G1 X141.786 Y74.087 E3.16558
G1 X142.114 Y73.865 E3.18627
G1 X142.450 Y73.687 E3.20613
G1 X142.829 Y73.534 E3.22748
G1 X143.214 Y73.427 E3.24836
G1 X143.604 Y73.363 E3.26906
G1 X143.964 Y73.343 E3.28788
G1 X148.233 Y73.343 E3.51092 F450.000
G1 X148.593 Y73.363 E3.52975
G1 X148.984 Y73.427 E3.55045
G1 X149.366 Y73.533 E3.57114
G1 X149.734 Y73.679 E3.59184
G1 X150.084 Y73.865 E3.61254
G1 X150.412 Y74.087 E3.63323
G1 X150.714 Y74.344 E3.65393
G1 X150.986 Y74.631 E3.67463
G1 X151.226 Y74.947 E3.69532
G1 X151.430 Y75.286 E3.71602
G1 X151.596 Y75.646 E3.73672
G1 X151.723 Y76.021 E3.75742
G1 X151.808 Y76.408 E3.77811
G1 X151.851 Y76.802 E3.79881
G1 X151.851 Y77.198 E3.81951
G1 X151.808 Y77.592 E3.84020
G1 X151.723 Y77.979 E3.86090
G1 X151.596 Y78.354 E3.88160
G1 X151.430 Y78.714 E3.90229
G1 X151.226 Y79.053 E3.92299
G1 X150.986 Y79.369 E3.94369
G1 X150.714 Y79.656 E3.96438
G1 X150.412 Y79.913 E3.98508
G1 X150.097 Y80.126 E4.00494
G1 X149.737 Y80.319 E4.02629
G1 X149.366 Y80.467 E4.04717
G1 X148.984 Y80.573 E4.06786
G1 X148.593 Y80.637 E4.08856
G1 X148.233 Y80.657 E4.10739
G1 X143.964 Y80.657 E4.33043
G1 X143.604 Y80.637 E4.34926
G1 X143.213 Y80.573 E4.36995
G1 X142.832 Y80.467 E4.39065
G1 X142.464 Y80.320 E4.41135
G1 X142.114 Y80.135 E4.43204
G1 X141.786 Y79.913 E4.45274
G1 X141.484 Y79.656 E4.47344
G1 X141.212 Y79.369 E4.49413
G1 X140.972 Y79.053 E4.51483
G1 X140.768 Y78.714 E4.53553
G1 X140.601 Y78.354 E4.55622
G1 X140.475 Y77.979 E4.57692
G1 X140.390 Y77.592 E4.59762
G1 X140.347 Y77.198 E4.61831
G1 X140.347 Y76.862 E4.63588
G1 X140.975 Y76.862 F7200.000
G1 X141.010 Y76.510 E4.65436 F450.000
G1 X141.081 Y76.190 E4.67150
G1 X141.186 Y75.879 E4.68864
G1 X141.323 Y75.581 E4.70577
G1 X141.493 Y75.300 E4.72291
G1 X141.691 Y75.039 E4.74005
G1 X141.917 Y74.801 E4.75718
G1 X142.167 Y74.588 E4.77432
G1 X142.438 Y74.404 E4.79146
G1 X142.715 Y74.257 E4.80784
G1 X143.031 Y74.130 E4.82564
G1 X143.349 Y74.041 E4.84287
G1 X143.672 Y73.988 E4.86000
G1 X143.981 Y73.972 E4.87616
G1 X148.216 Y73.972 E5.09743 F450.000
G1 X148.525 Y73.988 E5.11358
G1 X148.849 Y74.041 E5.13072
G1 X149.165 Y74.129 E5.14786
G1 X149.470 Y74.251 E5.16499
G1 X149.759 Y74.404 E5.18213
G1 X150.031 Y74.588 E5.19927
G1 X150.281 Y74.801 E5.21641
G1 X150.507 Y75.039 E5.23354
G1 X150.705 Y75.300 E5.25068
G1 X150.874 Y75.581 E5.26782
G1 X151.012 Y75.879 E5.28495
G1 X151.117 Y76.190 E5.30209
G1 X151.187 Y76.510 E5.31923
G1 X151.223 Y76.836 E5.33637
G1 X151.223 Y77.164 E5.35350
G1 X151.187 Y77.490 E5.37064
G1 X151.117 Y77.810 E5.38778
G1 X151.012 Y78.121 E5.40492
G1 X150.874 Y78.419 E5.42205
G1 X150.705 Y78.700 E5.43919
G1 X150.507 Y78.961 E5.45633
G1 X150.281 Y79.199 E5.47346
G1 X150.031 Y79.412 E5.49060
G1 X149.771 Y79.588 E5.50699
G1 X149.471 Y79.749 E5.52478
G1 X149.165 Y79.871 E5.54201
G1 X148.849 Y79.959 E5.55915
G1 X148.525 Y80.012 E5.57628
G1 X148.216 Y80.028 E5.59244
G1 X143.981 Y80.028 E5.81371
G1 X143.672 Y80.012 E5.82986
G1 X143.349 Y79.959 E5.84700
G1 X143.033 Y79.871 E5.86414
G1 X142.728 Y79.749 E5.88127
G1 X142.438 Y79.596 E5.89841
G1 X142.167 Y79.412 E5.91555
G1 X141.917 Y79.199 E5.93268
G1 X141.691 Y78.961 E5.94982
G1 X141.493 Y78.700 E5.96696
G1 X141.323 Y78.419 E5.98410
G1 X141.186 Y78.121 E6.00123
G1 X141.081 Y77.810 E6.01837
G1 X141.010 Y77.490 E6.03551
G1 X140.975 Y77.164 E6.05265
G1 X140.975 Y76.922 E6.06529
G1 X141.468 Y76.922 F7200.000
G1 X141.497 Y76.590 E6.07520 F450.000
G1 X141.556 Y76.322 E6.08335
G1 X141.644 Y76.061 E6.09150
G1 X141.759 Y75.812 E6.09966
G1 X141.901 Y75.577 E6.10781
G1 X142.067 Y75.358 E6.11596
G1 X142.256 Y75.159 E6.12411
G1 X142.465 Y74.981 E6.13227
G1 X142.693 Y74.827 E6.14042
G1 X142.924 Y74.705 E6.14818
G1 X143.190 Y74.597 E6.15671
G1 X143.455 Y74.523 E6.16488
G1 X143.726 Y74.479 E6.17303
G1 X143.995 Y74.464 E6.18102
G1 X148.203 Y74.464 E6.30598 F450.000
G1 X148.472 Y74.479 E6.31397
G1 X148.743 Y74.523 E6.32212
G1 X149.007 Y74.597 E6.33027
G1 X149.262 Y74.698 E6.33843
G1 X149.505 Y74.827 E6.34658
G1 X149.732 Y74.981 E6.35473
G1 X149.942 Y75.159 E6.36289
G1 X150.130 Y75.358 E6.37104
G1 X150.297 Y75.577 E6.37919
G1 X150.438 Y75.812 E6.38735
G1 X150.554 Y76.061 E6.39550
G1 X150.641 Y76.322 E6.40365
G1 X150.700 Y76.590 E6.41180
G1 X150.730 Y76.863 E6.41996
G1 X150.730 Y77.137 E6.42811
G1 X150.700 Y77.410 E6.43626
G1 X150.641 Y77.678 E6.44442
G1 X150.554 Y77.939 E6.45257
G1 X150.438 Y78.188 E6.46072
G1 X150.297 Y78.423 E6.46887
G1 X150.130 Y78.642 E6.47703
G1 X149.942 Y78.841 E6.48518
G1 X149.732 Y79.019 E6.49333
G1 X149.516 Y79.166 E6.50110
G1 X149.263 Y79.301 E6.50962
G1 X149.007 Y79.403 E6.51779
G1 X148.743 Y79.477 E6.52594
G1 X148.472 Y79.521 E6.53410
G1 X148.203 Y79.536 E6.54209
G1 X143.995 Y79.536 E6.66704
G1 X143.726 Y79.521 E6.67504
G1 X143.455 Y79.477 E6.68319
G1 X143.190 Y79.403 E6.69134
G1 X142.935 Y79.302 E6.69949
G1 X142.693 Y79.173 E6.70765
G1 X142.465 Y79.019 E6.71580
G1 X142.256 Y78.841 E6.72395
G1 X142.067 Y78.642 E6.73211
G1 X141.901 Y78.423 E6.74026
G1 X141.759 Y78.188 E6.74841
G1 X141.644 Y77.939 E6.75657
G1 X141.556 Y77.678 E6.76472
G1 X141.497 Y77.410 E6.77287
G1 X141.468 Y76.982 E6.78562
G1 X141.186 Y76.744 F7200.000
G1 F5760
G1 X141.497 Y76.590 E6.55208
G1 F5760
G1 X141.556 Y76.322 E6.38904
G1 F5760
G1 X141.644 Y76.061 E6.22600
G1 F5760
G1 X141.759 Y75.812 E6.06296
G1 F5760
G1 X141.901 Y75.577 E5.89992
G1 F5760
G1 X142.067 Y75.358 E5.73689
G1 F5760
G1 X142.256 Y75.159 E5.57385
G1 F5760
G1 X142.465 Y74.981 E5.41081
G1 F5760
G1 X142.693 Y74.827 E5.24777
G1 F5760
G1 X142.924 Y74.705 E5.09255
G1 F5760
G1 X143.190 Y74.597 E4.92204
G1 F5760
G1 X143.455 Y74.523 E4.75869
G1 F5760
G1 X143.726 Y74.479 E4.59566
G1 F5760
G1 X143.995 Y74.464 E4.43584
G1 E3.78562 F3600.00000
G92 E0
G1 Z0.600 F7200.000
G1 X98.366 Y64.327 F7200.000
G1 Z0.200 F7200.000
G1 E3.00000 F3600.00000
G1 X102.321 Y64.318 E3.20661 F1050.000
G1 X102.321 Y58.321 E3.51992
G1 X147.668 Y58.322 E5.88906
G1 X147.682 Y64.318 E6.20233 F1050.000
G1 X153.679 Y64.332 E6.51564
G1 X153.679 Y91.679 E7.94437
G1 X96.322 Y91.679 E10.94100
G1 X96.333 Y64.332 E12.36975
G1 X98.306 Y64.327 E12.47285
G1 X98.305 Y63.699 F7200.000
G1 X101.693 Y63.691 E12.64984 F1050.000
G1 X101.693 Y58.054 E12.94436
G1 X101.719 Y57.885 E12.95330
G1 X101.803 Y57.769 E12.96075
G1 X101.908 Y57.716 E12.96689
G1 X102.055 Y57.693 E12.97466
