; generated by Slic3r 1.2.9 on 2018-05-05 at 16:51:23

; external perimeters extrusion width = 0.40mm
; perimeters extrusion width = 0.58mm
; infill extrusion width = 0.58mm
; solid infill extrusion width = 0.58mm
; top infill extrusion width = 0.58mm

M104 S220 ; set temperature
;G28 ; home all axes
G1 Z10 F5000 ; lift nozzle

M104 S220 ; set temperature
M116 ; wait for temperature to be reached
G21 ; set units to millimeters
G90 ; use absolute coordinates
M82 ; use absolute distances for extrusion
G92 E0
G1 E-2.00000 F3600.00000
G92 E0
G1 Z0.280 F7200.000
G1 X92.666 Y49.876 F7200.000
G1 E2.00000 F3600.00000
G1 X94.513 Y47.581 E2.15391 F1200.000
G1 X96.908 Y45.865 E2.30781
G1 X99.675 Y44.853 E2.46172
G1 X102.000 Y44.602 E2.58391
G1 X148.000 Y44.602 E4.98718
G1 X150.919 Y45.001 E5.14108
G1 X153.624 Y46.166 E5.29499 F1200.000
G1 X155.919 Y48.013 E5.44890
G1 X157.635 Y50.408 E5.60280
G1 X158.647 Y53.175 E5.75671
G1 X158.898 Y55.500 E5.87890
G1 X158.898 Y59.500 E6.08788
G1 X158.805 Y60.920 E6.16223
G1 X158.770 Y61.181 E6.17599
G1 X158.501 Y62.547 E6.24875
G1 X149.501 Y96.547 E8.08625
G1 X149.034 Y97.928 E8.16239
G1 X148.934 Y98.170 E8.17610
G1 X147.513 Y100.633 E8.32462
G1 X147.353 Y100.841 E8.33835
G1 X145.341 Y102.853 E8.48698
G1 X145.134 Y103.012 E8.50062
G1 X142.670 Y104.434 E8.64925
G1 X142.429 Y104.534 E8.66289
G1 X139.681 Y105.270 E8.81152
G1 X139.422 Y105.304 E8.82519
G1 X138.000 Y105.398 E8.89963
G1 X112.000 Y105.398 E10.25800
G1 X110.580 Y105.305 E10.33234
G1 X110.319 Y105.270 E10.34611
G1 X107.572 Y104.534 E10.49470
G1 X107.330 Y104.434 E10.50838
G1 X104.860 Y103.007 E10.65739
G1 X104.659 Y102.853 E10.67065
G1 X102.647 Y100.841 E10.81928
G1 X102.488 Y100.634 E10.83291
G1 X101.067 Y98.172 E10.98145
G1 X100.966 Y97.929 E10.99518
G1 X100.499 Y96.547 E11.07137
G1 X91.499 Y62.547 E12.90888
G1 X91.230 Y61.181 E12.98163
G1 X91.195 Y60.921 E12.99534
G1 X91.102 Y59.500 E13.06974
G1 X91.102 Y55.500 E13.27872
G1 X91.501 Y52.581 E13.43263
G1 X92.642 Y49.931 E13.58340
G1 X93.088 Y50.062 F7200.000
G1 X93.113 Y50.004 E13.58668 F1200.000
G1 X94.954 Y47.784 E13.73737
G1 X97.332 Y46.152 E13.88806
G1 X100.066 Y45.232 E14.03874
G1 X102.000 Y45.051 E14.14023
G1 X148.000 Y45.051 E16.54350
G1 X150.857 Y45.449 E16.69419
G1 X153.496 Y46.613 E16.84488 F1200.000
G1 X155.716 Y48.454 E16.99557
G1 X157.348 Y50.832 E17.14625
G1 X158.268 Y53.566 E17.29694
G1 X158.449 Y55.500 E17.39843
G1 X158.449 Y59.500 E17.60741
G1 X158.360 Y60.861 E17.67869
G1 X158.325 Y61.123 E17.69245
G1 X158.067 Y62.433 E17.76221
G1 X149.067 Y96.433 E19.59972
G1 X148.620 Y97.756 E19.67272
G1 X148.519 Y97.999 E19.68642
G1 X147.157 Y100.359 E19.82883
G1 X146.997 Y100.568 E19.84256
G1 X145.068 Y102.497 E19.98507
G1 X144.861 Y102.656 E19.99871
G1 X142.499 Y104.019 E20.14122
G1 X142.257 Y104.119 E20.15485
G1 X139.623 Y104.825 E20.29737
G1 X139.363 Y104.859 E20.31104
G1 X138.000 Y104.949 E20.38241
G1 X112.000 Y104.949 E21.74078
G1 X110.639 Y104.860 E21.81206
G1 X110.377 Y104.825 E21.82582
G1 X107.743 Y104.120 E21.96829
G1 X107.501 Y104.019 E21.98197
G1 X105.135 Y102.652 E22.12475
G1 X104.932 Y102.497 E22.13812
G1 X103.003 Y100.568 E22.28062
G1 X102.844 Y100.361 E22.29426
G1 X101.481 Y98.000 E22.43668
G1 X101.381 Y97.757 E22.45040
G1 X100.933 Y96.433 E22.52346
G1 X91.933 Y62.433 E24.36097
G1 X91.675 Y61.123 E24.43072
G1 X91.640 Y60.863 E24.44443
G1 X91.551 Y59.500 E24.51577
G1 X91.551 Y55.500 E24.72475
G1 X91.949 Y52.643 E24.87544
G1 X93.064 Y50.117 E25.01971
G1 F5760
G1 X93.113 Y50.004 E24.94684
G1 F5760
G1 X94.954 Y47.784 E23.23430
G1 F5760
G1 X95.113 Y47.675 E23.11971
G1 E23.01971 F3600.00000
G92 E0
G1 X95.344 Y52.318 F7200.000
G1 E2.00000 F3600.00000
G1 X99.119 Y48.544 E2.27887 F1200.000
G1 X150.881 Y48.544 E4.98322
G1 X154.956 Y52.619 E5.28430
G1 X154.956 Y59.727 E5.65569 F1200.000
G1 X154.927 Y60.181 E5.67945
G1 X154.803 Y61.119 E5.72885
G1 X154.567 Y61.999 E5.77648
G1 X154.119 Y63.083 E5.83777
G1 X153.663 Y63.872 E5.88538
G1 X152.948 Y64.804 E5.94672
G1 X152.303 Y65.449 E5.99437
G1 X151.373 Y66.162 E6.05562
G1 X150.584 Y66.618 E6.10324
G1 X149.500 Y67.067 E6.16455
G1 X148.619 Y67.303 E6.21219
G1 X147.682 Y67.427 E6.26155
G1 X147.228 Y67.456 E6.28535
G1 X146.219 Y67.456 E6.33803
G1 X145.956 Y67.719 E6.35746
G1 X145.956 Y93.727 E7.71624
G1 X145.927 Y94.180 E7.73997
G1 X145.803 Y95.119 E7.78940
G1 X145.567 Y95.999 E7.83703
G1 X145.118 Y97.083 E7.89833
G1 X144.663 Y97.872 E7.94594
G1 X143.948 Y98.804 E8.00729
G1 X143.302 Y99.450 E8.05501
G1 X142.373 Y100.163 E8.11619
G1 X141.583 Y100.619 E8.16387
G1 X140.500 Y101.067 E8.22511
G1 X139.619 Y101.303 E8.27275
G1 X138.682 Y101.427 E8.32212
G1 X138.228 Y101.456 E8.34591
G1 X111.773 Y101.456 E9.72804
G1 X111.319 Y101.427 E9.75180
G1 X110.381 Y101.303 E9.80120
G1 X109.501 Y101.067 E9.84883
G1 X108.417 Y100.619 E9.91012
G1 X107.628 Y100.163 E9.95773
G1 X106.696 Y99.448 E10.01907
G1 X106.051 Y98.803 E10.06672
G1 X105.338 Y97.873 E10.12797
G1 X105.212 Y97.679 E10.14004
G1 X104.445 Y97.006 E10.19337
G1 X104.073 Y94.181 E10.34225
G1 X104.044 Y93.727 E10.36600
G1 X104.044 Y67.719 E11.72479
G1 X103.781 Y67.456 E11.74421
G1 X102.772 Y67.456 E11.79691
G1 X102.317 Y67.427 E11.82073
G1 X101.381 Y67.303 E11.87005
G1 X100.500 Y67.067 E11.91771
G1 X99.417 Y66.618 E11.97897
G1 X98.627 Y66.163 E12.02660
G1 X97.696 Y65.448 E12.08789
G1 X97.052 Y64.804 E12.13553
G1 X96.338 Y63.873 E12.19680
G1 X95.882 Y63.084 E12.24441
G1 X95.433 Y62.000 E12.30574
G1 X95.197 Y61.119 E12.35338
G1 X95.073 Y60.182 E12.40273
G1 X95.044 Y59.728 E12.42653
G1 X95.044 Y52.619 E12.79795
G1 X95.302 Y52.360 E12.81702
G1 X95.662 Y52.635 F7200.000
G1 X99.304 Y48.992 E13.08618 F1200.000
G1 X150.696 Y48.992 E15.77110
G1 X154.508 Y52.804 E16.05275 F1200.000
G1 X154.508 Y59.713 E16.41367
G1 X154.480 Y60.137 E16.43589
G1 X154.362 Y61.031 E16.48299
G1 X154.141 Y61.855 E16.52755
G1 X153.715 Y62.884 E16.58576
G1 X153.289 Y63.622 E16.63030
G1 X152.610 Y64.507 E16.68856
G1 X152.007 Y65.110 E16.73313
G1 X151.123 Y65.788 E16.79132
G1 X150.385 Y66.215 E16.83587
G1 X149.984 Y66.381 E16.85853
G1 X149.355 Y66.641 E16.89410
G1 X148.531 Y66.862 E16.93867
G1 X147.638 Y66.980 E16.98572
G1 X147.213 Y67.008 E17.00798
G1 X145.770 Y67.008 E17.08335
G1 X145.508 Y67.270 E17.10277
G1 X145.508 Y93.712 E18.48423
G1 X145.480 Y94.137 E18.50644
G1 X145.362 Y95.031 E18.55356
G1 X145.142 Y95.855 E18.59812
G1 X144.976 Y96.255 E18.62078
G1 X144.715 Y96.884 E18.65634
G1 X144.289 Y97.623 E18.70088
G1 X143.610 Y98.508 E18.75915
G1 X143.006 Y99.112 E18.80379
G1 X142.123 Y99.789 E18.86191
G1 X141.384 Y100.215 E18.90650
G1 X140.355 Y100.641 E18.96467
G1 X139.531 Y100.862 E19.00925
G1 X138.638 Y100.980 E19.05631
G1 X138.213 Y101.008 E19.07856
G1 X111.787 Y101.008 E20.45916
G1 X111.363 Y100.980 E20.48138
G1 X110.469 Y100.862 E20.52848
G1 X109.645 Y100.641 E20.57304
G1 X108.616 Y100.215 E20.63125
G1 X107.878 Y99.789 E20.67579
G1 X107.533 Y99.525 E20.69845
G1 X106.993 Y99.110 E20.73405
G1 X106.389 Y98.507 E20.77863
G1 X105.712 Y97.623 E20.83681
G1 X105.564 Y97.391 E20.85121
G1 X104.867 Y96.780 E20.89958
G1 X104.520 Y94.137 E21.03887
G1 X104.492 Y93.713 E21.06109
G1 X104.492 Y67.270 E22.44255
G1 X104.230 Y67.008 E22.46198
G1 X102.787 Y67.008 E22.53736
G1 X102.361 Y66.980 E22.55964
G1 X101.469 Y66.862 E22.60666
G1 X100.645 Y66.641 E22.65124
G1 X99.616 Y66.215 E22.70943
G1 X98.877 Y65.789 E22.75398
G1 X97.993 Y65.110 E22.81220
G1 X97.390 Y64.507 E22.85676
G1 X96.712 Y63.623 E22.91497
G1 X96.285 Y62.885 E22.95951
G1 X95.859 Y61.855 E23.01775
G1 X95.638 Y61.031 E23.06232
G1 X95.520 Y60.138 E23.10937
G1 X95.492 Y59.713 E23.13163
G1 X95.492 Y52.804 E23.49257
G1 X95.619 Y52.678 E23.50193
G1 X95.979 Y52.953 F7200.000
G1 X99.490 Y49.441 E23.76138 F1200.000
G1 X150.510 Y49.441 E26.42687
G1 X154.059 Y52.990 E26.68910
G1 X154.059 Y59.698 E27.03954 F1200.000
G1 X154.033 Y60.093 E27.06023
G1 X153.921 Y60.943 E27.10502
G1 X153.716 Y61.710 E27.14651
G1 X153.312 Y62.685 E27.20165
G1 X152.915 Y63.373 E27.24311
G1 X152.272 Y64.211 E27.29830
G1 X151.710 Y64.772 E27.33980
G1 X150.873 Y65.414 E27.39491
G1 X150.186 Y65.811 E27.43639
G1 X149.211 Y66.215 E27.49154
G1 X148.443 Y66.421 E27.53304
G1 X147.594 Y66.533 E27.57778
G1 X147.198 Y66.559 E27.59851
G1 X145.322 Y66.559 E27.69656
G1 X145.059 Y66.822 E27.71598
G1 X145.059 Y93.698 E29.12012
G1 X145.033 Y94.093 E29.14080
G1 X144.921 Y94.943 E29.18561
G1 X144.716 Y95.710 E29.22709
G1 X144.312 Y96.685 E29.28224
G1 X143.915 Y97.373 E29.32371
G1 X143.669 Y97.694 E29.34483
G1 X143.272 Y98.211 E29.37891
G1 X142.709 Y98.773 E29.42046
G1 X141.873 Y99.415 E29.47551
G1 X141.185 Y99.812 E29.51703
G1 X140.211 Y100.215 E29.57213
G1 X139.443 Y100.421 E29.61363
G1 X138.594 Y100.533 E29.65839
G1 X138.198 Y100.559 E29.67911
G1 X111.802 Y100.559 E31.05817
G1 X111.407 Y100.533 E31.07886
G1 X110.557 Y100.421 E31.12365
G1 X109.790 Y100.216 E31.16514
G1 X108.815 Y99.812 E31.22028
G1 X108.127 Y99.415 E31.26174
G1 X107.807 Y99.169 E31.28287
G1 X107.289 Y98.772 E31.31693
G1 X106.728 Y98.210 E31.35843
G1 X106.086 Y97.373 E31.41354
G1 X105.915 Y97.102 E31.43027
G1 X105.290 Y96.554 E31.47369
G1 X104.967 Y94.093 E31.60338
G1 X104.941 Y93.698 E31.62406
G1 X104.941 Y66.822 E33.02821
G1 X104.678 Y66.559 E33.04764
G1 X102.801 Y66.559 E33.14570
G1 X102.405 Y66.533 E33.16644
G1 X101.557 Y66.421 E33.21116
G1 X100.789 Y66.215 E33.25266
G1 X99.815 Y65.812 E33.30778
G1 X99.127 Y65.415 E33.34926
G1 X98.290 Y64.772 E33.40441
G1 X97.728 Y64.211 E33.44590
G1 X97.086 Y63.373 E33.50103
G1 X96.689 Y62.686 E33.54250
G1 X96.285 Y61.711 E33.59767
G1 X96.079 Y60.943 E33.63916
G1 X95.967 Y60.094 E33.68391
G1 X95.941 Y59.698 E33.70463
G1 X95.941 Y52.997 E34.05474
G1 X96.390 Y53.176 F7200.000
G1 X99.676 Y49.890 E34.29754 F1200.000
G1 X150.324 Y49.890 E36.94361
G1 X153.610 Y53.176 E37.18642 F1200.000
G1 X153.610 Y59.683 E37.52638
G1 X153.586 Y60.049 E37.54554
G1 X153.480 Y60.855 E37.58802
G1 X153.290 Y61.566 E37.62643
G1 X153.146 Y61.912 E37.64603
G1 X152.908 Y62.486 E37.67850
G1 X152.541 Y63.123 E37.71689
G1 X151.934 Y63.914 E37.76900
G1 X151.414 Y64.434 E37.80742
G1 X150.624 Y65.040 E37.85946
G1 X149.987 Y65.408 E37.89787
G1 X149.640 Y65.552 E37.91748
G1 X149.066 Y65.790 E37.94995
G1 X148.356 Y65.980 E37.98837
G1 X147.550 Y66.086 E38.03081
G1 X147.184 Y66.110 E38.05000
G1 X144.873 Y66.110 E38.17073
G1 X144.610 Y66.373 E38.19015
G1 X144.610 Y93.683 E39.61698
G1 X144.586 Y94.049 E39.63612
G1 X144.480 Y94.855 E39.67863
G1 X144.290 Y95.566 E39.71703
G1 X144.146 Y95.912 E39.73663
G1 X143.908 Y96.486 E39.76911
G1 X143.541 Y97.123 E39.80750
G1 X142.934 Y97.914 E39.85962
G1 X142.413 Y98.435 E39.89810
G1 X141.623 Y99.041 E39.95009
G1 X140.986 Y99.409 E39.98853
G1 X140.066 Y99.790 E40.04056
G1 X139.356 Y99.980 E40.07898
G1 X138.550 Y100.086 E40.12144
G1 X138.184 Y100.110 E40.14062
G1 X111.817 Y100.110 E41.51815
G1 X111.451 Y100.086 E41.53731
G1 X110.645 Y99.980 E41.57979
G1 X109.934 Y99.790 E41.61820
G1 X109.014 Y99.408 E41.67027
G1 X108.377 Y99.041 E41.70866
G1 X108.079 Y98.812 E41.72828
G1 X107.586 Y98.434 E41.76077
G1 X107.066 Y97.914 E41.79920
G1 X106.460 Y97.124 E41.85123
G1 X106.267 Y96.814 E41.87029
G1 X105.713 Y96.328 E41.90876
G1 X105.414 Y94.049 E42.02886
G1 X105.390 Y93.683 E42.04801
G1 X105.390 Y66.373 E43.47484
G1 X105.127 Y66.110 E43.49426
G1 X102.816 Y66.110 E43.61500
G1 X102.449 Y66.086 E43.63421
G1 X101.644 Y65.980 E43.67663
G1 X100.934 Y65.790 E43.71505
G1 X100.014 Y65.408 E43.76710
G1 X99.377 Y65.041 E43.80551
G1 X98.586 Y64.434 E43.85758
G1 X98.066 Y63.914 E43.89599
G1 X97.460 Y63.124 E43.94805
G1 X97.092 Y62.487 E43.98645
G1 X96.710 Y61.566 E44.03854
G1 X96.520 Y60.856 E44.07696
G1 X96.414 Y60.050 E44.11940
G1 X96.390 Y59.684 E44.13859
G1 X96.390 Y53.236 E44.47544
G1 X96.839 Y53.362 F7200.000
G1 X99.862 Y50.339 E44.69882 F1200.000
G1 X150.138 Y50.339 E47.32547
G1 X153.161 Y53.362 E47.54885
G1 X153.161 Y59.669 E47.87833 F1200.000
G1 X153.139 Y60.005 E47.89595
G1 X153.039 Y60.768 E47.93613
G1 X152.864 Y61.421 E47.97147
G1 X152.505 Y62.287 E48.02046
G1 X152.167 Y62.873 E48.05578
G1 X151.596 Y63.617 E48.10481
G1 X151.117 Y64.096 E48.14016
G1 X150.374 Y64.667 E48.18913
G1 X149.788 Y65.005 E48.22446
G1 X148.921 Y65.364 E48.27347
G1 X148.268 Y65.539 E48.30882
G1 X147.506 Y65.639 E48.34895
G1 X147.169 Y65.661 E48.36661
G1 X144.424 Y65.661 E48.51002
G1 X144.161 Y65.924 E48.52944
G1 X144.161 Y93.669 E49.97895
G1 X144.139 Y94.005 E49.99655
G1 X144.039 Y94.768 E50.03675
G1 X143.864 Y95.421 E50.07209
G1 X143.732 Y95.740 E50.09015
G1 X143.505 Y96.287 E50.12109
G1 X143.167 Y96.873 E50.15641
G1 X142.596 Y97.618 E50.20545
G1 X142.116 Y98.097 E50.24085
G1 X141.373 Y98.667 E50.28977
G1 X140.787 Y99.005 E50.32514
G1 X139.921 Y99.364 E50.37409
G1 X139.268 Y99.539 E50.40944
G1 X138.506 Y99.639 E50.44959
G1 X138.169 Y99.661 E50.46724
G1 X111.831 Y99.661 E51.84324
G1 X111.495 Y99.639 E51.86086
G1 X110.732 Y99.539 E51.90104
G1 X110.079 Y99.364 E51.93638
G1 X109.213 Y99.005 E51.98537
G1 X108.627 Y98.667 E52.02069
G1 X108.353 Y98.457 E52.03875
G1 X107.882 Y98.096 E52.06972
G1 X107.404 Y97.617 E52.10508
G1 X106.834 Y96.874 E52.15404
G1 X106.618 Y96.525 E52.17543
G1 X106.136 Y96.102 E52.20894
G1 X105.861 Y94.005 E52.31944
G1 X105.839 Y93.669 E52.33706
G1 X105.839 Y65.924 E53.78657
G1 X105.576 Y65.661 E53.80600
G1 X102.831 Y65.661 E53.94941
G1 X102.493 Y65.639 E53.96709
G1 X101.732 Y65.539 E54.00720
G1 X101.078 Y65.364 E54.04256
G1 X100.212 Y65.005 E54.09153
G1 X99.627 Y64.667 E54.12687
G1 X98.883 Y64.096 E54.17586
G1 X98.404 Y63.617 E54.21120
G1 X97.834 Y62.874 E54.26019
G1 X97.495 Y62.288 E54.29551
G1 X97.136 Y61.421 E54.34453
G1 X96.961 Y60.768 E54.37988
G1 X96.861 Y60.006 E54.42001
G1 X96.839 Y59.669 E54.43767
G1 X96.839 Y53.422 E54.76403
G1 X97.288 Y53.548 F7200.000
G1 X100.048 Y50.788 E54.96799 F1200.000
G1 X149.952 Y50.788 E57.57521
G1 X152.712 Y53.548 E57.77917 F1200.000
G1 X152.712 Y59.654 E58.09817
G1 X152.692 Y59.961 E58.11426
G1 X152.598 Y60.680 E58.15213
G1 X152.438 Y61.277 E58.18440
G1 X152.102 Y62.088 E58.23031
G1 X151.793 Y62.623 E58.26256
G1 X151.601 Y62.874 E58.27908
G1 X151.258 Y63.321 E58.30852
G1 X150.821 Y63.758 E58.34079
G1 X150.124 Y64.293 E58.38669
G1 X149.589 Y64.601 E58.41895
G1 X148.777 Y64.938 E58.46488
G1 X148.180 Y65.098 E58.49715
G1 X147.462 Y65.192 E58.53499
G1 X147.154 Y65.212 E58.55111
G1 X143.975 Y65.212 E58.71719
G1 X143.712 Y65.475 E58.73662
G1 X143.712 Y93.654 E60.20881
G1 X143.692 Y93.961 E60.22488
G1 X143.598 Y94.680 E60.26277
G1 X143.438 Y95.276 E60.29504
G1 X143.317 Y95.569 E60.31156
G1 X143.102 Y96.089 E60.34096
G1 X142.793 Y96.623 E60.37321
G1 X142.257 Y97.321 E60.41917
G1 X141.820 Y97.759 E60.45150
G1 X141.124 Y98.293 E60.49735
G1 X140.588 Y98.602 E60.52964
G1 X139.777 Y98.938 E60.57552
G1 X139.180 Y99.098 E60.60780
G1 X138.462 Y99.192 E60.64564
G1 X138.154 Y99.212 E60.66176
G1 X111.846 Y99.212 E62.03622
G1 X111.539 Y99.192 E62.05231
G1 X110.820 Y99.098 E62.09018
G1 X110.223 Y98.938 E62.12245
G1 X109.411 Y98.602 E62.16837
G1 X108.877 Y98.293 E62.20062
G1 X108.626 Y98.101 E62.21713
G1 X108.179 Y97.758 E62.24657
G1 X107.742 Y97.321 E62.27885
G1 X107.207 Y96.624 E62.32474
G1 X107.017 Y96.293 E62.34467
G1 X106.559 Y95.876 E62.37701
G1 X106.308 Y93.961 E62.47793
G1 X106.288 Y93.654 E62.49401
G1 X106.288 Y65.475 E63.96620
G1 X106.025 Y65.212 E63.98563
G1 X102.846 Y65.212 E64.15172
G1 X102.537 Y65.192 E64.16786
G1 X101.820 Y65.098 E64.20567
G1 X101.223 Y64.938 E64.23795
G1 X100.411 Y64.602 E64.28385
G1 X99.876 Y64.293 E64.31612
G1 X99.179 Y63.758 E64.36204
G1 X98.742 Y63.321 E64.39431
G1 X98.207 Y62.624 E64.44022
G1 X97.899 Y62.089 E64.47247
G1 X97.562 Y61.277 E64.51841
G1 X97.402 Y60.680 E64.55068
G1 X97.308 Y59.962 E64.58852
G1 X97.288 Y59.654 E64.60464
G1 X97.288 Y53.608 E64.92052
G1 X97.736 Y53.734 F7200.000
G1 X100.234 Y51.236 E65.10505 F1200.000
G1 X149.766 Y51.236 E67.69285
G1 X152.264 Y53.734 E67.87738
G1 X152.264 Y59.639 E68.18591 F1200.000
G1 X152.245 Y59.917 E68.20047
G1 X152.157 Y60.592 E68.23603
G1 X152.012 Y61.132 E68.26522
G1 X151.698 Y61.890 E68.30806
G1 X151.419 Y62.373 E68.33724
