; generated by Slic3r 1.2.9 on 2018-05-05 at 19:27:08

; external perimeters extrusion width = 0.40mm
; perimeters extrusion width = 0.58mm
; infill extrusion width = 0.58mm
; solid infill extrusion width = 0.58mm
; top infill extrusion width = 0.58mm

M104 S220 ; set temperature
;G28 ; home all axes
G1 Z10 F5000 ; lift nozzle

M104 S220 ; set temperature
M116 ; wait for temperature to be reached
G21 ; set units to millimeters
G90 ; use absolute coordinates
M82 ; use absolute distances for extrusion
G92 E0
G1 E-2.00000 F3600.00000
G92 E0
G1 Z0.280 F7200.000
G1 X73.666 Y46.376 F7200.000
G1 E2.00000 F3600.00000
G1 X75.513 Y44.081 E2.15391 F1200.000
G1 X77.908 Y42.365 E2.30781
G1 X80.675 Y41.353 E2.46172
G1 X83.000 Y41.102 E2.58391
G1 X132.000 Y41.102 E5.14391
G1 X133.421 Y41.195 E5.21831
G1 X133.681 Y41.230 E5.23203 F1200.000
G1 X135.047 Y41.499 E5.30478
G1 X169.047 Y50.499 E7.14228
G1 X170.429 Y50.966 E7.21848
G1 X170.670 Y51.066 E7.23212
G1 X173.134 Y52.488 E7.38073
G1 X173.341 Y52.647 E7.39438
G1 X175.353 Y54.659 E7.54301
G1 X175.512 Y54.866 E7.55665
G1 X176.934 Y57.330 E7.70528
G1 X177.034 Y57.571 E7.71892
G1 X177.770 Y60.319 E7.86755
G1 X177.805 Y60.580 E7.88132
G1 X177.898 Y62.000 E7.95566
G1 X177.898 Y88.000 E9.31403
G1 X177.804 Y89.422 E9.38846
G1 X177.770 Y89.681 E9.40214
G1 X177.034 Y92.429 E9.55076
G1 X176.934 Y92.670 E9.56441
G1 X175.513 Y95.132 E9.71293
G1 X175.353 Y95.341 E9.72668
G1 X173.341 Y97.353 E9.87531
G1 X173.134 Y97.512 E9.88895
G1 X170.670 Y98.934 E10.03756
G1 X170.429 Y99.034 E10.05120
G1 X169.047 Y99.501 E10.12741
G1 X135.047 Y108.501 E11.96491
G1 X133.681 Y108.770 E12.03767
G1 X133.420 Y108.805 E12.05143
G1 X132.000 Y108.898 E12.12578
G1 X83.000 Y108.898 E14.68578
G1 X80.081 Y108.499 E14.83968
G1 X77.376 Y107.334 E14.99359
G1 X75.081 Y105.487 E15.14749
G1 X73.365 Y103.092 E15.30140
G1 X72.353 Y100.325 E15.45531
G1 X72.102 Y98.000 E15.57750
G1 X72.102 Y52.000 E17.98077
G1 X72.501 Y49.081 E18.13467
G1 X73.642 Y46.431 E18.28544
G1 X74.088 Y46.562 F7200.000
G1 X74.113 Y46.504 E18.28872 F1200.000
G1 X75.954 Y44.284 E18.43941
G1 X78.332 Y42.652 E18.59010
G1 X81.066 Y41.732 E18.74079
G1 X83.000 Y41.551 E18.84228
G1 X132.000 Y41.551 E21.40228
G1 X133.363 Y41.640 E21.47361
G1 X133.623 Y41.675 E21.48732 F1200.000
G1 X134.933 Y41.933 E21.55708
G1 X168.933 Y50.933 E23.39459
G1 X170.257 Y51.381 E23.46764
G1 X170.499 Y51.481 E23.48128
G1 X172.861 Y52.844 E23.62377
G1 X173.068 Y53.003 E23.63743
G1 X174.997 Y54.932 E23.77993
G1 X175.156 Y55.139 E23.79357
G1 X176.519 Y57.501 E23.93608
G1 X176.619 Y57.743 E23.94972
G1 X177.325 Y60.377 E24.09223
G1 X177.360 Y60.639 E24.10599
G1 X177.449 Y62.000 E24.17727
G1 X177.449 Y88.000 E25.53564
G1 X177.359 Y89.363 E25.60701
G1 X177.325 Y89.623 E25.62068
G1 X176.619 Y92.257 E25.76318
G1 X176.519 Y92.499 E25.77683
G1 X175.157 Y94.859 E25.91924
G1 X174.997 Y95.068 E25.93298
G1 X173.068 Y96.997 E26.07549
G1 X172.861 Y97.156 E26.08913
G1 X170.499 Y98.519 E26.23162
G1 X170.258 Y98.619 E26.24526
G1 X168.933 Y99.067 E26.31833
G1 X134.933 Y108.067 E28.15583
G1 X133.623 Y108.325 E28.22559
G1 X133.361 Y108.360 E28.23935
G1 X132.000 Y108.449 E28.31064
G1 X83.000 Y108.449 E30.87064
G1 X80.143 Y108.051 E31.02133
G1 X77.504 Y106.887 E31.17201
G1 X75.284 Y105.046 E31.32270
G1 X73.652 Y102.668 E31.47339
G1 X72.732 Y99.934 E31.62408
G1 X72.551 Y98.000 E31.72557
G1 X72.551 Y52.000 E34.12883
G1 X72.949 Y49.143 E34.27952
G1 X74.064 Y46.617 E34.42380
G1 F5760
G1 X74.113 Y46.504 E34.35093
G1 F5760
G1 X75.954 Y44.284 E32.63839
G1 F5760
G1 X76.113 Y44.175 E32.52380
G1 E32.42380 F3600.00000
G92 E0
G1 X76.344 Y48.818 F7200.000
G1 E2.00000 F3600.00000
G1 X80.119 Y45.044 E2.27887 F1200.000
G1 X87.228 Y45.044 E2.65029
G1 X87.682 Y45.073 E2.67409
G1 X88.619 Y45.197 E2.72343 F1200.000
G1 X89.499 Y45.433 E2.77106
G1 X90.583 Y45.882 E2.83236
G1 X91.373 Y46.337 E2.87998
G1 X91.740 Y46.619 E2.90419
G1 X92.304 Y47.052 E2.94128
G1 X92.948 Y47.696 E2.98891
G1 X93.662 Y48.627 E3.05020
G1 X94.118 Y49.416 E3.09783
G1 X94.567 Y50.500 E3.15913
G1 X94.803 Y51.381 E3.20677
G1 X94.927 Y52.317 E3.25609
G1 X94.956 Y52.772 E3.27991
G1 X94.956 Y53.781 E3.33261
G1 X95.219 Y54.044 E3.35203
G1 X120.781 Y54.044 E4.68749
G1 X121.044 Y53.781 E4.70691
G1 X121.044 Y49.119 E4.95049
G1 X125.119 Y45.044 E5.25157
G1 X132.228 Y45.044 E5.62298
G1 X132.682 Y45.073 E5.64678
G1 X133.619 Y45.197 E5.69613
G1 X134.499 Y45.433 E5.74375
G1 X135.583 Y45.882 E5.80505
G1 X136.373 Y46.337 E5.85268
G1 X136.740 Y46.619 E5.87688
G1 X137.304 Y47.052 E5.91397
G1 X137.948 Y47.696 E5.96161
G1 X138.662 Y48.627 E6.02290
G1 X139.118 Y49.416 E6.07053
G1 X139.567 Y50.500 E6.13182
G1 X139.803 Y51.381 E6.17946
G1 X139.927 Y52.317 E6.22878
G1 X139.956 Y52.772 E6.25260
G1 X139.956 Y53.781 E6.30530
G1 X140.219 Y54.044 E6.32473
G1 X166.227 Y54.044 E7.68351
G1 X166.681 Y54.073 E7.70726
G1 X169.506 Y54.445 E7.85614
G1 X170.179 Y55.212 E7.90947
G1 X170.373 Y55.337 E7.92153
G1 X171.304 Y56.052 E7.98283
G1 X171.949 Y56.697 E8.03051
G1 X172.663 Y57.627 E8.09175
G1 X173.119 Y58.418 E8.13944
G1 X173.567 Y59.500 E8.20066
G1 X173.803 Y60.381 E8.24830
G1 X173.927 Y61.319 E8.29772
G1 X173.956 Y61.773 E8.32147
G1 X173.956 Y88.228 E9.70361
G1 X173.927 Y88.682 E9.72739
G1 X173.803 Y89.619 E9.77676
G1 X173.567 Y90.500 E9.82440
G1 X173.119 Y91.583 E9.88567
G1 X172.663 Y92.372 E9.93328
G1 X171.948 Y93.304 E9.99464
G1 X171.302 Y93.949 E10.04233
G1 X170.373 Y94.663 E10.10354
G1 X169.583 Y95.119 E10.15120
G1 X168.500 Y95.567 E10.21245
G1 X167.619 Y95.803 E10.26010
G1 X166.682 Y95.927 E10.30947
G1 X166.228 Y95.956 E10.33325
G1 X140.219 Y95.956 E11.69206
G1 X139.956 Y96.219 E11.71148
G1 X139.956 Y97.228 E11.76417
G1 X139.927 Y97.682 E11.78797
G1 X139.803 Y98.619 E11.83732
G1 X139.567 Y99.500 E11.88497
G1 X139.118 Y100.583 E11.94624
G1 X138.663 Y101.373 E11.99388
G1 X137.948 Y102.304 E12.05518
G1 X137.303 Y102.949 E12.10286
G1 X136.373 Y103.663 E12.16410
G1 X135.583 Y104.119 E12.21177
G1 X134.500 Y104.567 E12.27301
G1 X133.619 Y104.803 E12.32066
G1 X132.681 Y104.927 E12.37007
G1 X132.227 Y104.956 E12.39382
G1 X125.119 Y104.956 E12.76522
G1 X121.044 Y100.881 E13.06630
G1 X121.044 Y96.219 E13.30987
G1 X120.781 Y95.956 E13.32930
G1 X95.219 Y95.956 E14.66475
G1 X94.956 Y96.219 E14.68418
G1 X94.956 Y97.228 E14.73686
G1 X94.927 Y97.682 E14.76066
G1 X94.803 Y98.619 E14.81002
G1 X94.567 Y99.500 E14.85767
G1 X94.118 Y100.583 E14.91893
G1 X93.663 Y101.373 E14.96657
G1 X92.948 Y102.304 E15.02788
G1 X92.303 Y102.949 E15.07555
G1 X91.373 Y103.663 E15.13679
G1 X90.583 Y104.119 E15.18446
G1 X89.500 Y104.567 E15.24570
G1 X88.619 Y104.803 E15.29335
G1 X87.681 Y104.927 E15.34277
G1 X87.227 Y104.956 E15.36652
G1 X80.119 Y104.956 E15.73791
G1 X76.044 Y100.881 E16.03899
G1 X76.044 Y49.119 E18.74334
G1 X76.302 Y48.860 E18.76241
G1 X76.662 Y49.135 F7200.000
G1 X80.304 Y45.492 E19.03157 F1200.000
G1 X87.213 Y45.492 E19.39251
G1 X87.638 Y45.520 E19.41477 F1200.000
G1 X88.531 Y45.638 E19.46181
G1 X89.355 Y45.858 E19.50636
G1 X90.384 Y46.285 E19.56459
G1 X91.123 Y46.711 E19.60914
G1 X91.467 Y46.975 E19.63181
G1 X92.007 Y47.390 E19.66736
G1 X92.610 Y47.993 E19.71192
G1 X93.288 Y48.877 E19.77014
G1 X93.715 Y49.615 E19.81470
G1 X94.141 Y50.645 E19.87292
G1 X94.362 Y51.469 E19.91749
G1 X94.480 Y52.361 E19.96450
G1 X94.508 Y52.787 E19.98679
G1 X94.508 Y54.230 E20.06217
G1 X94.770 Y54.492 E20.08159
G1 X121.230 Y54.492 E21.46394
G1 X121.492 Y54.230 E21.48337
G1 X121.492 Y49.304 E21.74067
G1 X125.304 Y45.492 E22.02233
G1 X132.213 Y45.492 E22.38327
G1 X132.638 Y45.520 E22.40553
G1 X133.531 Y45.638 E22.45257
G1 X134.355 Y45.858 E22.49712
G1 X135.384 Y46.285 E22.55535
G1 X136.123 Y46.711 E22.59990
G1 X136.467 Y46.975 E22.62257
G1 X137.007 Y47.390 E22.65812
G1 X137.610 Y47.993 E22.70268
G1 X138.288 Y48.877 E22.76090
G1 X138.715 Y49.615 E22.80546
G1 X139.141 Y50.645 E22.86368
G1 X139.362 Y51.469 E22.90824
G1 X139.480 Y52.361 E22.95526
G1 X139.508 Y52.787 E22.97754
G1 X139.508 Y54.230 E23.05292
G1 X139.770 Y54.492 E23.07235
G1 X166.213 Y54.492 E24.45381
G1 X166.637 Y54.520 E24.47603
G1 X169.280 Y54.867 E24.61532
G1 X169.891 Y55.564 E24.66369
G1 X170.123 Y55.711 E24.67808
G1 X171.007 Y56.390 E24.73630
G1 X171.611 Y56.994 E24.78090
G1 X172.289 Y57.877 E24.83908
G1 X172.716 Y58.617 E24.88369
G1 X173.141 Y59.645 E24.94184
G1 X173.362 Y60.469 E24.98641
G1 X173.480 Y61.363 E25.03352
G1 X173.508 Y61.787 E25.05574
G1 X173.508 Y88.213 E26.43634
G1 X173.480 Y88.638 E26.45859
G1 X173.362 Y89.531 E26.50565
G1 X173.141 Y90.355 E26.55022
G1 X172.715 Y91.384 E26.60842
G1 X172.289 Y92.122 E26.65295
G1 X171.610 Y93.007 E26.71124
G1 X171.006 Y93.611 E26.75585
G1 X170.123 Y94.289 E26.81399
G1 X169.384 Y94.715 E26.85858
G1 X168.355 Y95.141 E26.91675
G1 X167.531 Y95.362 E26.96133
G1 X166.638 Y95.480 E27.00840
G1 X166.213 Y95.508 E27.03064
G1 X139.770 Y95.508 E28.41213
G1 X139.508 Y95.770 E28.43155
G1 X139.508 Y97.213 E28.50692
G1 X139.480 Y97.638 E28.52918
G1 X139.362 Y98.531 E28.57623
G1 X139.141 Y99.355 E28.62081
G1 X138.715 Y100.384 E28.67900
G1 X138.289 Y101.123 E28.72357
G1 X137.610 Y102.007 E28.78180
G1 X137.006 Y102.611 E28.82640
G1 X136.123 Y103.289 E28.88457
G1 X135.384 Y103.715 E28.92916
G1 X134.355 Y104.141 E28.98733
G1 X133.531 Y104.362 E29.03190
G1 X132.637 Y104.480 E29.07901
G1 X132.213 Y104.508 E29.10123
G1 X125.304 Y104.508 E29.46215
G1 X121.492 Y100.696 E29.74380
G1 X121.492 Y95.770 E30.00111
G1 X121.230 Y95.508 E30.02054
G1 X94.770 Y95.508 E31.40289
G1 X94.508 Y95.770 E31.42231
G1 X94.508 Y97.213 E31.49768
G1 X94.480 Y97.638 E31.51994
G1 X94.362 Y98.531 E31.56699
G1 X94.141 Y99.355 E31.61157
G1 X93.715 Y100.384 E31.66976
G1 X93.289 Y101.123 E31.71433
G1 X92.610 Y102.007 E31.77256
G1 X92.006 Y102.611 E31.81716
G1 X91.123 Y103.289 E31.87532
G1 X90.384 Y103.715 E31.91992
G1 X89.355 Y104.141 E31.97809
G1 X88.531 Y104.362 E32.02266
G1 X87.637 Y104.480 E32.06977
G1 X87.213 Y104.508 E32.09199
G1 X80.304 Y104.508 E32.45291
G1 X76.492 Y100.696 E32.73456
G1 X76.492 Y49.304 E35.41948
G1 X76.619 Y49.178 E35.42884
G1 X76.979 Y49.453 F7200.000
G1 X80.490 Y45.941 E35.68829 F1200.000
G1 X87.198 Y45.941 E36.03875
G1 X87.594 Y45.967 E36.05947
G1 X88.443 Y46.079 E36.10421 F1200.000
G1 X89.210 Y46.284 E36.14569
G1 X90.185 Y46.688 E36.20084
G1 X90.873 Y47.085 E36.24232
G1 X91.710 Y47.728 E36.29747
G1 X92.272 Y48.289 E36.33895
G1 X92.914 Y49.127 E36.39410
G1 X93.312 Y49.814 E36.43558
G1 X93.466 Y50.188 E36.45672
G1 X93.715 Y50.789 E36.49073
G1 X93.921 Y51.557 E36.53222
G1 X94.033 Y52.405 E36.57693
G1 X94.059 Y52.801 E36.59768
G1 X94.059 Y54.678 E36.69574
G1 X94.322 Y54.941 E36.71517
G1 X121.198 Y54.941 E38.11931
G1 X121.657 Y54.971 E38.14336
G1 X121.941 Y54.705 E38.16369
G1 X121.941 Y49.490 E38.43614
G1 X125.490 Y45.941 E38.69837
G1 X132.198 Y45.941 E39.04883
G1 X132.594 Y45.967 E39.06956
G1 X133.443 Y46.079 E39.11430
G1 X134.210 Y46.284 E39.15577
G1 X135.185 Y46.688 E39.21092
G1 X135.873 Y47.085 E39.25241
G1 X136.194 Y47.331 E39.27353
G1 X136.710 Y47.728 E39.30755
G1 X137.272 Y48.289 E39.34904
G1 X137.914 Y49.127 E39.40418
G1 X138.312 Y49.814 E39.44567
G1 X138.715 Y50.789 E39.50081
G1 X138.921 Y51.557 E39.54231
G1 X139.033 Y52.405 E39.58702
G1 X139.059 Y52.801 E39.60777
G1 X139.059 Y54.678 E39.70583
G1 X139.322 Y54.941 E39.72525
G1 X166.198 Y54.941 E41.12940
G1 X166.593 Y54.967 E41.15008
G1 X169.054 Y55.290 E41.27977
G1 X169.602 Y55.915 E41.32319
G1 X169.873 Y56.085 E41.33991
G1 X170.711 Y56.728 E41.39506
G1 X171.273 Y57.290 E41.43659
G1 X171.915 Y58.127 E41.49169
G1 X172.312 Y58.815 E41.53322
G1 X172.715 Y59.789 E41.58830
G1 X172.921 Y60.557 E41.62980
G1 X173.033 Y61.407 E41.67460
G1 X173.059 Y61.802 E41.69529
G1 X173.059 Y88.198 E43.07436
G1 X173.033 Y88.594 E43.09507
G1 X172.921 Y89.443 E43.13983
G1 X172.716 Y90.210 E43.18132
G1 X172.312 Y91.185 E43.23645
G1 X171.915 Y91.873 E43.27791
G1 X171.272 Y92.711 E43.33312
G1 X170.709 Y93.273 E43.37466
G1 X169.873 Y93.915 E43.42973
G1 X169.185 Y94.312 E43.47123
G1 X168.211 Y94.715 E43.52634
G1 X167.443 Y94.921 E43.56784
G1 X166.594 Y95.033 E43.61260
G1 X166.198 Y95.059 E43.63332
G1 X139.322 Y95.059 E45.03748
G1 X139.059 Y95.322 E45.05691
G1 X139.059 Y97.198 E45.15495
G1 X139.033 Y97.594 E45.17568
G1 X138.921 Y98.443 E45.22043
G1 X138.715 Y99.211 E45.26193
G1 X138.312 Y100.185 E45.31705
G1 X137.915 Y100.873 E45.35854
G1 X137.272 Y101.711 E45.41369
G1 X136.710 Y102.273 E45.45522
G1 X135.873 Y102.915 E45.51032
G1 X135.185 Y103.312 E45.55184
G1 X134.211 Y103.715 E45.60693
G1 X133.443 Y103.921 E45.64843
G1 X132.593 Y104.033 E45.69323
G1 X132.198 Y104.059 E45.71392
G1 X125.490 Y104.059 E46.06436
G1 X121.941 Y100.510 E46.32659
G1 X121.941 Y95.295 E46.59904
G1 X121.657 Y95.029 E46.61937
G1 X121.198 Y95.059 E46.64340
G1 X94.322 Y95.059 E48.04757
G1 X94.059 Y95.322 E48.06699
G1 X94.059 Y97.198 E48.16504
G1 X94.033 Y97.594 E48.18576
G1 X93.921 Y98.443 E48.23051
G1 X93.715 Y99.211 E48.27201
G1 X93.312 Y100.185 E48.32713
G1 X92.915 Y100.873 E48.36862
G1 X92.272 Y101.711 E48.42378
G1 X91.710 Y102.273 E48.46530
G1 X90.873 Y102.915 E48.52040
G1 X90.185 Y103.312 E48.56192
G1 X89.211 Y103.715 E48.61702
G1 X88.443 Y103.921 E48.65852
G1 X87.593 Y104.033 E48.70332
G1 X87.198 Y104.059 E48.72400
G1 X80.490 Y104.059 E49.07444
G1 X76.941 Y100.510 E49.33667
G1 X76.941 Y49.497 E52.00182
G1 X77.390 Y49.676 F7200.000
G1 X80.676 Y46.390 E52.24462 F1200.000
G1 X87.184 Y46.390 E52.58460
G1 X87.550 Y46.414 E52.60379 F1200.000
G1 X88.355 Y46.520 E52.64623
G1 X89.066 Y46.710 E52.68463
G1 X89.986 Y47.092 E52.73671
G1 X90.623 Y47.459 E52.77512
G1 X91.414 Y48.066 E52.82719
G1 X91.934 Y48.586 E52.86560
G1 X92.541 Y49.377 E52.91767
G1 X92.908 Y50.013 E52.95608
G1 X93.052 Y50.360 E52.97568
G1 X93.290 Y50.934 E53.00815
G1 X93.480 Y51.644 E53.04657
G1 X93.586 Y52.449 E53.08898
G1 X93.610 Y52.816 E53.10820
G1 X93.610 Y55.127 E53.22893
G1 X93.873 Y55.390 E53.24836
G1 X121.183 Y55.390 E54.67519
G1 X121.549 Y55.414 E54.69434
G1 X122.084 Y55.484 E54.72254
G1 X122.390 Y55.216 E54.74379
G1 X122.390 Y49.676 E55.03322
G1 X125.676 Y46.390 E55.27602
G1 X132.184 Y46.390 E55.61600
G1 X132.550 Y46.414 E55.63519
G1 X133.355 Y46.520 E55.67763
G1 X134.066 Y46.710 E55.71603
G1 X134.986 Y47.092 E55.76811
G1 X135.623 Y47.459 E55.80652
G1 X136.414 Y48.066 E55.85859
G1 X136.934 Y48.586 E55.89700
G1 X137.541 Y49.377 E55.94907
G1 X137.908 Y50.013 E55.98748
G1 X138.052 Y50.360 E56.00708
G1 X138.290 Y50.934 E56.03955
G1 X138.480 Y51.644 E56.07797
G1 X138.586 Y52.449 E56.12039
G1 X138.610 Y52.816 E56.13960
G1 X138.610 Y55.127 E56.26033
G1 X138.873 Y55.390 E56.27976
G1 X166.183 Y55.390 E57.70659
G1 X166.549 Y55.414 E57.72574
G1 X168.828 Y55.713 E57.84584
G1 X169.314 Y56.267 E57.88430
G1 X169.623 Y56.459 E57.90335
G1 X170.414 Y57.066 E57.95543
G1 X170.934 Y57.587 E57.99388
G1 X171.541 Y58.377 E58.04591
G1 X171.909 Y59.014 E58.08436
G1 X172.290 Y59.934 E58.13638
G1 X172.480 Y60.644 E58.17480
G1 X172.586 Y61.451 E58.21729
G1 X172.610 Y61.817 E58.23645
G1 X172.610 Y88.184 E59.61398
G1 X172.586 Y88.550 E59.63316
G1 X172.480 Y89.356 E59.67561
G1 X172.290 Y90.066 E59.71403
G1 X171.908 Y90.986 E59.76609
G1 X171.541 Y91.623 E59.80448
G1 X170.934 Y92.414 E59.85660
G1 X170.413 Y92.935 E59.89507
G1 X169.623 Y93.541 E59.94707
G1 X168.986 Y93.908 E59.98550
G1 X168.066 Y94.290 E60.03754
G1 X167.356 Y94.480 E60.07596
G1 X166.550 Y94.586 E60.11842
G1 X166.184 Y94.610 E60.13760
G1 X138.873 Y94.610 E61.56444
G1 X138.610 Y94.873 E61.58387
G1 X138.610 Y97.184 E61.70459
G1 X138.586 Y97.550 E61.72378
G1 X138.480 Y98.356 E61.76623
G1 X138.290 Y99.066 E61.80465
G1 X137.908 Y99.986 E61.85670
G1 X137.541 Y100.623 E61.89512
G1 X136.934 Y101.414 E61.94720
G1 X136.413 Y101.934 E61.98565
G1 X135.623 Y102.541 E62.03768
G1 X134.986 Y102.909 E62.07612
G1 X134.066 Y103.290 E62.12815
G1 X133.356 Y103.480 E62.16657
G1 X132.549 Y103.586 E62.20906
G1 X132.183 Y103.610 E62.22822
G1 X125.676 Y103.610 E62.56818
G1 X122.390 Y100.324 E62.81098
G1 X122.390 Y94.784 E63.10042
G1 X122.084 Y94.516 E63.12166
G1 X121.550 Y94.586 E63.14982
G1 X121.184 Y94.610 E63.16900
G1 X93.873 Y94.610 E64.59585
