; generated by Slic3r 1.2.9 on 2018-05-05 at 14:21:17

; external perimeters extrusion width = 0.40mm
; perimeters extrusion width = 0.58mm
; infill extrusion width = 0.58mm
; solid infill extrusion width = 0.58mm
; top infill extrusion width = 0.58mm

M104 S220 ; set temperature
;G28 ; home all axes
G1 Z10 F5000 ; lift nozzle

M104 S220 ; set temperature
M116 ; wait for temperature to be reached
G21 ; set units to millimeters
G90 ; use absolute coordinates
M82 ; use absolute distances for extrusion
G92 E0
G1 E-2.00000 F3600.00000
G92 E0
G1 Z0.280 F7200.000
G1 X93.935 Y48.153 F7200.000
G1 E2.00000 F3600.00000
G1 X94.976 Y46.505 E2.10185 F1200.000
G1 X95.134 Y46.298 E2.11549
G1 X97.136 Y44.287 E2.26373
G1 X97.343 Y44.128 E2.27733
G1 X99.796 Y42.703 E2.42557
G1 X100.038 Y42.601 E2.43929
G1 X102.774 Y41.858 E2.58740
G1 X103.032 Y41.823 E2.60100
G1 X104.450 Y41.725 E2.67529
G1 X145.450 Y41.554 E4.81735
G1 X146.672 Y41.617 E4.88124
G1 X146.897 Y41.642 E4.89310 F1200.000
G1 X149.285 Y42.178 E5.02093
G1 X149.497 Y42.251 E5.03266
G1 X151.704 Y43.306 E5.16048
G1 X151.895 Y43.425 E5.17221
G1 X153.811 Y44.946 E5.30004
G1 X153.970 Y45.105 E5.31177
G1 X155.499 Y47.015 E5.43961
G1 X155.619 Y47.205 E5.45134
G1 X156.168 Y48.184 E5.51001
G1 X158.634 Y53.169 E5.80052
G1 X159.034 Y54.071 E5.85211
G1 X159.770 Y56.819 E6.00075
G1 X159.804 Y57.078 E6.01439
G1 X159.898 Y58.501 E6.08886
G1 X159.898 Y97.549 E8.12892
G1 X159.499 Y100.467 E8.28282
G1 X158.334 Y103.173 E8.43673
G1 X156.487 Y105.467 E8.59063
G1 X154.092 Y107.183 E8.74454
G1 X151.325 Y108.195 E8.89845
G1 X148.971 Y108.446 E9.02215
G1 X100.971 Y108.318 E11.52993
G1 X98.053 Y107.912 E11.68383
G1 X95.351 Y106.739 E11.83774
G1 X93.061 Y104.886 E11.99164
G1 X91.352 Y102.487 E12.14555
G1 X90.347 Y99.717 E12.29946
G1 X90.102 Y97.421 E12.42013
G1 X90.102 Y58.501 E14.45350
G1 X90.195 Y57.080 E14.52788
G1 X90.230 Y56.819 E14.54162
G1 X90.966 Y54.071 E14.69024
G1 X91.436 Y53.031 E14.74990
G1 X93.908 Y48.207 E15.03308
G1 X94.334 Y48.358 F7200.000
G1 X95.332 Y46.778 E15.13074 F1200.000
G1 X95.491 Y46.570 E15.14438
G1 X97.410 Y44.642 E15.28651
G1 X97.617 Y44.483 E15.30011
G1 X99.969 Y43.117 E15.44224
G1 X100.211 Y43.015 E15.45596
G1 X102.834 Y42.303 E15.59797
G1 X103.092 Y42.268 E15.61157
G1 X104.452 Y42.174 E15.68280
G1 X145.452 Y42.003 E17.82486
G1 X146.623 Y42.064 E17.88612
G1 X146.849 Y42.088 E17.89797 F1200.000
G1 X149.138 Y42.602 E18.02054
G1 X149.350 Y42.676 E18.03227
G1 X151.467 Y43.687 E18.15483
G1 X151.657 Y43.806 E18.16656
G1 X153.495 Y45.264 E18.28912
G1 X153.654 Y45.423 E18.30085
G1 X155.120 Y47.254 E18.42342
G1 X155.239 Y47.444 E18.43515
G1 X155.766 Y48.383 E18.49140
G1 X158.232 Y53.368 E18.78192
G1 X158.619 Y54.243 E18.83195
G1 X159.325 Y56.878 E18.97446
G1 X159.359 Y57.137 E18.98810
G1 X159.449 Y58.501 E19.05950
G1 X159.449 Y97.549 E21.09956
G1 X159.051 Y100.405 E21.25025
G1 X157.887 Y103.044 E21.40094
G1 X156.046 Y105.265 E21.55163
G1 X153.668 Y106.897 E21.70232
G1 X150.934 Y107.817 E21.85301
G1 X148.972 Y107.997 E21.95595
G1 X100.972 Y107.869 E24.46372
G1 X98.116 Y107.464 E24.61441
G1 X95.480 Y106.293 E24.76510
G1 X93.265 Y104.446 E24.91579
G1 X91.639 Y102.063 E25.06647
G1 X90.727 Y99.327 E25.21716
G1 X90.551 Y97.421 E25.31719
G1 X90.551 Y58.501 E27.35057
G1 X90.640 Y57.139 E27.42188
G1 X90.675 Y56.878 E27.43561
G1 X91.381 Y54.243 E27.57812
G1 X91.835 Y53.235 E27.63588
G1 X94.307 Y48.412 E27.91906
G1 F5760
G1 X95.332 Y46.778 E26.77372
G1 F5760
G1 X95.491 Y46.570 E26.61871
G1 F5760
G1 X96.203 Y45.855 E26.01906
G1 E25.91906 F3600.00000
G92 E0
G1 X97.377 Y50.048 F7200.000
G1 E2.00000 F3600.00000
G1 X97.831 Y49.260 E2.04750 F1200.000
G1 X98.541 Y48.330 E2.10864
G1 X99.183 Y47.686 E2.15616
G1 X100.110 Y46.971 E2.21727
G1 X100.896 Y46.514 E2.26478
G1 X101.976 Y46.063 E2.32596
G1 X102.853 Y45.825 E2.37343
G1 X103.786 Y45.698 E2.42262
G1 X104.240 Y45.667 E2.44637
G1 X145.662 Y45.494 E4.61050
G1 X146.052 Y45.515 E4.63091
G1 X146.861 Y45.602 E4.67340 F1200.000
G1 X147.625 Y45.774 E4.71433
G1 X148.577 Y46.104 E4.76696
G1 X149.284 Y46.442 E4.80790
G1 X150.139 Y46.975 E4.86055
G1 X150.753 Y47.462 E4.90149
G1 X151.466 Y48.173 E4.95411
G1 X151.956 Y48.785 E4.99507
G1 X152.494 Y49.638 E5.04774
G1 X152.835 Y50.343 E5.08867
G1 X153.169 Y51.296 E5.14139
G1 X153.343 Y52.058 E5.18227
G1 X153.402 Y52.580 E5.20967
G1 X153.468 Y52.717 E5.21763
G1 X153.948 Y53.197 E5.25309
G1 X154.663 Y54.128 E5.31444
G1 X155.119 Y54.918 E5.36205
G1 X155.567 Y56.000 E5.42325
G1 X155.803 Y56.881 E5.47093
G1 X155.926 Y57.817 E5.52024
G1 X155.956 Y58.272 E5.54408
G1 X155.956 Y100.435 E7.74689
G1 X151.868 Y104.513 E8.04854
G1 X98.105 Y104.369 E10.85738
G1 X94.044 Y100.297 E11.15789
G1 X94.044 Y58.273 E13.35340
G1 X94.073 Y57.819 E13.37716
G1 X94.197 Y56.882 E13.42657
G1 X94.433 Y56.001 E13.47421
G1 X94.882 Y54.917 E13.53548
G1 X95.338 Y54.128 E13.58312
G1 X96.052 Y53.197 E13.64441
G1 X96.558 Y52.690 E13.68184
G1 X96.624 Y52.557 E13.68958
G1 X96.696 Y52.008 E13.71855
G1 X96.931 Y51.129 E13.76604
G1 X97.354 Y50.103 E13.82405
G1 X97.781 Y50.246 F7200.000
G1 X98.205 Y49.509 E13.86848 F1200.000
G1 X98.880 Y48.626 E13.92655
G1 X99.481 Y48.023 E13.97100
G1 X100.360 Y47.345 E14.02905
G1 X101.096 Y46.917 E14.07350
G1 X102.122 Y46.488 E14.13161
G1 X102.943 Y46.266 E14.17602
G1 X103.832 Y46.145 E14.22291
G1 X104.256 Y46.116 E14.24512
G1 X145.651 Y45.943 E16.40784
G1 X146.016 Y45.962 E16.42693 F1200.000
G1 X146.787 Y46.046 E16.46743
G1 X147.502 Y46.206 E16.50572
G1 X148.406 Y46.520 E16.55572
G1 X149.068 Y46.836 E16.59401
G1 X149.880 Y47.343 E16.64402
G1 X150.454 Y47.798 E16.68232
G1 X151.132 Y48.473 E16.73230
G1 X151.590 Y49.046 E16.77062
G1 X152.101 Y49.856 E16.82065
G1 X152.420 Y50.516 E16.85894
G1 X152.737 Y51.420 E16.90902
G1 X152.900 Y52.134 E16.94726
G1 X152.974 Y52.786 E16.98154
G1 X153.040 Y52.923 E16.98950
G1 X153.610 Y53.493 E17.03162
G1 X154.289 Y54.378 E17.08989
G1 X154.715 Y55.116 E17.13443
G1 X155.141 Y56.144 E17.19256
G1 X155.362 Y56.969 E17.23717
G1 X155.480 Y57.861 E17.28418
G1 X155.508 Y58.287 E17.30648
G1 X155.508 Y100.249 E19.49879
G1 X151.683 Y104.063 E19.78098
G1 X98.292 Y103.921 E22.57039
G1 X94.492 Y100.111 E22.85151
G1 X94.492 Y58.288 E25.03656
G1 X94.520 Y57.863 E25.05879
G1 X94.638 Y56.969 E25.10589
G1 X94.859 Y56.145 E25.15046
G1 X95.285 Y55.116 E25.20866
G1 X95.711 Y54.377 E25.25323
G1 X96.390 Y53.494 E25.31144
G1 X96.983 Y52.900 E25.35530
G1 X97.049 Y52.767 E25.36304
G1 X97.137 Y52.095 E25.39844
G1 X97.357 Y51.274 E25.44287
G1 X97.758 Y50.302 E25.49780
G1 X98.184 Y50.445 F7200.000
G1 X98.579 Y49.758 E25.53918 F1200.000
G1 X99.219 Y48.922 E25.59418
G1 X99.778 Y48.361 E25.63557
G1 X100.611 Y47.718 E25.69055
G1 X101.296 Y47.320 E25.73193
G1 X102.268 Y46.914 E25.78697
G1 X103.032 Y46.706 E25.82832
G1 X103.878 Y46.592 E25.87291
G1 X104.273 Y46.564 E25.89360
G1 X145.641 Y46.392 E28.05489
G1 X145.980 Y46.410 E28.07266
G1 X146.713 Y46.489 E28.11117 F1200.000
G1 X147.379 Y46.639 E28.14682
G1 X148.236 Y46.935 E28.19418
G1 X148.851 Y47.230 E28.22984
G1 X149.620 Y47.710 E28.27721
G1 X150.155 Y48.134 E28.31286
G1 X150.797 Y48.774 E28.36021
G1 X151.224 Y49.307 E28.39588
G1 X151.708 Y50.074 E28.44327
G1 X152.004 Y50.688 E28.47892
G1 X152.305 Y51.545 E28.52635
G1 X152.457 Y52.209 E28.56196
G1 X152.548 Y53.013 E28.60422
G1 X152.638 Y53.173 E28.61378
G1 X153.272 Y53.790 E28.66002
G1 X153.915 Y54.628 E28.71521
G1 X154.312 Y55.315 E28.75668
G1 X154.715 Y56.289 E28.81174
G1 X154.921 Y57.057 E28.85327
G1 X155.033 Y57.905 E28.89798
G1 X155.059 Y58.302 E28.91874
G1 X155.059 Y100.063 E31.10055
G1 X151.498 Y103.614 E31.36328
G1 X98.479 Y103.473 E34.13327
G1 X94.941 Y99.925 E34.39500
G1 X94.941 Y58.302 E36.56959
G1 X94.967 Y57.907 E36.59029
G1 X95.079 Y57.057 E36.63508
G1 X95.285 Y56.290 E36.67658
G1 X95.688 Y55.315 E36.73170
G1 X96.085 Y54.627 E36.77320
G1 X96.728 Y53.790 E36.82833
G1 X97.290 Y53.228 E36.86983
G1 X97.381 Y53.158 E36.87587
G1 X97.471 Y53.003 E36.88520
G1 X97.578 Y52.183 E36.92844
G1 X97.783 Y51.418 E36.96981
G1 X98.162 Y50.500 E37.02168
G1 X98.588 Y50.643 F7200.000
G1 X98.954 Y50.008 E37.05998 F1200.000
G1 X99.558 Y49.218 E37.11192
G1 X100.075 Y48.698 E37.15024
G1 X100.862 Y48.091 E37.20216
G1 X101.496 Y47.723 E37.24048
G1 X102.414 Y47.339 E37.29244
G1 X103.121 Y47.147 E37.33073
G1 X103.923 Y47.039 E37.37303
G1 X104.289 Y47.013 E37.39218
G1 X145.630 Y46.841 E39.55205
G1 X146.640 Y46.933 E39.60502 F1200.000
G1 X147.256 Y47.071 E39.63802
G1 X148.065 Y47.351 E39.68274
G1 X148.635 Y47.624 E39.71576
G1 X149.361 Y48.077 E39.76049
G1 X149.856 Y48.470 E39.79350
G1 X150.463 Y49.074 E39.83821
G1 X150.858 Y49.567 E39.87124
G1 X151.315 Y50.292 E39.91599
G1 X151.589 Y50.861 E39.94900
G1 X151.873 Y51.670 E39.99378
G1 X152.014 Y52.285 E40.02675
G1 X152.106 Y53.227 E40.07623
G1 X152.198 Y53.401 E40.08648
G1 X152.413 Y53.566 E40.10067
G1 X152.934 Y54.086 E40.13911
G1 X153.541 Y54.878 E40.19123
G1 X153.908 Y55.514 E40.22962
G1 X154.289 Y56.434 E40.28162
G1 X154.480 Y57.145 E40.32007
G1 X154.586 Y57.949 E40.36248
G1 X154.610 Y58.317 E40.38170
G1 X154.610 Y99.877 E42.55301
G1 X151.313 Y103.165 E42.79628
G1 X98.666 Y103.024 E45.54684
G1 X95.390 Y99.740 E45.78919
G1 X95.390 Y58.317 E47.95332
G1 X95.414 Y57.951 E47.97248
G1 X95.520 Y57.145 E48.01497
G1 X95.710 Y56.435 E48.05339
G1 X96.092 Y55.514 E48.10544
G1 X96.459 Y54.877 E48.14386
G1 X97.066 Y54.087 E48.19592
G1 X97.586 Y53.567 E48.23435
G1 X97.813 Y53.393 E48.24928
G1 X97.904 Y53.222 E48.25941
G1 X98.019 Y52.270 E48.30947
G1 X98.209 Y51.562 E48.34778
G1 X98.565 Y50.699 E48.39658
G1 X98.992 Y50.842 F7200.000
G1 X99.328 Y50.257 E48.43182 F1200.000
G1 X99.896 Y49.514 E48.48069
G1 X100.372 Y49.036 E48.51595
G1 X101.113 Y48.465 E48.56480
G1 X101.696 Y48.126 E48.60005
G1 X102.560 Y47.765 E48.64895
G1 X103.211 Y47.588 E48.68417
G1 X103.969 Y47.485 E48.72418
G1 X104.306 Y47.462 E48.74180
G1 X145.619 Y47.290 E50.90024
G1 X145.909 Y47.305 E50.91538
G1 X146.566 Y47.376 E50.94993 F1200.000
G1 X147.133 Y47.504 E50.98029
G1 X147.894 Y47.767 E51.02237
G1 X148.419 Y48.018 E51.05275
G1 X149.102 Y48.444 E51.09484
G1 X149.558 Y48.806 E51.12521
G1 X150.128 Y49.374 E51.16728
G1 X150.492 Y49.828 E51.19767
G1 X150.921 Y50.510 E51.23977
G1 X151.174 Y51.033 E51.27014
G1 X151.441 Y51.794 E51.31228
G1 X151.571 Y52.360 E51.34261
G1 X151.645 Y53.017 E51.37715
G1 X151.661 Y53.438 E51.39915
G1 X151.754 Y53.626 E51.41009
G1 X152.117 Y53.904 E51.43400
G1 X152.596 Y54.383 E51.46937
G1 X153.167 Y55.128 E51.51841
G1 X153.505 Y55.713 E51.55373
G1 X153.863 Y56.578 E51.60265
G1 X154.039 Y57.232 E51.63803
G1 X154.139 Y57.993 E51.67814
G1 X154.161 Y58.331 E51.69582
G1 X154.161 Y99.690 E53.85663
G1 X151.128 Y102.716 E54.08044
G1 X98.852 Y102.576 E56.81158
G1 X95.839 Y99.554 E57.03454
G1 X95.839 Y58.332 E59.18821
G1 X95.861 Y57.995 E59.20584
G1 X95.961 Y57.233 E59.24601
G1 X96.136 Y56.579 E59.28136
G1 X96.495 Y55.713 E59.33034
G1 X96.833 Y55.127 E59.36569
G1 X97.404 Y54.383 E59.41468
G1 X97.883 Y53.905 E59.45003
G1 X98.247 Y53.625 E59.47405
G1 X98.339 Y53.454 E59.48418
G1 X98.361 Y53.118 E59.50176
G1 X98.461 Y52.358 E59.54182
G1 X98.635 Y51.706 E59.57706
G1 X98.969 Y50.897 E59.62280
G1 X99.395 Y51.040 F7200.000
G1 X99.702 Y50.506 E59.65497 F1200.000
G1 X100.235 Y49.810 E59.70078
G1 X100.670 Y49.373 E59.73297
G1 X101.364 Y48.838 E59.77875
G1 X101.896 Y48.528 E59.81094
G1 X102.706 Y48.190 E59.85677
G1 X103.300 Y48.029 E59.88893
G1 X104.015 Y47.932 E59.92664
G1 X104.322 Y47.911 E59.94272
G1 X145.609 Y47.739 E62.09974
G1 X146.492 Y47.820 E62.14611 F1200.000
G1 X147.010 Y47.936 E62.17384
G1 X147.724 Y48.183 E62.21328
G1 X148.203 Y48.412 E62.24101
G1 X148.843 Y48.812 E62.28046
G1 X149.259 Y49.142 E62.30820
G1 X149.794 Y49.674 E62.34762
G1 X150.125 Y50.089 E62.37537
G1 X150.528 Y50.728 E62.41484
G1 X150.759 Y51.206 E62.44256
G1 X151.009 Y51.919 E62.48206
G1 X151.128 Y52.436 E62.50975
G1 X151.198 Y53.055 E62.54231
G1 X151.212 Y53.659 E62.57389
G1 X151.305 Y53.847 E62.58483
G1 X151.820 Y54.243 E62.61877
G1 X152.258 Y54.680 E62.65106
G1 X152.793 Y55.377 E62.69702
G1 X153.102 Y55.912 E62.72927
G1 X153.438 Y56.723 E62.77513
G1 X153.598 Y57.320 E62.80743
G1 X153.692 Y58.038 E62.84523
G1 X153.712 Y58.346 E62.86138
G1 X153.712 Y99.504 E65.01169
G1 X150.943 Y102.266 E65.21604
G1 X99.039 Y102.128 E67.92775
G1 X96.288 Y99.369 E68.13133
G1 X96.288 Y58.347 E70.27453
G1 X96.308 Y58.039 E70.29063
G1 X96.402 Y57.320 E70.32850
G1 X96.562 Y56.724 E70.36078
G1 X96.898 Y55.912 E70.40668
G1 X97.207 Y55.377 E70.43895
G1 X97.742 Y54.680 E70.48487
G1 X98.179 Y54.243 E70.51714
G1 X98.695 Y53.847 E70.55112
G1 X98.788 Y53.659 E70.56205
G1 X98.808 Y53.162 E70.58807
G1 X98.902 Y52.445 E70.62582
G1 X99.061 Y51.850 E70.65800
G1 X99.372 Y51.095 E70.70067
G1 X99.799 Y51.238 F7200.000
G1 X100.077 Y50.755 E70.72978 F1200.000
G1 X100.574 Y50.106 E70.77252
G1 X100.967 Y49.711 E70.80164
G1 X101.615 Y49.211 E70.84436
G1 X102.097 Y48.931 E70.87348
G1 X102.852 Y48.616 E70.91624
G1 X103.389 Y48.470 E70.94534
G1 X104.061 Y48.379 E70.98075
G1 X104.339 Y48.359 E70.99531
G1 X145.598 Y48.187 E73.15090
G1 X145.837 Y48.200 E73.16341
G1 X146.419 Y48.263 E73.19399 F1200.000
G1 X146.887 Y48.368 E73.21907
G1 X147.553 Y48.599 E73.25587
G1 X147.986 Y48.806 E73.28097
G1 X148.584 Y49.179 E73.31777
G1 X148.960 Y49.478 E73.34287
G1 X149.459 Y49.974 E73.37966
G1 X149.759 Y50.350 E73.40476
G1 X150.135 Y50.946 E73.44159
G1 X150.344 Y51.378 E73.46667
G1 X150.578 Y52.044 E73.50353
G1 X150.684 Y52.511 E73.52858
G1 X150.750 Y53.093 E73.55915
G1 X150.764 Y53.881 E73.60032
G1 X150.856 Y54.068 E73.61126
G1 X151.524 Y54.581 E73.65523
G1 X151.919 Y54.976 E73.68445
G1 X152.419 Y55.627 E73.72733
G1 X152.698 Y56.111 E73.75651
G1 X153.012 Y56.868 E73.79930
G1 X153.157 Y57.408 E73.82852
G1 X153.245 Y58.082 E73.86402
G1 X153.264 Y58.361 E73.87863
G1 X153.264 Y99.318 E76.01844
G1 X150.758 Y101.817 E76.20332
G1 X99.226 Y101.679 E78.89562
G1 X96.736 Y99.183 E79.07980
G1 X96.736 Y58.361 E81.21255
G1 X96.755 Y58.083 E81.22711
G1 X96.843 Y57.408 E81.26268
G1 X96.988 Y56.868 E81.29188
G1 X97.302 Y56.111 E81.33471
G1 X97.581 Y55.627 E81.36391
G1 X98.080 Y54.976 E81.40675
G1 X98.476 Y54.581 E81.43595
G1 X99.144 Y54.068 E81.47995
G1 X99.236 Y53.881 E81.49088
G1 X99.255 Y53.206 E81.52616
G1 X99.343 Y52.533 E81.56162
G1 X99.487 Y51.994 E81.59073
G1 X99.776 Y51.294 E81.63033
G1 X100.203 Y51.437 F7200.000
G1 X100.451 Y51.005 E81.65638 F1200.000
G1 X100.912 Y50.401 E81.69605
G1 X101.264 Y50.048 E81.72211
G1 X101.865 Y49.584 E81.76177
G1 X102.297 Y49.334 E81.78782
G1 X102.998 Y49.041 E81.82751
G1 X103.479 Y48.910 E81.85355
G1 X104.355 Y48.808 E81.89967
G1 X145.587 Y48.636 E84.05383
G1 X146.345 Y48.706 E84.09361 F1200.000
G1 X146.764 Y48.801 E84.11605
G1 X147.382 Y49.015 E84.15022
G1 X147.770 Y49.200 E84.17266
G1 X148.325 Y49.546 E84.20683
G1 X148.661 Y49.813 E84.22928
G1 X149.124 Y50.275 E84.26344
G1 X149.393 Y50.610 E84.28590
G1 X149.742 Y51.164 E84.32008
G1 X149.929 Y51.551 E84.34253
G1 X150.146 Y52.168 E84.37674
G1 X150.241 Y52.587 E84.39915
G1 X150.303 Y53.131 E84.42774
G1 X150.315 Y54.139 E84.48041
G1 X150.435 Y54.347 E84.49297
G1 X150.624 Y54.456 E84.50437
G1 X151.227 Y54.919 E84.54411
G1 X151.581 Y55.273 E84.57025
G1 X152.045 Y55.877 E84.61005
G1 X152.295 Y56.310 E84.63616
G1 X152.586 Y57.012 E84.67588
G1 X152.715 Y57.496 E84.70203
G1 X152.798 Y58.126 E84.73523
G1 X152.815 Y58.375 E84.74831
G1 X152.815 Y99.132 E86.87761
G1 X150.573 Y101.368 E87.04304
G1 X99.413 Y101.231 E89.71591
G1 X97.185 Y98.998 E89.88070
G1 X97.185 Y58.376 E92.00299
G1 X97.285 Y57.496 E92.04925
G1 X97.414 Y57.013 E92.07538
G1 X97.705 Y56.310 E92.11514
G1 X97.955 Y55.877 E92.14127
G1 X98.419 Y55.273 E92.18103
G1 X98.772 Y54.919 E92.20716
G1 X99.376 Y54.456 E92.24693
G1 X99.565 Y54.347 E92.25832
G1 X99.685 Y54.139 E92.27088
G1 X99.685 Y53.498 E92.30436
G1 X99.784 Y52.620 E92.35049
G1 X99.913 Y52.139 E92.37654
G1 X100.180 Y51.492 E92.41308
G1 X100.606 Y51.635 F7200.000
G1 X100.826 Y51.254 E92.43606 F1200.000
G1 X101.251 Y50.697 E92.47266
G1 X101.562 Y50.385 E92.49566
G1 X102.116 Y49.958 E92.53225
